shh444/ur-rtde/backend/recordings/rtde_20260515_135737_ggg.csv
frame_index,robot_timestamp_s,received_wall_time_s,timestamp,actual_q,actual_TCP_pose,target_current,actual_current,actual_current_window,urTimestamp,timer,wcrIn,weldCurrent,weldVoltage,xOffset,zOffset,BotRight_Plus,TopLeft_Minus,StandardCurrent,allIntegral,xUp,xUi,zUp,zUi,x,y,z,weldingOnOff,touchOnOff,ratioT_19,tri_count,tri_2,output_double_register_23,peak_value,Arc_percent,ARC_T_Plus,output_double_register_27,output_double_register_28,output_double_register_29,BotRight_Plus_VA,TopLeft_Minus_VA,output_double_register_32
694,16419.863999999998,1778821057.5779912,16419.863999999998,"[0.5037246346473694, -1.6452725569354456, -1.163877312337057, -1.8215292135821741, 1.5356662273406982, 2.08019757270813]","[0.5701320465879177, 0.04592758943812582, 0.02526678760019435, 2.814824604244519, -0.02415119956099187, 1.380110017595914]","[-0.010621915766543418, 1.2423541544612942, 1.7209314308393362, 1.1444885384084067, -0.24456167913083357, -0.007977180950910481]","[-0.010621915571391582, 1.242354154586792, 1.7209314107894897, 1.1444885730743408, -0.24456167221069336, -0.007977181114256382]","[3.798073115003808, 3.798073115003808, 4.285440390025987, 2.6302640264026405, 2.6302640264026405, 2.6302640264026405]",0.0,0.0,0.0,0.0,0.0,0.0,0.0,0.0,0.0,0.0,0.0,0.0,0.0,0.0,0.0,0.5701320217619052,0.04231988513761389,0.023539420980817072,1.0,0.0,0.0,0.0,0.0,11.0,0.0,0.0,0.0,0.0,0.0,0.0,0.0,0.0,0.0
695,16419.872,1778821057.5872273,16419.872,"[0.5088983178138733, -1.6478007475482386, -1.1567524115191858, -1.8263080755816858, 1.5352444648742676, 2.085357189178467]","[0.5701320455901315, 0.047731469453800114, 0.026130550729854318, 2.8148246352569317, -0.02415117784057493, 1.3801102412374529]","[-0.010757986871427082, 1.243635578801486, 1.718903207572811, 1.1430198944856895, -0.24703531202356432, -0.00803066742585864]","[-0.010757986456155777, 1.2436355352401733, 1.7189031839370728, 1.1430199146270752, -0.24703530967235565, -0.008030666969716549]","[3.798073115003808, 3.798073115003808, 4.285440390025987, 2.6302640264026405, 2.6302640264026405, 2.6302640264026405]",0.0,0.0,0.0,0.0,0.0,0.0,0.0,0.0,0.0,0.0,0.0,0.0,0.0,0.0,0.0,0.5701320465879177,0.04592758943812582,0.02526678760019435,1.0,0.0,0.0,0.0,0.0,11.0,0.0,0.0,0.0,0.0,0.0,0.0,0.0,0.0,0.0
696,16419.88,1778821057.6039875,16419.88,"[0.5140520334243774, -1.6503966490374964, -1.1495378653155726, -1.8311107794391077, 1.5348252058029175, 2.0904972553253174]","[0.5701320104157239, 0.049535240597990096, 0.026994115763616044, 2.8148246187044035, -0.02415127651886037, 1.3801098185136915]","[-0.010888563994919907, 1.2449606097164723, 1.7168566728076218, 1.1415355422508973, -0.2494930845045931, -0.008082714491678814]","[-0.01088856440037489, 1.2449606657028198, 1.7168567180633545, 1.1415355205535889, -0.2494930773973465, -0.00808271486312151]","[3.798073115003808, 3.798073115003808, 4.285440390025987, 2.6302640264026405, 2.6302640264026405, 2.6302640264026405]",0.0,0.0,0.0,0.0,0.0,0.0,0.0,0.0,0.0,0.0,0.0,0.0,0.0,0.0,0.0,0.5701320455901315,0.047731469453800114,0.026130550729854318,1.0,0.0,0.0,0.0,0.0,11.0,0.0,0.0,0.0,0.0,0.0,0.0,0.0,0.0,0.0
697,16419.888,1778821057.605493,16419.888,"[0.5191856622695923, -1.6530597845660608, -1.1422327200519007, -1.835937801991598, 1.5344085693359375, 2.0956172943115234]","[0.5701320426232381, 0.05133912462773224, 0.027857876886270894, 2.814824603831392, -0.024151344981163954, 1.3801100778904287]","[-0.011013562860411759, 1.246328204438371, 1.7147921990131032, 1.1400353720311964, -0.25193490073531827, -0.008133314124777346]","[-0.01101356279104948, 1.2463282346725464, 1.714792251586914, 1.1400353908538818, -0.25193488597869873, -0.008133314549922943]","[3.798073115003808, 3.798073115003808, 4.285440390025987, 2.6302640264026405, 2.6302640264026405, 2.6302640264026405]",0.0,0.0,0.0,0.0,0.0,0.0,0.0,0.0,0.0,0.0,0.0,0.0,0.0,0.0,0.0,0.5701320104157239,0.049535240597990096,0.026994115763616044,1.0,0.0,0.0,0.0,0.0,11.0,0.0,0.0,0.0,0.0,0.0,0.0,0.0,0.0,0.0
698,16419.896,1778821057.6123683,16419.896,"[0.5242989659309387, -1.6557911078082483, -1.1348355452166956, -1.8407905737506312, 1.5339945554733276, 2.100717067718506]","[0.5701319035992872, 0.05314296448357154, 0.02872144404239646, 2.8148247638555284, -0.024151027161721392, 1.3801096215183937]","[-0.011132898510602581, 1.247737253660496, 1.712710188352451, 1.138519248726776, -0.25436066968563475, -0.008182459144904017]","[-0.01113289874047041, 1.2477372884750366, 1.7127101421356201, 1.138519287109375, -0.2543606758117676, -0.008182459510862827]","[3.798073115003808, 3.798073115003808, 4.285440390025987, 2.6302640264026405, 2.6302640264026405, 2.6302640264026405]",0.0,0.0,0.0,0.0,0.0,0.0,0.0,0.0,0.0,0.0,0.0,0.0,0.0,0.0,0.0,0.5701320426232381,0.05133912462773224,0.027857876886270894,1.0,0.0,0.0,0.0,0.0,11.0,0.0,0.0,0.0,0.0,0.0,0.0,0.0,0.0,0.0
699,16419.904,1778821057.6204567,16419.904,"[0.5293916463851929, -1.658591095601217, -1.1273444334613245, -1.8456690947162073, 1.5335830450057983, 2.1057965755462646]","[0.570132127652413, 0.05494689819864428, 0.02958534988929762, 2.8148245875995075, -0.02415117908919929, 1.3801104112707763]","[-0.011246484959946105, 1.2491865760889116, 1.7106110763270785, 1.1369870095386705, -0.256770305087169, -0.008230143193964489]","[-0.011246484704315662, 1.249186635017395, 1.71061110496521, 1.1369869709014893, -0.2567703127861023, -0.00823014322668314]","[3.798073115003808, 3.798073115003808, 4.285440390025987, 2.6302640264026405, 2.6302640264026405, 2.6302640264026405]",0.0,0.0,0.0,0.0,0.0,0.0,0.0,0.0,0.0,0.0,0.0,0.0,0.0,0.0,0.0,0.5701320426232381,0.05133912462773224,0.027857876886270894,1.0,0.0,0.0,0.0,0.0,11.0,0.0,0.0,0.0,0.0,0.0,0.0,0.0,0.0,0.0
700,16419.912,1778821057.6284854,16419.912,"[0.53446364402771, -1.6614602247821253, -1.1197589079486292, -1.8505752722369593, 1.5331742763519287, 2.1108555793762207]","[0.5701319781456693, 0.056750707537896405, 0.030448791226855343, 2.814824741129263, -0.024150964519839068, 1.3801096568120024]","[-0.011354234777898648, 1.2506749124692975, 1.7084953357961592, 1.1354384614818869, -0.2591637253730858, -0.00827636070269767]","[-0.011354235000908375, 1.2506749629974365, 1.7084953784942627, 1.1354384422302246, -0.2591637372970581, -0.008276361040771008]","[3.798073115003808, 3.798073115003808, 4.285440390025987, 2.6302640264026405, 2.6302640264026405, 2.6302640264026405]",0.0,0.0,0.0,0.0,0.0,0.0,0.0,0.0,0.0,0.0,0.0,0.0,0.0,0.0,0.0,0.570132127652413,0.05494689819864428,0.02958534988929762,1.0,0.0,0.0,0.0,0.0,11.0,0.0,0.0,0.0,0.0,0.0,0.0,0.0,0.0,0.0
701,16419.92,1778821057.637116,16419.92,"[0.5395146608352661, -1.664398495350973, -1.1120765844928187, -1.8555095831500452, 1.5327681303024292, 2.115893840789795]","[0.5701320019876912, 0.058554586136455346, 0.0313126295936777, 2.8148247161847193, -0.02415106815346581, 1.3801100295085424]","[-0.011456058672239288, 1.252200918949754, 1.7063634815072737, 1.1338733786561215, -0.2615408536192692, -0.00832110686307097]","[-0.011456058360636234, 1.252200961112976, 1.7063634395599365, 1.1338733434677124, -0.26154085993766785, -0.008321106433868408]","[3.798073115003808, 3.798073115003808, 4.285440390025987, 2.6302640264026405, 2.6302640264026405, 2.6302640264026405]",0.0,0.0,0.0,0.0,0.0,0.0,0.0,0.0,0.0,0.0,0.0,0.0,0.0,0.0,0.0,0.5701319781456693,0.056750707537896405,0.030448791226855343,1.0,0.0,0.0,0.0,0.0,11.0,0.0,0.0,0.0,0.0,0.0,0.0,0.0,0.0,0.0
702,16419.928,1778821057.6446464,16419.928,"[0.5445445775985718, -1.6674073378192347, -1.1042965094195765, -1.8604729811297815, 1.5323646068572998, 2.1209113597869873]","[0.5701319253584729, 0.06035836623299463, 0.03217610578835939, 2.814824721342769, -0.02415113249094083, 1.3801094496080433]","[-0.011551864990569557, 1.2537631597083823, 1.704216075173714, 1.13229149924389, -0.2639016174745529, -0.008364377593911064]","[-0.011551865376532078, 1.253763198852539, 1.7042161226272583, 1.132291555404663, -0.26390162110328674, -0.008364377543330193]","[3.798073115003808, 3.798073115003808, 4.285440390025987, 2.6302640264026405, 2.6302640264026405, 2.6302640264026405]",0.0,0.0,0.0,0.0,0.0,0.0,0.0,0.0,0.0,0.0,0.0,0.0,0.0,0.0,0.0,0.5701320019876912,0.058554586136455346,0.0313126295936777,1.0,0.0,0.0,0.0,0.0,11.0,0.0,0.0,0.0,0.0,0.0,0.0,0.0,0.0,0.0
703,16419.935999999998,1778821057.6537948,16419.935999999998,"[0.5495531558990479, -1.6704867521869105, -1.0964162985431116, -1.8654664198504847, 1.5319637060165405, 2.1259074211120605]","[0.5701320762145476, 0.06216231332716734, 0.033039907523313816, 2.8148246592886617, -0.024150959987517148, 1.3801099628249258]","[-0.011641559190270687, 1.2553600987835005, 1.7020537311580608, 1.1306925222057445, -0.2662459490844808, -0.00840616950051214]","[-0.011641559191048145, 1.2553601264953613, 1.7020537853240967, 1.130692481994629, -0.26624596118927, -0.008406169712543488]","[3.798073115003808, 3.798073115003808, 4.285440390025987, 2.6302640264026405, 2.6302640264026405, 2.6302640264026405]",0.0,0.0,0.0,0.0,0.0,0.0,0.0,0.0,0.0,0.0,0.0,0.0,0.0,0.0,0.0,0.5701319253584729,0.06035836623299463,0.03217610578835939,1.0,0.0,0.0,0.0,0.0,11.0,0.0,0.0,0.0,0.0,0.0,0.0,0.0,0.0,0.0
704,16419.944,1778821057.6624775,16419.944,"[0.5545347332954407, -1.673633877431051, -1.0884435812579554, -1.870486084614889, 1.5315660238265991, 2.1308770179748535]","[0.570132007546708, 0.06396411321680127, 0.03390259256388162, 2.8148246770344945, -0.024151117818031507, 1.3801097060647514]","[-0.06318163629574126, 1.2726858831124068, 1.664952936843959, 1.1166975813528845, -0.28426600801053153, -0.008104836694818492]","[-0.06318163871765137, 1.2726858854293823, 1.6649529933929443, 1.1166975498199463, -0.28426599502563477, -0.008104836568236351]","[3.798073115003808, 3.798073115003808, 4.285440390025987, 2.6302640264026405, 2.6302640264026405, 2.6302640264026405]",0.0,0.0,0.0,0.0,0.0,0.0,0.0,0.0,0.0,0.0,0.0,0.0,0.0,0.0,0.0,0.5701319253584729,0.06035836623299463,0.03217610578835939,1.0,0.0,0.0,0.0,0.0,11.0,0.0,0.0,0.0,0.0,0.0,0.0,0.0,0.0,0.0
705,16419.951999999997,1778821057.6711075,16419.951999999997,"[0.5593719482421875, -1.6767719427691858, -1.0805695692645472, -1.8754122892962855, 1.531180739402771, 2.135702610015869]","[0.5701319589891893, 0.06572123183325157, 0.0347438989964729, 2.8148246682194946, -0.02415107523188563, 1.3801096202871168]","[-0.3053697445989105, 1.3527820892002234, 1.4958941802897714, 1.056397319971763, -0.36004308368979454, -0.0061891320789288625]","[-0.3053697347640991, 1.352782130241394, 1.495894193649292, 1.0563973188400269, -0.36004307866096497, -0.006189132109284401]","[3.798073115003808, 3.798073115003808, 4.285440390025987, 2.6302640264026405, 2.6302640264026405, 2.6302640264026405]",0.0,0.0,0.0,0.0,0.0,0.0,0.0,0.0,0.0,0.0,0.0,0.0,0.0,0.0,0.0,0.570132007546708,0.06396411321680127,0.03390259256388162,1.0,0.0,0.0,0.0,0.0,11.0,0.0,0.0,0.0,0.0,0.0,0.0,0.0,0.0,0.0
706,16419.96,1778821057.6795838,16419.96,"[0.5639989972114563, -1.6798513571368616, -1.072911564503805, -1.8801739851581019, 1.5308130979537964, 2.1403186321258545]","[0.5701321492575141, 0.06740926510011405, 0.03555226670398565, 2.8148246268387895, -0.0241512221890696, 1.3801104067930243]","[-0.3042936436822325, 1.3614986208892903, 1.4901002219977528, 1.0553324811987816, -0.3618865166542513, -0.00563718688851809]","[-0.3042936325073242, 1.3614985942840576, 1.4901002645492554, 1.0553324222564697, -0.36188653111457825, -0.005637187045067549]","[3.798073115003808, 3.798073115003808, 4.285440390025987, 2.6302640264026405, 2.6302640264026405, 2.6302640264026405]",0.0,0.0,0.0,0.0,0.0,0.0,0.0,0.0,0.0,0.0,0.0,0.0,0.0,0.0,0.0,0.5701319589891893,0.06572123183325157,0.0347438989964729,1.0,0.0,0.0,0.0,0.0,11.0,0.0,0.0,0.0,0.0,0.0,0.0,0.0,0.0,0.0
707,16419.968,1778821057.6882327,16419.968,"[0.5684180855751038, -1.6828649679767054, -1.0654800573932093, -1.8847692648517054, 1.5304627418518066, 2.1447274684906006]","[0.5701320888657294, 0.06902781346043244, 0.03632707810689856, 2.814824637626719, -0.024151223273906387, 1.3801098584366212]","[-0.303082488045554, 1.3699345929622708, 1.4845316187404793, 1.0543878615761115, -0.3635900157142409, -0.005101320782536742]","[-0.30308249592781067, 1.3699345588684082, 1.4845316410064697, 1.0543878078460693, -0.3635900020599365, -0.0051013207994401455]","[3.798073115003808, 3.798073115003808, 4.285440390025987, 2.6302640264026405, 2.6302640264026405, 2.6302640264026405]",0.0,0.0,0.0,0.0,0.0,0.0,0.0,0.0,0.0,0.0,0.0,0.0,0.0,0.0,0.0,0.5701321492575141,0.06740926510011405,0.03555226670398565,1.0,0.0,0.0,0.0,0.0,11.0,0.0,0.0,0.0,0.0,0.0,0.0,0.0,0.0,0.0
708,16419.976,1778821057.6970162,16419.976,"[0.5726314783096313, -1.6858051458941858, -1.058284107838766, -1.8891952673541468, 1.5301294326782227, 2.1489310264587402]","[0.5701320490792218, 0.07057717568679521, 0.03706895463036475, 2.8148246664386134, -0.024151098634114597, 1.3801098320293779]","[-0.3019062512090452, 1.378131319786582, 1.4790839008262266, 1.0535199309268366, -0.3652057129383302, -0.004581595998300053]","[-0.3019062578678131, 1.3781312704086304, 1.4790838956832886, 1.0535199642181396, -0.36520570516586304, -0.00458159577101469]","[3.798073115003808, 3.798073115003808, 4.285440390025987, 2.6302640264026405, 2.6302640264026405, 2.6302640264026405]",0.0,0.0,0.0,0.0,0.0,0.0,0.0,0.0,0.0,0.0,0.0,0.0,0.0,0.0,0.0,0.5701320888657294,0.06902781346043244,0.03632707810689856,1.0,0.0,0.0,0.0,0.0,11.0,0.0,0.0,0.0,0.0,0.0,0.0,0.0,0.0,0.0
709,16419.984,1778821057.7044446,16419.984,"[0.5766411423683167, -1.6886652151690882, -1.0513337294207972, -1.8934486548053187, 1.5298129320144653, 2.1529314517974854]","[0.5701320680242108, 0.07205729628237892, 0.037777714904728144, 2.814824686634802, -0.024151099698068047, 1.3801101054371794]","[-0.3007690259702523, 1.3860793366242519, 1.4737651759863812, 1.052725430269643, -0.3667356370399406, -0.004079031955778782]","[-0.30076903104782104, 1.3860793113708496, 1.4737651348114014, 1.0527254343032837, -0.36673563718795776, -0.004079031758010387]","[3.798073115003808, 3.798073115003808, 4.285440390025987, 2.6302640264026405, 2.6302640264026405, 2.6302640264026405]",0.0,0.0,0.0,0.0,0.0,0.0,0.0,0.0,0.0,0.0,0.0,0.0,0.0,0.0,0.0,0.5701320888657294,0.06902781346043244,0.03632707810689856,1.0,0.0,0.0,0.0,0.0,11.0,0.0,0.0,0.0,0.0,0.0,0.0,0.0,0.0,0.0
710,16419.992,1778821057.7144983,16419.992,"[0.5804491639137268, -1.6914389769183558, -1.044638458882467, -1.8975265661822718, 1.529512882232666, 2.156730890274048]","[0.5701320809997852, 0.07346808481518838, 0.03845305982966368, 2.814824643726892, -0.024151070705041765, 1.3801098913518073]","[-0.2996734083783743, 1.3937684480429424, 1.4685848547997549, 1.052001165114416, -0.3681814020852155, -0.003594558251681892]","[-0.2996734082698822, 1.3937684297561646, 1.4685848951339722, 1.0520011186599731, -0.36818140745162964, -0.003594558220356703]","[3.798073115003808, 3.798073115003808, 4.285440390025987, 2.6302640264026405, 2.6302640264026405, 2.6302640264026405]",0.0,0.0,0.0,0.0,0.0,0.0,0.0,0.0,0.0,0.0,0.0,0.0,0.0,0.0,0.0,0.5701320680242108,0.07205729628237892,0.037777714904728144,1.0,0.0,0.0,0.0,0.0,11.0,0.0,0.0,0.0,0.0,0.0,0.0,0.0,0.0,0.0
711,16420.0,1778821057.7220376,16420.0,"[0.5840575098991394, -1.6941197554217737, -1.0382064024554651, -1.9014270941363733, 1.5292291641235352, 2.1603312492370605]","[0.5701320491696419, 0.07480959868998878, 0.03909533967451301, 2.8148246349461243, -0.024151153970490686, 1.3801096641557988]","[-0.2986216618015678, 1.4011881083824889, 1.4635528336666992, 1.0513437488995923, -0.36954455004973635, -0.003129014045193499]","[-0.29862165451049805, 1.4011881351470947, 1.4635528326034546, 1.0513437986373901, -0.36954453587532043, -0.0031290140468627214]","[3.798073115003808, 3.798073115003808, 4.285440390025987, 2.6302640264026405, 2.6302640264026405, 2.6302640264026405]",0.0,0.0,0.0,0.0,0.0,0.0,0.0,0.0,0.0,0.0,0.0,0.0,0.0,0.0,0.0,0.5701320809997852,0.07346808481518838,0.03845305982966368,1.0,0.0,0.0,0.0,0.0,11.0,0.0,0.0,0.0,0.0,0.0,0.0,0.0,0.0,0.0
712,16420.007999999998,1778821057.7313488,16420.007999999998,"[0.5874679684638977, -1.6967013517962855, -1.0320470968829554, -1.905146900807516, 1.5289615392684937, 2.163734197616577]","[0.5701319839952614, 0.07608182753674547, 0.03970440693582772, 2.8148246916891857, -0.024151157076908146, 1.3801093118039245]","[-0.2976157486884377, 1.4083274576920373, 1.4586794400531309, 1.0507496267208187, -0.37082655243476464, -0.002683155179919226]","[-0.29761573672294617, 1.4083274602890015, 1.458679437637329, 1.050749659538269, -0.3708265423774719, -0.0026831552386283875]","[3.798073115003808, 3.798073115003808, 4.285440390025987, 2.6302640264026405, 2.6302640264026405, 2.6302640264026405]",0.0,0.0,0.0,0.0,0.0,0.0,0.0,0.0,0.0,0.0,0.0,0.0,0.0,0.0,0.0,0.5701320491696419,0.07480959868998878,0.03909533967451301,1.0,0.0,0.0,0.0,0.0,11.0,0.0,0.0,0.0,0.0,0.0,0.0,0.0,0.0,0.0
713,16420.016,1778821057.739403,16420.016,"[0.5906824469566345, -1.6991775671588343, -1.0261691252337855, -1.9086831251727503, 1.5287096500396729, 2.1669414043426514]","[0.570131976193594, 0.07728485034247323, 0.040280466374049695, 2.814824701177806, -0.024150852625864718, 1.3801094791945538]","[-0.29665735414517297, 1.4151753661996076, 1.4539753740677819, 1.0502151034277305, -0.37202880975414176, -0.002257661043614685]","[-0.29665735363960266, 1.4151753187179565, 1.4539753198623657, 1.0502151250839233, -0.37202879786491394, -0.002257660962641239]","[3.798073115003808, 3.798073115003808, 4.285440390025987, 2.6302640264026405, 2.6302640264026405, 2.6302640264026405]",0.0,0.0,0.0,0.0,0.0,0.0,0.0,0.0,0.0,0.0,0.0,0.0,0.0,0.0,0.0,0.5701319839952614,0.07608182753674547,0.03970440693582772,1.0,0.0,0.0,0.0,0.0,11.0,0.0,0.0,0.0,0.0,0.0,0.0,0.0,0.0,0.0
714,16420.023999999998,1778821057.7481084,16420.023999999998,"[0.5937026143074036, -1.70154315630068, -1.0205805937396448, -1.9120329062091272, 1.5284734964370728, 2.169955015182495]","[0.5701320440651511, 0.07841868128123523, 0.04082341680842738, 2.814824737847341, -0.024151026365912157, 1.3801098760043262]","[-0.2957479090947395, 1.4217204897947466, 1.4494516409503608, 1.0497363742100083, -0.37315265119864893, -0.0018531410764480829]","[-0.29574790596961975, 1.4217205047607422, 1.4494516849517822, 1.0497363805770874, -0.37315264344215393, -0.001853141118772328]","[3.798073115003808, 3.798073115003808, 4.285440390025987, 2.6302640264026405, 2.6302640264026405, 2.6302640264026405]",0.0,0.0,0.0,0.0,0.0,0.0,0.0,0.0,0.0,0.0,0.0,0.0,0.0,0.0,0.0,0.5701319839952614,0.07608182753674547,0.03970440693582772,1.0,0.0,0.0,0.0,0.0,11.0,0.0,0.0,0.0,0.0,0.0,0.0,0.0,0.0,0.0
715,16420.032,1778821057.7565033,16420.032,"[0.596530020236969, -1.7037928740130823, -1.015289608632223, -1.9151938597308558, 1.5282527208328247, 2.172776460647583]","[0.5701320846318174, 0.07948315609058405, 0.04133307458162738, 2.8148247212577227, -0.02415123250336327, 1.3801098345343301]","[-0.29488861303796726, 1.4279513362766674, 1.4451194745805216, 1.0493095576155194, -0.37419933446466486, -0.0014701409207655035]","[-0.29488861560821533, 1.4279513359069824, 1.4451195001602173, 1.0493096113204956, -0.3741993308067322, -0.0014701408799737692]","[3.798073115003808, 3.798073115003808, 4.285440390025987, 2.6302640264026405, 2.6302640264026405, 2.6302640264026405]",0.0,0.0,0.0,0.0,0.0,0.0,0.0,0.0,0.0,0.0,0.0,0.0,0.0,0.0,0.0,0.5701320440651511,0.07841868128123523,0.04082341680842738,1.0,0.0,0.0,0.0,0.0,11.0,0.0,0.0,0.0,0.0,0.0,0.0,0.0,0.0,0.0
716,16420.04,1778821057.7642167,16420.04,"[0.5991662740707397, -1.7059209982501429, -1.0103047529803675, -1.9181631247149866, 1.5280470848083496, 2.1754069328308105]","[0.5701319909266103, 0.08047828905027542, 0.04180939567860548, 2.814824737253781, -0.02415083597186533, 1.3801093658045906]","[-0.2940804563164639, 1.4338563417787773, 1.4409902524308575, 1.0489307308796767, -0.37517004570630424, -0.0011091481864127185]","[-0.2940804660320282, 1.4338563680648804, 1.4409902095794678, 1.0489307641983032, -0.3751700520515442, -0.0011091481428593397]","[3.798073115003808, 3.798073115003808, 4.285440390025987, 2.6302640264026405, 2.6302640264026405, 2.6302640264026405]",0.0,0.0,0.0,0.0,0.0,0.0,0.0,0.0,0.0,0.0,0.0,0.0,0.0,0.0,0.0,0.5701320846318174,0.07948315609058405,0.04133307458162738,1.0,0.0,0.0,0.0,0.0,11.0,0.0,0.0,0.0,0.0,0.0,0.0,0.0,0.0,0.0
717,16420.048,1778821057.7733328,16420.048,"[0.6016127467155457, -1.7079227606402796, -1.005632225667135, -1.9209383169757288, 1.5278565883636475, 2.1778483390808105]","[0.5701319905119748, 0.08140419310534443, 0.04225282156407728, 2.8148246914509882, -0.024151071659358793, 1.3801095287300797]","[-0.29332424189079237, 1.4394239567453937, 1.4370754024763501, 1.0485959673489282, -0.3760658995864328, -0.0007705978310578384]","[-0.29332423210144043, 1.43942391872406, 1.4370753765106201, 1.0485960245132446, -0.3760659098625183, -0.0007705978350713849]","[3.798073115003808, 3.798073115003808, 4.285440390025987, 2.6302640264026405, 2.6302640264026405, 2.6302640264026405]",0.0,0.0,0.0,0.0,0.0,0.0,0.0,0.0,0.0,0.0,0.0,0.0,0.0,0.0,0.0,0.5701319909266103,0.08047828905027542,0.04180939567860548,1.0,0.0,0.0,0.0,0.0,11.0,0.0,0.0,0.0,0.0,0.0,0.0,0.0,0.0,0.0
718,16420.056,1778821057.7809162,16420.056,"[0.6038708090782166, -1.7097938696490687, -1.001279656087057, -1.923516575490133, 1.5276809930801392, 2.1801016330718994]","[0.5701320371107201, 0.0822608901910055, 0.04266302463317839, 2.8148246953173044, -0.024151105197373488, 1.380109700484948]","[-0.29262060653769567, 1.4446427402879263, 1.4333863030408718, 1.0483013756857393, -0.3768879393931907, -0.00045487714292257933]","[-0.29262059926986694, 1.4446427822113037, 1.4333863258361816, 1.048301339149475, -0.3768879473209381, -0.00045487715397030115]","[3.798073115003808, 3.798073115003808, 4.285440390025987, 2.6302640264026405, 2.6302640264026405, 2.6302640264026405]",0.0,0.0,0.0,0.0,0.0,0.0,0.0,0.0,0.0,0.0,0.0,0.0,0.0,0.0,0.0,0.5701319905119748,0.08140419310534443,0.04225282156407728,1.0,0.0,0.0,0.0,0.0,11.0,0.0,0.0,0.0,0.0,0.0,0.0,0.0,0.0,0.0
719,16420.064,1778821057.7911022,16420.064,"[0.6059417128562927, -1.7115300337420862, -0.997253719960348, -1.9258959929095667, 1.5275201797485352, 2.1821682453155518]","[0.5701319386969388, 0.0830482288377641, 0.04303983764423458, 2.8148247741907926, -0.024151018574077622, 1.3801091133103922]","[-0.29197004140484584, 1.449501461799115, 1.4299341765576055, 1.0480431404527872, -0.37763713719139846, -0.0001623303207061992]","[-0.29197004437446594, 1.4495015144348145, 1.4299341440200806, 1.048043131828308, -0.3776371479034424, -0.00016233032511081547]","[3.798073115003808, 3.798073115003808, 4.285440390025987, 2.6302640264026405, 2.6302640264026405, 2.6302640264026405]",0.0,0.0,0.0,0.0,0.0,0.0,0.0,0.0,0.0,0.0,0.0,0.0,0.0,0.0,0.0,0.5701319905119748,0.08140419310534443,0.04225282156407728,1.0,0.0,0.0,0.0,0.0,11.0,0.0,0.0,0.0,0.0,0.0,0.0,0.0,0.0,0.0
720,16420.072,1778821057.7986276,16420.072,"[0.6078265905380249, -1.7131269613849085, -0.9935601393329065, -1.9280737082110804, 1.5273739099502563, 2.184049129486084]","[0.5701321102861756, 0.08376646763221551, 0.04338383595302564, 2.8148247317001336, -0.024151075790205822, 1.3801097570123115]","[-0.2913729118724744, 1.4539892081000785, 1.4267299787757008, 1.0478175635791862, -0.378314393988314, 0.00010673735198842498]","[-0.2913729250431061, 1.4539892673492432, 1.4267300367355347, 1.047817587852478, -0.37831440567970276, 0.00010673735232558101]","[3.798073115003808, 3.798073115003808, 4.285440390025987, 2.6302640264026405, 2.6302640264026405, 2.6302640264026405]",0.0,0.0,0.0,0.0,0.0,0.0,0.0,0.0,0.0,0.0,0.0,0.0,0.0,0.0,0.0,0.5701319386969388,0.0830482288377641,0.04303983764423458,1.0,0.0,0.0,0.0,0.0,11.0,0.0,0.0,0.0,0.0,0.0,0.0,0.0,0.0,0.0
721,16420.079999999998,1778821057.8073962,16420.079999999998,"[0.609526515007019, -1.7145808378802698, -0.9902051130877894, -1.9300482908831995, 1.5272420644760132, 2.1857454776763916]","[0.5701321869631211, 0.0844153404594495, 0.043694676555225576, 2.814824637168338, -0.024151072289654612, 1.3801102432646664]","[-0.2908294766022889, 1.4580954945172082, 1.4237842848449451, 1.0476211061287688, -0.37892053988387975, 0.00035205573877759963]","[-0.29082947969436646, 1.4580955505371094, 1.4237842559814453, 1.0476211309432983, -0.3789205253124237, 0.0003520557365845889]","[3.798073115003808, 3.798073115003808, 4.285440390025987, 2.6302640264026405, 2.6302640264026405, 2.6302640264026405]",0.0,0.0,0.0,0.0,0.0,0.0,0.0,0.0,0.0,0.0,0.0,0.0,0.0,0.0,0.0,0.5701321102861756,0.08376646763221551,0.04338383595302564,1.0,0.0,0.0,0.0,0.0,11.0,0.0,0.0,0.0,0.0,0.0,0.0,0.0,0.0,0.0
722,16420.088,1778821057.8159225,16420.088,"[0.6110424399375916, -1.715888802205221, -0.9871943632708948, -1.9318178335772913, 1.5271247625350952, 2.187258243560791]","[0.5701319234616382, 0.0849948043912392, 0.04397184330152293, 2.8148248344748157, -0.024150728288658167, 1.3801091049764898]","[-0.29033990570381785, 1.4618103776960387, 1.4211071742758616, 1.0474504297217042, -0.37945633419175917, 0.0005733864869392767]","[-0.2903399169445038, 1.4618103504180908, 1.4211071729660034, 1.0474504232406616, -0.3794563412666321, 0.000573386496398598]","[3.798073115003808, 3.798073115003808, 4.285440390025987, 2.6302640264026405, 2.6302640264026405, 2.6302640264026405]",0.0,0.0,0.0,0.0,0.0,0.0,0.0,0.0,0.0,0.0,0.0,0.0,0.0,0.0,0.0,0.5701321869631211,0.0844153404594495,0.043694676555225576,1.0,0.0,0.0,0.0,0.0,11.0,0.0,0.0,0.0,0.0,0.0,0.0,0.0,0.0,0.0
723,16420.095999999998,1778821057.8239644,16420.095999999998,"[0.6123751997947693, -1.7170475164996546, -0.9845317045794886, -1.9333794752704065, 1.5270215272903442, 2.1885883808135986]","[0.5701321094386778, 0.08550516745037105, 0.04421632527447744, 2.814824646639142, -0.02415100735946636, 1.3801097381475593]","[-0.28990429789932326, 1.4651245681344547, 1.4187081166174897, 1.0473024369038189, -0.37992246550822684, 0.0007705200705177276]","[-0.28990429639816284, 1.4651246070861816, 1.418708086013794, 1.047302484512329, -0.379922479391098, 0.0007705200696364045]","[3.798073115003808, 3.798073115003808, 4.285440390025987, 2.6302640264026405, 2.6302640264026405, 2.6302640264026405]",0.0,0.0,0.0,0.0,0.0,0.0,0.0,0.0,0.0,0.0,0.0,0.0,0.0,0.0,0.0,0.5701319234616382,0.0849948043912392,0.04397184330152293,1.0,0.0,0.0,0.0,0.0,11.0,0.0,0.0,0.0,0.0,0.0,0.0,0.0,0.0,0.0
724,16420.104,1778821057.8330202,16420.104,"[0.6135255098342896, -1.7180541197406214, -0.9822219053851526, -1.934732739125387, 1.5269325971603394, 2.1897363662719727]","[0.5701321328889111, 0.08594621688520182, 0.04442759977652955, 2.814824642856802, -0.024151131782955013, 1.380110025738526]","[-0.28952269656841656, 1.4680295400131762, 1.4165958600852577, 1.0471743097210857, -0.38031955171961657, 0.0009432732308804626]","[-0.2895227074623108, 1.468029499053955, 1.4165958166122437, 1.047174334526062, -0.3803195655345917, 0.0009432732476852834]","[3.798073115003808, 3.798073115003808, 4.285440390025987, 2.6302640264026405, 2.6302640264026405, 2.6302640264026405]",0.0,0.0,0.0,0.0,0.0,0.0,0.0,0.0,0.0,0.0,0.0,0.0,0.0,0.0,0.0,0.5701319234616382,0.0849948043912392,0.04397184330152293,1.0,0.0,0.0,0.0,0.0,11.0,0.0,0.0,0.0,0.0,0.0,0.0,0.0,0.0,0.0
725,16420.112,1778821057.8416202,16420.112,"[0.6144941449165344, -1.7189067045794886, -0.9802683035479944, -1.935876194630758, 1.5268577337265015, 2.1907029151916504]","[0.5701321054306683, 0.08631800353439378, 0.04460566057725157, 2.8148246776150474, -0.024150947363198397, 1.380110030073371]","[-0.289195104547352, 1.470517636088958, 1.4147783252190307, 1.0470635457445192, -0.38064813993493846, 0.0010914868131100736]","[-0.28919509053230286, 1.470517635345459, 1.4147783517837524, 1.0470635890960693, -0.380648136138916, 0.0010914867743849754]","[3.798073115003808, 3.798073115003808, 4.285440390025987, 2.6302640264026405, 2.6302640264026405, 2.6302640264026405]",0.0,0.0,0.0,0.0,0.0,0.0,0.0,0.0,0.0,0.0,0.0,0.0,0.0,0.0,0.0,0.5701321328889111,0.08594621688520182,0.04442759977652955,1.0,0.0,0.0,0.0,0.0,11.0,0.0,0.0,0.0,0.0,0.0,0.0,0.0,0.0,0.0
726,16420.12,1778821057.8502345,16420.12,"[0.6152815222740173, -1.7196033636676233, -0.9786747137652796, -1.936807934437887, 1.5267969369888306, 2.191488742828369]","[0.570132083820164, 0.08662048554662294, 0.044750351553574874, 2.814824713245079, -0.02415091131810542, 1.3801096406861664]","[-0.2889214975813299, 1.472582165093787, 1.4132625059532395, 1.0469679907980614, -0.3809087063476392, 0.0012150239813082401]","[-0.2889215052127838, 1.472582221031189, 1.4132624864578247, 1.0469679832458496, -0.38090869784355164, 0.0012150240363553166]","[3.798073115003808, 3.798073115003808, 4.285440390025987, 2.6302640264026405, 2.6302640264026405, 2.6302640264026405]",0.0,0.0,0.0,0.0,0.0,0.0,0.0,0.0,0.0,0.0,0.0,0.0,0.0,0.0,0.0,0.5701321054306683,0.08631800353439378,0.04460566057725157,1.0,0.0,0.0,0.0,0.0,11.0,0.0,0.0,0.0,0.0,0.0,0.0,0.0,0.0,0.0
727,16420.128,1778821057.859284,16420.128,"[0.6158881783485413, -1.7201417128192347, -0.9774435202227991, -1.9375270048724573, 1.526750087738037, 2.192094326019287]","[0.5701321920295412, 0.08685376244548271, 0.04486216803611931, 2.8148246172210722, -0.024151299325352434, 1.3801101913978244]","[-0.2887018362653933, 1.4742174896383462, 1.4120543799922278, 1.0468858676872037, -0.3811016560103684, 0.001313768821718707]","[-0.2887018322944641, 1.4742175340652466, 1.412054419517517, 1.0468858480453491, -0.38110166788101196, 0.0013137687928974628]","[3.798073115003808, 3.798073115003808, 4.285440390025987, 2.6302640264026405, 2.6302640264026405, 2.6302640264026405]",0.0,0.0,0.0,0.0,0.0,0.0,0.0,0.0,0.0,0.0,0.0,0.0,0.0,0.0,0.0,0.570132083820164,0.08662048554662294,0.044750351553574874,1.0,0.0,0.0,0.0,0.0,11.0,0.0,0.0,0.0,0.0,0.0,0.0,0.0,0.0,0.0
728,16420.136,1778821057.8673587,16420.136,"[0.6163144111633301, -1.7205212751971644, -0.9765766302691858, -1.938033405934469, 1.526717185974121, 2.1925196647644043]","[0.5701321124007773, 0.08701767220951544, 0.04494053487413335, 2.8148246586220758, -0.02415111066628798, 1.3801097364642172]","[-0.2885360763801386, 1.475419102282525, 1.411158830698363, 1.0468158002743848, -0.381227322539935, 0.0013876253022644645]","[-0.28853607177734375, 1.475419044494629, 1.411158800125122, 1.0468157529830933, -0.3812273144721985, 0.0013876253506168723]","[3.798073115003808, 3.798073115003808, 4.285440390025987, 2.6302640264026405, 2.6302640264026405, 2.6302640264026405]",0.0,0.0,0.0,0.0,0.0,0.0,0.0,0.0,0.0,0.0,0.0,0.0,0.0,0.0,0.0,0.5701321920295412,0.08685376244548271,0.04486216803611931,1.0,0.0,0.0,0.0,0.0,11.0,0.0,0.0,0.0,0.0,0.0,0.0,0.0,0.0,0.0
729,16420.144,1778821057.8754582,16420.144,"[0.6165604591369629, -1.7207406202899378, -0.9760754744159144, -1.9383261839496058, 1.5266982316970825, 2.192765235900879]","[0.5701320287392966, 0.08711230987620079, 0.04498584246265769, 2.8148247031483975, -0.024151094340677904, 1.3801095179489014]","[-0.28842417750672433, 1.4761836880352017, 1.4105795821674225, 1.0467568323492518, -0.3812859677499248, 0.0014365165948113082]","[-0.28842416405677795, 1.4761836528778076, 1.4105795621871948, 1.0467568635940552, -0.38128596544265747, 0.0014365166425704956]","[3.798073115003808, 3.798073115003808, 4.285440390025987, 2.6302640264026405, 2.6302640264026405, 2.6302640264026405]",0.0,0.0,0.0,0.0,0.0,0.0,0.0,0.0,0.0,0.0,0.0,0.0,0.0,0.0,0.0,0.5701321920295412,0.08685376244548271,0.04486216803611931,1.0,0.0,0.0,0.0,0.0,11.0,0.0,0.0,0.0,0.0,0.0,0.0,0.0,0.0,0.0
730,16420.152,1778821057.8844702,16420.152,"[0.6166278719902039, -1.7208007017718714, -0.9759414831744593, -1.9384029547320765, 1.5266929864883423, 2.1928324699401855]","[0.5701323085207377, 0.08713843800064999, 0.044997666854747875, 2.8148246611588923, -0.024151054397652656, 1.3801096905360886]","[-0.25410419382041544, 1.4420718274378517, 1.3930728143193396, 1.0560872703324227, -0.3676568780206232, -0.00038247387367684613]","[-0.2541041970252991, 1.442071795463562, 1.3930728435516357, 1.0560872554779053, -0.3676568865776062, -0.0003824738669209182]","[3.798073115003808, 3.798073115003808, 4.285440390025987, 2.6302640264026405, 2.6302640264026405, 2.6302640264026405]",0.0,0.0,0.0,0.0,0.0,0.0,0.0,0.0,0.0,0.0,0.0,0.0,0.0,0.0,0.0,0.5701320287392966,0.08711230987620079,0.04498584246265769,1.0,0.0,0.0,0.0,0.0,11.0,0.0,0.0,0.0,0.0,0.0,0.0,0.0,0.0,0.0
731,16420.16,1778821057.892523,16420.16,"[0.6166083812713623, -1.7207649389850062, -0.9762266317950647, -1.9381526152240198, 1.5266945362091064, 2.192812919616699]","[0.5701457166991636, 0.08714048602677556, 0.04495105448625297, 2.814824734112581, -0.024150970070129774, 1.3801098173738164]","[-0.030729606977910388, 1.2175980379306879, 1.2808812219150305, 1.1171255992019735, -0.27883624374226285, -0.01237623154867869]","[-0.03072960674762726, 1.2175980806350708, 1.2808811664581299, 1.1171256303787231, -0.2788362503051758, -0.012376231141388416]","[3.798073115003808, 3.798073115003808, 4.285440390025987, 2.6302640264026405, 2.6302640264026405, 2.6302640264026405]",0.0,0.0,0.0,0.0,0.0,0.0,0.0,0.0,0.0,0.0,0.0,0.0,0.0,0.0,0.0,0.5701323085207377,0.08713843800064999,0.044997666854747875,1.0,0.0,0.0,0.0,0.0,11.0,0.0,0.0,0.0,0.0,0.0,0.0,0.0,0.0,0.0
732,16420.167999999998,1778821057.9000173,16420.167999999998,"[0.6165581345558167, -1.7206738630877894, -0.9769609610186976, -1.9375069777118128, 1.526698350906372, 2.192762851715088]","[0.5701805016349712, 0.08714574837574564, 0.04483075872217368, 2.814824625078093, -0.024151125603316843, 1.3801100722923512]","[-0.030727041765914915, 1.2172832716198987, 1.2814691568519514, 1.1169331959107511, -0.2788094250719976, -0.012353577908438152]","[-0.030727041885256767, 1.2172832489013672, 1.2814691066741943, 1.1169332265853882, -0.27880942821502686, -0.01235357765108347]","[3.798073115003808, 3.798073115003808, 4.285440390025987, 2.6302640264026405, 2.6302640264026405, 2.6302640264026405]",0.0,0.0,0.0,0.0,0.0,0.0,0.0,0.0,0.0,0.0,0.0,0.0,0.0,0.0,0.0,0.5701457166991636,0.08714048602677556,0.04495105448625297,1.0,0.0,0.0,0.0,0.0,11.0,0.0,0.0,0.0,0.0,0.0,0.0,0.0,0.0,0.0
733,16420.176,1778821057.9085944,16420.176,"[0.6164771914482117, -1.7205279509173792, -0.9781439940081995, -1.9364665190326136, 1.5267046689987183, 2.1926820278167725]","[0.5702364039125881, 0.08715425416152064, 0.0446365182366682, 2.8148247369507384, -0.024151003658102334, 1.3801097392506905]","[-0.030687858806682487, 1.216641187194882, 1.282537800943463, 1.1166704495863737, -0.2787697415806449, -0.012327992906105601]","[-0.030687859281897545, 1.2166411876678467, 1.282537817955017, 1.1166704893112183, -0.27876973152160645, -0.012327993288636208]","[3.798073115003808, 3.798073115003808, 4.285440390025987, 2.6302640264026405, 2.6302640264026405, 2.6302640264026405]",0.0,0.0,0.0,0.0,0.0,0.0,0.0,0.0,0.0,0.0,0.0,0.0,0.0,0.0,0.0,0.5701805016349712,0.08714574837574564,0.04483075872217368,1.0,0.0,0.0,0.0,0.0,11.0,0.0,0.0,0.0,0.0,0.0,0.0,0.0,0.0,0.0
734,16420.183999999997,1778821057.9168267,16420.183999999997,"[0.6163654923439026, -1.7203286329852503, -0.9797728697406214, -1.9350321928607386, 1.526713252067566, 2.192570686340332]","[0.5703136451379079, 0.08716592699221563, 0.04436861029365041, 2.8148246662423118, -0.024151121609381657, 1.3801095358123951]","[-0.030612260518859142, 1.215676375309581, 1.2840822401046172, 1.1163393181451515, -0.27871729005273804, -0.01229953073166094]","[-0.030612260103225708, 1.2156764268875122, 1.284082293510437, 1.1163393259048462, -0.2787172794342041, -0.012299531139433384]","[3.798073115003808, 3.798073115003808, 4.285440390025987, 2.6302640264026405, 2.6302640264026405, 2.6302640264026405]",0.0,0.0,0.0,0.0,0.0,0.0,0.0,0.0,0.0,0.0,0.0,0.0,0.0,0.0,0.0,0.5701805016349712,0.08714574837574564,0.04483075872217368,1.0,0.0,0.0,0.0,0.0,11.0,0.0,0.0,0.0,0.0,0.0,0.0,0.0,0.0,0.0
735,16420.192,1778821057.925357,16420.192,"[0.616223156452179, -1.7200773398028772, -0.9818452040301722, -1.9332049528705042, 1.5267242193222046, 2.1924285888671875]","[0.5704121364690323, 0.08718087770642499, 0.044026989844736186, 2.814824667501972, -0.024151018297241544, 1.3801094705961547]","[-0.03050058278032622, 1.2143953628514257, 1.2860952942331014, 1.1159423790145306, -0.27865216780843866, -0.01226824671100224]","[-0.030500583350658417, 1.2143954038619995, 1.2860952615737915, 1.115942358970642, -0.278652161359787, -0.012268247082829475]","[3.798073115003808, 3.798073115003808, 4.285440390025987, 2.6302640264026405, 2.6302640264026405, 2.6302640264026405]",0.0,0.0,0.0,0.0,0.0,0.0,0.0,0.0,0.0,0.0,0.0,0.0,0.0,0.0,0.0,0.5703136451379079,0.08716592699221563,0.04436861029365041,1.0,0.0,0.0,0.0,0.0,11.0,0.0,0.0,0.0,0.0,0.0,0.0,0.0,0.0,0.0
736,16420.2,1778821057.9333577,16420.2,"[0.6160501837730408, -1.719776455556051, -0.984356705342428, -1.930986229573385, 1.5267375707626343, 2.192255973815918]","[0.5705320447831492, 0.08719915365438027, 0.04361187284095136, 2.8148246186867034, -0.024151235871836332, 1.3801101575042218]","[-0.030353289373080534, 1.212806504780845, 1.2885676156255157, 1.1154827860274426, -0.2785744714638138, -0.012234196663257984]","[-0.03035328909754753, 1.2128064632415771, 1.2885676622390747, 1.1154828071594238, -0.27857446670532227, -0.012234196998178959]","[3.798073115003808, 3.798073115003808, 4.285440390025987, 2.6302640264026405, 2.6302640264026405, 2.6302640264026405]",0.0,0.0,0.0,0.0,0.0,0.0,0.0,0.0,0.0,0.0,0.0,0.0,0.0,0.0,0.0,0.5704121364690323,0.08718087770642499,0.044026989844736186,1.0,0.0,0.0,0.0,0.0,11.0,0.0,0.0,0.0,0.0,0.0,0.0,0.0,0.0,0.0
737,16420.208,1778821057.9420443,16420.208,"[0.6158466935157776, -1.7194293181048792, -0.9873030821429651, -1.9283784071551722, 1.526753306388855, 2.1920528411865234]","[0.5706730328120867, 0.0872205644449436, 0.0431226709602896, 2.814824697701268, -0.024151024834084458, 1.3801096600181426]","[-0.03017096444287758, 1.2109198477421426, 1.2914878158176613, 1.1149642173089254, -0.2784842958152279, -0.012197436318929862]","[-0.03017096407711506, 1.2109198570251465, 1.2914878129959106, 1.114964246749878, -0.2784842848777771, -0.012197436764836311]","[3.798073115003808, 3.798073115003808, 4.285440390025987, 2.6302640264026405, 2.6302640264026405, 2.6302640264026405]",0.0,0.0,0.0,0.0,0.0,0.0,0.0,0.0,0.0,0.0,0.0,0.0,0.0,0.0,0.0,0.5705320447831492,0.08719915365438027,0.04361187284095136,1.0,0.0,0.0,0.0,0.0,11.0,0.0,0.0,0.0,0.0,0.0,0.0,0.0,0.0,0.0
738,16420.216,1778821057.9503357,16420.216,"[0.615612804889679, -1.7190383116351526, -0.9906790892230433, -1.9253829161273401, 1.5267714262008667, 2.191819429397583]","[0.5708353921831453, 0.08724531163355426, 0.04255998137491468, 2.814824743510126, -0.024151148036090756, 1.3801099245124535]","[-0.0299543032448724, 1.2087469693190882, 1.2948426173445458, 1.1143908155966389, -0.2783817328786264, -0.012158020815438724]","[-0.029954303056001663, 1.2087469100952148, 1.2948426008224487, 1.1143908500671387, -0.27838173508644104, -0.01215802039951086]","[3.798073115003808, 3.798073115003808, 4.285440390025987, 2.6302640264026405, 2.6302640264026405, 2.6302640264026405]",0.0,0.0,0.0,0.0,0.0,0.0,0.0,0.0,0.0,0.0,0.0,0.0,0.0,0.0,0.0,0.5706730328120867,0.0872205644449436,0.0431226709602896,1.0,0.0,0.0,0.0,0.0,11.0,0.0,0.0,0.0,0.0,0.0,0.0,0.0,0.0,0.0
739,16420.224,1778821057.9585068,16420.224,"[0.6153484582901001, -1.718607250844137, -0.994479004536764, -1.9220026175128382, 1.5267918109893799, 2.1915557384490967]","[0.571018891938383, 0.08727309053361354, 0.04192346506834643, 2.8148246891410063, -0.024151246905841722, 1.3801096916968283]","[-0.02970410139201149, 1.2063007975110833, 1.2986170262006167, 1.1137671226011248, -0.2782668710928677, -0.012116004273606026]","[-0.029704101383686066, 1.2063008546829224, 1.2986170053482056, 1.113767147064209, -0.27826687693595886, -0.012116004712879658]","[3.798073115003808, 3.798073115003808, 4.285440390025987, 2.6302640264026405, 2.6302640264026405, 2.6302640264026405]",0.0,0.0,0.0,0.0,0.0,0.0,0.0,0.0,0.0,0.0,0.0,0.0,0.0,0.0,0.0,0.5706730328120867,0.0872205644449436,0.0431226709602896,1.0,0.0,0.0,0.0,0.0,11.0,0.0,0.0,0.0,0.0,0.0,0.0,0.0,0.0,0.0
740,16420.232,1778821057.9667237,16420.232,"[0.6150539517402649, -1.7181404272662562, -0.9986961523639124, -1.9182394186602991, 1.526814579963684, 2.1912617683410645]","[0.5712237155787132, 0.08730424567047403, 0.04121320173729448, 2.8148247394044748, -0.024151151342277664, 1.3801096197788307]","[-0.029421242960014644, 1.2035954153084854, 1.302794520504671, 1.1130980091020537, -0.27813979470897204, -0.012071439472803319]","[-0.02942124381661415, 1.2035953998565674, 1.3027945756912231, 1.1130980253219604, -0.27813979983329773, -0.012071439065039158]","[3.798073115003808, 3.798073115003808, 4.285440390025987, 2.6302640264026405, 2.6302640264026405, 2.6302640264026405]",0.0,0.0,0.0,0.0,0.0,0.0,0.0,0.0,0.0,0.0,0.0,0.0,0.0,0.0,0.0,0.571018891938383,0.08727309053361354,0.04192346506834643,1.0,0.0,0.0,0.0,0.0,11.0,0.0,0.0,0.0,0.0,0.0,0.0,0.0,0.0,0.0
741,16420.239999999998,1778821057.9761992,16420.239999999998,"[0.6147292256355286, -1.7176421324359339, -1.0033233801471155, -1.9140966574298304, 1.5268396139144897, 2.1909377574920654]","[0.571449697005808, 0.0873384605101266, 0.040429095486709254, 2.814824706032983, -0.024151045071472418, 1.3801090621251275]","[-0.029106687704137647, 1.20064585548553, 1.3073572505552524, 1.1123886025028171, -0.27800058335692557, -0.012024377612800044]","[-0.029106687754392624, 1.2006458044052124, 1.3073571920394897, 1.1123886108398438, -0.2780005931854248, -0.012024377472698689]","[3.798073115003808, 3.798073115003808, 4.285440390025987, 2.6302640264026405, 2.6302640264026405, 2.6302640264026405]",0.0,0.0,0.0,0.0,0.0,0.0,0.0,0.0,0.0,0.0,0.0,0.0,0.0,0.0,0.0,0.5712237155787132,0.08730424567047403,0.04121320173729448,1.0,0.0,0.0,0.0,0.0,11.0,0.0,0.0,0.0,0.0,0.0,0.0,0.0,0.0,0.0
742,16420.248,1778821057.9842744,16420.248,"[0.6143745183944702, -1.7171171347247522, -1.0083525816546839, -1.909576718007223, 1.5268670320510864, 2.1905837059020996]","[0.5716970965882656, 0.08737608674412795, 0.03957147714927656, 2.8148247248067535, -0.024151035165572234, 1.3801093205241517]","[-0.028761457782726145, 1.1974678906632858, 1.3122862455338906, 1.1116442135169948, -0.2778493118009005, -0.011974868177638341]","[-0.02876145765185356, 1.1974679231643677, 1.3122862577438354, 1.1116442680358887, -0.27784931659698486, -0.01197486836463213]","[3.798073115003808, 3.798073115003808, 4.285440390025987, 2.6302640264026405, 2.6302640264026405, 2.6302640264026405]",0.0,0.0,0.0,0.0,0.0,0.0,0.0,0.0,0.0,0.0,0.0,0.0,0.0,0.0,0.0,0.571449697005808,0.0873384605101266,0.040429095486709254,1.0,0.0,0.0,0.0,0.0,11.0,0.0,0.0,0.0,0.0,0.0,0.0,0.0,0.0,0.0
743,16420.255999999998,1778821057.9933233,16420.255999999998,"[0.6139899492263794, -1.7165706793414515, -1.0137751738177698, -1.9046834150897425, 1.5268967151641846, 2.190199851989746]","[0.5719657656965216, 0.08741692425722139, 0.03864026276639293, 2.8148246794431526, -0.02415105415650711, 1.3801097844224468]","[-0.02838662425150691, 1.1940778235748988, 1.317561622148889, 1.1108702635677963, -0.27768604986319306, -0.011922958884180013]","[-0.02838662452995777, 1.1940778493881226, 1.3175616264343262, 1.1108702421188354, -0.27768605947494507, -0.011922959238290787]","[3.798073115003808, 3.798073115003808, 4.285440390025987, 2.6302640264026405, 2.6302640264026405, 2.6302640264026405]",0.0,0.0,0.0,0.0,0.0,0.0,0.0,0.0,0.0,0.0,0.0,0.0,0.0,0.0,0.0,0.5716970965882656,0.08737608674412795,0.03957147714927656,1.0,0.0,0.0,0.0,0.0,11.0,0.0,0.0,0.0,0.0,0.0,0.0,0.0,0.0,0.0
744,16420.264,1778821058.001414,16420.264,"[0.6135756373405457, -1.7160089651690882, -1.0195825735675257, -1.8994196097003382, 1.5269287824630737, 2.189786434173584]","[0.5722556902980012, 0.08746099789468581, 0.03763509484650429, 2.814824712090415, -0.024151143762450693, 1.3801097276431151]","[-0.027983293680008486, 1.1904922820692507, 1.3231627908802446, 1.1100722143237876, -0.2775108625125113, -0.011868695722654279]","[-0.027983292937278748, 1.1904922723770142, 1.3231627941131592, 1.1100722551345825, -0.2775108516216278, -0.011868695728480816]","[3.798073115003808, 3.798073115003808, 4.285440390025987, 2.6302640264026405, 2.6302640264026405, 2.6302640264026405]",0.0,0.0,0.0,0.0,0.0,0.0,0.0,0.0,0.0,0.0,0.0,0.0,0.0,0.0,0.0,0.5716970965882656,0.08737608674412795,0.03957147714927656,1.0,0.0,0.0,0.0,0.0,11.0,0.0,0.0,0.0,0.0,0.0,0.0,0.0,0.0,0.0
745,16420.272,1778821058.0093546,16420.272,"[0.6131317615509033, -1.7154367605792444, -1.0257657209979456, -1.8937891165362757, 1.5269631147384644, 2.1893434524536133]","[0.5725667851358487, 0.08750823007169294, 0.03655633318080642, 2.814824719857694, -0.024151192061050777, 1.3801099026356114]","[-0.027552595133662518, 1.1867280229222947, 1.329068655875152, 1.1092555006150866, -0.27732381008969237, -0.011812123065598213]","[-0.027552595362067223, 1.1867280006408691, 1.329068660736084, 1.1092555522918701, -0.27732381224632263, -0.011812123470008373]","[3.798073115003808, 3.798073115003808, 4.285440390025987, 2.6302640264026405, 2.6302640264026405, 2.6302640264026405]",0.0,0.0,0.0,0.0,0.0,0.0,0.0,0.0,0.0,0.0,0.0,0.0,0.0,0.0,0.0,0.5722556902980012,0.08746099789468581,0.03763509484650429,1.0,0.0,0.0,0.0,0.0,11.0,0.0,0.0,0.0,0.0,0.0,0.0,0.0,0.0,0.0
746,16420.28,1778821058.0183597,16420.28,"[0.6126585602760315, -1.7148616949664515, -1.0323141256915491, -1.8877952734576624, 1.5269997119903564, 2.188871145248413]","[0.5728991930367209, 0.08755875579166836, 0.03540365363447412, 2.814824764459665, -0.0241510192128158, 1.3801096649629403]","[-0.027095667821007283, 1.1828017479920174, 1.3352578050480757, 1.1084254677499659, -0.27712494866039933, -0.011753283852409152]","[-0.027095668017864227, 1.1828017234802246, 1.3352577686309814, 1.108425498008728, -0.27712494134902954, -0.011753283441066742]","[3.798073115003808, 3.798073115003808, 4.285440390025987, 2.6302640264026405, 2.6302640264026405, 2.6302640264026405]",0.0,0.0,0.0,0.0,0.0,0.0,0.0,0.0,0.0,0.0,0.0,0.0,0.0,0.0,0.0,0.5725667851358487,0.08750823007169294,0.03655633318080642,1.0,0.0,0.0,0.0,0.0,11.0,0.0,0.0,0.0,0.0,0.0,0.0,0.0,0.0,0.0
747,16420.288,1778821058.0265622,16420.288,"[0.612156093120575, -1.7142890135394495, -1.0392182509051722, -1.881441895161764, 1.52703857421875, 2.1883697509765625]","[0.5732527952428204, 0.08761240826515648, 0.034177362792439325, 2.814824745087594, -0.024151082948591866, 1.3801096446503023]","[-0.026613649560689318, 1.1787299355669425, 1.3417086875446553, 1.107587314035079, -0.27691433046045527, -0.01169221982170321]","[-0.026613648980855942, 1.1787298917770386, 1.3417086601257324, 1.1075873374938965, -0.2769143283367157, -0.011692219413816929]","[3.798073115003808, 3.798073115003808, 4.285440390025987, 2.6302640264026405, 2.6302640264026405, 2.6302640264026405]",0.0,0.0,0.0,0.0,0.0,0.0,0.0,0.0,0.0,0.0,0.0,0.0,0.0,0.0,0.0,0.5728991930367209,0.08755875579166836,0.03540365363447412,1.0,0.0,0.0,0.0,0.0,11.0,0.0,0.0,0.0,0.0,0.0,0.0,0.0,0.0,0.0
748,16420.296,1778821058.035483,16420.296,"[0.6116246581077576, -1.713726822529928, -1.0464666525470179, -1.874732796345846, 1.527079701423645, 2.1878395080566406]","[0.5736276871489161, 0.08766931828442505, 0.03287720150840867, 2.814824747840429, -0.02415112001461938, 1.380109209475543]","[-0.026107666304876376, 1.174528689166959, 1.348399776311393, 1.1067460390593378, -0.27669200442109904, -0.01162897179540848]","[-0.0261076670140028, 1.17452871799469, 1.3483997583389282, 1.1067460775375366, -0.2766920030117035, -0.011628971435129642]","[3.798073115003808, 3.798073115003808, 4.285440390025987, 2.6302640264026405, 2.6302640264026405, 2.6302640264026405]",0.0,0.0,0.0,0.0,0.0,0.0,0.0,0.0,0.0,0.0,0.0,0.0,0.0,0.0,0.0,0.5732527952428204,0.08761240826515648,0.034177362792439325,1.0,0.0,0.0,0.0,0.0,11.0,0.0,0.0,0.0,0.0,0.0,0.0,0.0,0.0,0.0
749,16420.304,1778821058.0437083,16420.304,"[0.6110644340515137, -1.7131813208209437, -1.0540488401996058, -1.867671314870016, 1.527122974395752, 2.1872804164886475]","[0.5740240332865684, 0.08772956659229013, 0.031503593602137336, 2.814824622417686, -0.024151210570395168, 1.3801097683349854]","[-0.02557882281013263, 1.1702136054073893, 1.3553097140996846, 1.10590639808713, -0.2764580167398134, -0.011563579987558328]","[-0.025578822940587997, 1.1702135801315308, 1.3553097248077393, 1.105906367301941, -0.2764580249786377, -0.011563579551875591]","[3.798073115003808, 3.798073115003808, 4.285440390025987, 2.6302640264026405, 2.6302640264026405, 2.6302640264026405]",0.0,0.0,0.0,0.0,0.0,0.0,0.0,0.0,0.0,0.0,0.0,0.0,0.0,0.0,0.0,0.5732527952428204,0.08761240826515648,0.034177362792439325,1.0,0.0,0.0,0.0,0.0,11.0,0.0,0.0,0.0,0.0,0.0,0.0,0.0,0.0,0.0
750,16420.311999999998,1778821058.051566,16420.311999999998,"[0.6104755997657776, -1.7126601378070276, -1.0619538466082972, -1.8602617422686976, 1.52716863155365, 2.186692714691162]","[0.5744415161507512, 0.08779304445494888, 0.030056126419688356, 2.814824710083011, -0.024151175065062282, 1.3801098961842646]","[-0.02502819457108057, 1.165799661809461, 1.362417441943971, 1.1050728626851147, -0.27621241148260506, -0.011496084340300772]","[-0.02502819523215294, 1.165799617767334, 1.362417459487915, 1.1050728559494019, -0.2762124240398407, -0.011496084742248058]","[3.798073115003808, 3.798073115003808, 4.285440390025987, 2.6302640264026405, 2.6302640264026405, 2.6302640264026405]",0.0,0.0,0.0,0.0,0.0,0.0,0.0,0.0,0.0,0.0,0.0,0.0,0.0,0.0,0.0,0.5740240332865684,0.08772956659229013,0.031503593602137336,1.0,0.0,0.0,0.0,0.0,11.0,0.0,0.0,0.0,0.0,0.0,0.0,0.0,0.0,0.0
751,16420.32,1778821058.0603387,16420.32,"[0.6098583936691284, -1.7121709028827112, -1.0701702276812952, -1.8525078932391565, 1.5272164344787598, 2.1860768795013428]","[0.5748801990344015, 0.08785962746098265, 0.028534829449785637, 2.8148246918615225, -0.024151266241363413, 1.380109677278965]","[-0.024456821070216482, 1.1613011250481255, 1.3697023095366405, 1.1042495875277547, -0.275955231190676, -0.011426524867705297]","[-0.024456821382045746, 1.1613011360168457, 1.3697023391723633, 1.1042495965957642, -0.2759552299976349, -0.011426525190472603]","[3.798073115003808, 3.798073115003808, 4.285440390025987, 2.6302640264026405, 2.6302640264026405, 2.6302640264026405]",0.0,0.0,0.0,0.0,0.0,0.0,0.0,0.0,0.0,0.0,0.0,0.0,0.0,0.0,0.0,0.5744415161507512,0.08779304445494888,0.030056126419688356,1.0,0.0,0.0,0.0,0.0,11.0,0.0,0.0,0.0,0.0,0.0,0.0,0.0,0.0,0.0
752,16420.327999999998,1778821058.0685117,16420.327999999998,"[0.60921311378479, -1.7117212454425257, -1.0786860624896448, -1.8444135824786585, 1.5272663831710815, 2.1854329109191895]","[0.5753401814002326, 0.08792948160872405, 0.026939939896959253, 2.814824639405861, -0.024151258182594, 1.3801098326444912]","[-0.023865700376776385, 1.1567314794496482, 1.3771441675874447, 1.1034403831560908, -0.27568651747609324, -0.01135494200090556]","[-0.023865699768066406, 1.1567314863204956, 1.37714421749115, 1.1034404039382935, -0.2756865322589874, -0.011354941874742508]","[3.798073115003808, 3.798073115003808, 4.285440390025987, 2.6302640264026405, 2.6302640264026405, 2.6302640264026405]",0.0,0.0,0.0,0.0,0.0,0.0,0.0,0.0,0.0,0.0,0.0,0.0,0.0,0.0,0.0,0.5748801990344015,0.08785962746098265,0.028534829449785637,1.0,0.0,0.0,0.0,0.0,11.0,0.0,0.0,0.0,0.0,0.0,0.0,0.0,0.0,0.0
753,16420.336,1778821058.0775044,16420.336,"[0.6085399389266968, -1.7113197485553187, -1.087489430104391, -1.835982624684469, 1.5273185968399048, 2.1847610473632812]","[0.5758214025193722, 0.08800259950584946, 0.025271191131803095, 2.814824720170556, -0.024151110353147875, 1.3801096501918646]","[-0.02325578508565955, 1.152103375286176, 1.384723442529692, 1.1026486943298672, -0.2754063115884532, -0.011281376927927215]","[-0.023255785927176476, 1.1521034240722656, 1.384723424911499, 1.1026487350463867, -0.2754063010215759, -0.011281376704573631]","[3.798073115003808, 3.798073115003808, 4.285440390025987, 2.6302640264026405, 2.6302640264026405, 2.6302640264026405]",0.0,0.0,0.0,0.0,0.0,0.0,0.0,0.0,0.0,0.0,0.0,0.0,0.0,0.0,0.0,0.5753401814002326,0.08792948160872405,0.026939939896959253,1.0,0.0,0.0,0.0,0.0,11.0,0.0,0.0,0.0,0.0,0.0,0.0,0.0,0.0,0.0
754,16420.344,1778821058.0854497,16420.344,"[0.6078391671180725, -1.7109740416156214, -1.0965679327594202, -1.8272188345538538, 1.52737295627594, 2.1840617656707764]","[0.5763240518565924, 0.088079037684233, 0.023529095503250386, 2.81482467272915, -0.024151429928054878, 1.3801104812021374]","[-0.022627979559456033, 1.1474285959441377, 1.392421194408625, 1.101877583509417, -0.27511465493627524, -0.011205871914674146]","[-0.022627979516983032, 1.1474286317825317, 1.3924212455749512, 1.1018775701522827, -0.27511465549468994, -0.01120587158948183]","[3.798073115003808, 3.798073115003808, 4.285440390025987, 2.6302640264026405, 2.6302640264026405, 2.6302640264026405]",0.0,0.0,0.0,0.0,0.0,0.0,0.0,0.0,0.0,0.0,0.0,0.0,0.0,0.0,0.0,0.5753401814002326,0.08792948160872405,0.026939939896959253,1.0,0.0,0.0,0.0,0.0,11.0,0.0,0.0,0.0,0.0,0.0,0.0,0.0,0.0,0.0
755,16420.352,1778821058.0940557,16420.352,"[0.6071110367774963, -1.7106931845294397, -1.105910603200094, -1.8181260267840784, 1.5274293422698975, 2.183335065841675]","[0.5768477044581329, 0.0881584808269435, 0.021712734440599846, 2.814824652057776, -0.024151060155698185, 1.3801098129602452]","[-0.021983138445423468, 1.1427180428641017, 1.4002191590056503, 1.1011297189183924, -0.2748115895570315, -0.011128470610042962]","[-0.021983139216899872, 1.1427180767059326, 1.400219202041626, 1.1011297702789307, -0.27481159567832947, -0.011128470301628113]","[3.798073115003808, 3.798073115003808, 4.285440390025987, 2.6302640264026405, 2.6302640264026405, 2.6302640264026405]",0.0,0.0,0.0,0.0,0.0,0.0,0.0,0.0,0.0,0.0,0.0,0.0,0.0,0.0,0.0,0.5763240518565924,0.088079037684233,0.023529095503250386,1.0,0.0,0.0,0.0,0.0,11.0,0.0,0.0,0.0,0.0,0.0,0.0,0.0,0.0,0.0
756,16420.36,1778821058.1015456,16420.36,"[0.6063562631607056, -1.7104852835284632, -1.1154983679400843, -1.8087132612811487, 1.5274879932403564, 2.182581901550293]","[0.5773924420021466, 0.08824127377357763, 0.019824116488476262, 2.814824700572528, -0.024151265791355417, 1.3801101380969272]","[-0.018759330651215662, 1.1536676114429318, 1.437394752920776, 1.1015682868765506, -0.2762104946821843, -0.010289978698228702]","[-0.018759330734610558, 1.1536675691604614, 1.4373947381973267, 1.101568341255188, -0.2762104868888855, -0.010289978235960007]","[3.798073115003808, 3.798073115003808, 4.285440390025987, 2.6302640264026405, 2.6302640264026405, 2.6302640264026405]",0.0,0.0,0.0,0.0,0.0,0.0,0.0,0.0,0.0,0.0,0.0,0.0,0.0,0.0,0.0,0.5768477044581329,0.0881584808269435,0.021712734440599846,1.0,0.0,0.0,0.0,0.0,11.0,0.0,0.0,0.0,0.0,0.0,0.0,0.0,0.0,0.0
757,16420.368,1778821058.1104524,16420.368,"[0.6055915951728821, -1.7103613058673304, -1.1251137892352503, -1.7991889158831995, 1.5275473594665527, 2.181818723678589]","[0.5779461525786402, 0.08832540004950391, 0.017904066764782678, 2.814824750850905, -0.024151072407586998, 1.380109998645816]","[0.006800578327700139, 1.3091259489387927, 1.7335869062269327, 1.112527233153069, -0.29288750908379657, -0.002606222631985432]","[0.0068005784414708614, 1.3091259002685547, 1.7335869073867798, 1.1125272512435913, -0.29288750886917114, -0.002606222638860345]","[3.798073115003808, 3.798073115003808, 4.285440390025987, 2.6302640264026405, 2.6302640264026405, 2.6302640264026405]",0.0,0.0,0.0,0.0,0.0,0.0,0.0,0.0,0.0,0.0,0.0,0.0,0.0,0.0,0.0,0.5773924420021466,0.08824127377357763,0.019824116488476262,1.0,0.0,0.0,0.0,0.0,11.0,0.0,0.0,0.0,0.0,0.0,0.0,0.0,0.0,0.0
758,16420.376,1778821058.118822,16420.376,"[0.6048294901847839, -1.7103241125689905, -1.1345999876605433, -1.7897074858294886, 1.52760648727417, 2.181058168411255]","[0.5784998304541709, 0.08840944604157691, 0.015983842065190768, 2.814824744765125, -0.024150810048652223, 1.3801094367637874]","[0.006731914307345927, 1.3125740245626172, 1.7362624884030102, 1.1130953898898532, -0.2925480293970998, -0.0026041162863857524]","[0.006731914356350899, 1.312574028968811, 1.7362624406814575, 1.1130954027175903, -0.2925480306148529, -0.0026041162200272083]","[3.798073115003808, 3.798073115003808, 4.285440390025987, 2.6302640264026405, 2.6302640264026405, 2.6302640264026405]",0.0,0.0,0.0,0.0,0.0,0.0,0.0,0.0,0.0,0.0,0.0,0.0,0.0,0.0,0.0,0.5779461525786402,0.08832540004950391,0.017904066764782678,1.0,0.0,0.0,0.0,0.0,11.0,0.0,0.0,0.0,0.0,0.0,0.0,0.0,0.0,0.0
759,16420.384,1778821058.1261806,16420.384,"[0.6040699481964111, -1.7103717962848108, -1.143958870564596, -1.7802675406085413, 1.5276654958724976, 2.180300235748291]","[0.5790537401658725, 0.0884936665137418, 0.014064152595642643, 2.8148246637478898, -0.024151106303243828, 1.3801103657185556]","[0.006654066815411653, 1.315924009864992, 1.7387230351568759, 1.1136398208229747, -0.2922011877174239, -0.002605944993620875]","[0.00665406696498394, 1.315924048423767, 1.7387230396270752, 1.1136398315429688, -0.2922011911869049, -0.0026059451047331095]","[3.798073115003808, 3.798073115003808, 4.285440390025987, 2.6302640264026405, 2.6302640264026405, 2.6302640264026405]",0.0,0.0,0.0,0.0,0.0,0.0,0.0,0.0,0.0,0.0,0.0,0.0,0.0,0.0,0.0,0.5779461525786402,0.08832540004950391,0.017904066764782678,1.0,0.0,0.0,0.0,0.0,11.0,0.0,0.0,0.0,0.0,0.0,0.0,0.0,0.0,0.0
760,16420.392,1778821058.1354542,16420.392,"[0.6033129692077637, -1.710503880177633, -1.153193775807516, -1.7708681265460413, 1.5277243852615356, 2.1795449256896973]","[0.5796073919797695, 0.0885777285192697, 0.012144118298443085, 2.8148247050117634, -0.024151197434422702, 1.3801101578794976]","[0.0065793226146126016, 1.3192559638558798, 1.741111929693363, 1.114166713759609, -0.291855417043655, -0.0026078579275618245]","[0.0065793227404356, 1.3192559480667114, 1.7411118745803833, 1.1141667366027832, -0.29185542464256287, -0.0026078580413013697]","[3.798073115003808, 3.798073115003808, 4.285440390025987, 2.6302640264026405, 2.6302640264026405, 2.6302640264026405]",0.0,0.0,0.0,0.0,0.0,0.0,0.0,0.0,0.0,0.0,0.0,0.0,0.0,0.0,0.0,0.5790537401658725,0.0884936665137418,0.014064152595642643,1.0,0.0,0.0,0.0,0.0,11.0,0.0,0.0,0.0,0.0,0.0,0.0,0.0,0.0,0.0
761,16420.399999999998,1778821058.1441355,16420.399999999998,"[0.6025585532188416, -1.710719410573141, -1.1623066107379358, -1.7615073362933558, 1.5277830362319946, 2.1787922382354736]","[0.5801611603989072, 0.08866182914345748, 0.010224093832895187, 2.8148246414563767, -0.024151410431850113, 1.380110182163881]","[0.006507556954113542, 1.3225730541064, 1.743428906852634, 1.1146770279334008, -0.2915107619709623, -0.0026098232957858574]","[0.006507556885480881, 1.3225730657577515, 1.7434289455413818, 1.11467707157135, -0.29151076078414917, -0.002609823364764452]","[3.798073115003808, 3.798073115003808, 4.285440390025987, 2.6302640264026405, 2.6302640264026405, 2.6302640264026405]",0.0,0.0,0.0,0.0,0.0,0.0,0.0,0.0,0.0,0.0,0.0,0.0,0.0,0.0,0.0,0.5796073919797695,0.0885777285192697,0.012144118298443085,1.0,0.0,0.0,0.0,0.0,11.0,0.0,0.0,0.0,0.0,0.0,0.0,0.0,0.0,0.0
762,16420.408,1778821058.153137,16420.408,"[0.6018067002296448, -1.7110169569598597, -1.1712997595416468, -1.7521846930133265, 1.5278414487838745, 2.178041934967041]","[0.5807147738939199, 0.08874583549788631, 0.008304009974213877, 2.8148246015414906, -0.0241512067840696, 1.380109822251708]","[0.006438574801095309, 1.3258777004021878, 1.7456728512070898, 1.1151716132883065, -0.29116720977011185, -0.002611836210316567]","[0.006438574753701687, 1.3258776664733887, 1.7456728219985962, 1.1151716709136963, -0.2911671996116638, -0.0026118361856788397]","[3.798073115003808, 3.798073115003808, 4.285440390025987, 2.6302640264026405, 2.6302640264026405, 2.6302640264026405]",0.0,0.0,0.0,0.0,0.0,0.0,0.0,0.0,0.0,0.0,0.0,0.0,0.0,0.0,0.0,0.5801611603989072,0.08866182914345748,0.010224093832895187,1.0,0.0,0.0,0.0,0.0,11.0,0.0,0.0,0.0,0.0,0.0,0.0,0.0,0.0,0.0
763,16420.415999999997,1778821058.160914,16420.415999999997,"[0.6010572910308838, -1.7113960425006312, -1.1801746527301233, -1.7428982893573206, 1.5278998613357544, 2.1772940158843994]","[0.5812686126876635, 0.08883007076773648, 0.006384133003676684, 2.8148246936137244, -0.0241512440716641, 1.3801102572090516]","[0.00637219434506333, 1.3291721317971854, 1.7478427687009777, 1.1156512539341212, -0.2908247481055982, -0.0026138923668692785]","[0.006372194271534681, 1.329172134399414, 1.747842788696289, 1.115651249885559, -0.2908247411251068, -0.002613892313092947]","[3.798073115003808, 3.798073115003808, 4.285440390025987, 2.6302640264026405, 2.6302640264026405, 2.6302640264026405]",0.0,0.0,0.0,0.0,0.0,0.0,0.0,0.0,0.0,0.0,0.0,0.0,0.0,0.0,0.0,0.5807147738939199,0.08874583549788631,0.008304009974213877,1.0,0.0,0.0,0.0,0.0,11.0,0.0,0.0,0.0,0.0,0.0,0.0,0.0,0.0,0.0
764,16420.424,1778821058.1698315,16420.424,"[0.6003104448318481, -1.711855713521139, -1.1889341513263147, -1.73364764848818, 1.5279579162597656, 2.176548719406128]","[0.5818222603268115, 0.08891408236226217, 0.004463933692032351, 2.814824654783135, -0.024150968154695807, 1.3801096624581852]","[0.006308246312166187, 1.3324584079702102, 1.749937780131479, 1.116116674389988, -0.2904833653578926, -0.0026159878216439544]","[0.006308246403932571, 1.3324583768844604, 1.7499377727508545, 1.1161166429519653, -0.29048335552215576, -0.002615987788885832]","[3.798073115003808, 3.798073115003808, 4.285440390025987, 2.6302640264026405, 2.6302640264026405, 2.6302640264026405]",0.0,0.0,0.0,0.0,0.0,0.0,0.0,0.0,0.0,0.0,0.0,0.0,0.0,0.0,0.0,0.5807147738939199,0.08874583549788631,0.008304009974213877,1.0,0.0,0.0,0.0,0.0,11.0,0.0,0.0,0.0,0.0,0.0,0.0,0.0,0.0,0.0
765,16420.432,1778821058.1778774,16420.432,"[0.5995661020278931, -1.7123945395099085, -1.1975796858416956, -1.72443133989443, 1.5280159711837769, 2.1758060455322266]","[0.5823759920179943, 0.08899822565252748, 0.0025440085413122593, 2.8148246941772626, -0.024151197315026393, 1.3801098317284908]","[0.006246572824034784, 1.3357384348635173, 1.7519571094801127, 1.1165685449349856, -0.29014305056015616, -0.002618118957670647]","[0.0062465728260576725, 1.3357384204864502, 1.7519570589065552, 1.1165685653686523, -0.29014304280281067, -0.0026181188877671957]","[3.798073115003808, 3.798073115003808, 4.285440390025987, 2.6302640264026405, 2.6302640264026405, 2.6302640264026405]",0.0,0.0,0.0,0.0,0.0,0.0,0.0,0.0,0.0,0.0,0.0,0.0,0.0,0.0,0.0,0.5818222603268115,0.08891408236226217,0.004463933692032351,1.0,0.0,0.0,0.0,0.0,11.0,0.0,0.0,0.0,0.0,0.0,0.0,0.0,0.0,0.0
766,16420.44,1778821058.1860728,16420.44,"[0.5988242030143738, -1.7130120436297815, -1.2061131636248987, -1.7152484099017542, 1.528073787689209, 2.175065755844116]","[0.5829297890213533, 0.08908236989184379, 0.0006241508435489984, 2.8148246588951285, -0.02415136706774898, 1.3801102479832756]","[0.0061870263920829035, 1.3390139786390742, 1.7539000735431072, 1.11700748640306, -0.28980379333565015, -0.002620282451726008]","[0.006187026388943195, 1.339013934135437, 1.7539000511169434, 1.1170074939727783, -0.28980380296707153, -0.0026202823501080275]","[3.798073115003808, 3.798073115003808, 4.285440390025987, 2.6302640264026405, 2.6302640264026405, 2.6302640264026405]",0.0,0.0,0.0,0.0,0.0,0.0,0.0,0.0,0.0,0.0,0.0,0.0,0.0,0.0,0.0,0.5823759920179943,0.08899822565252748,0.0025440085413122593,1.0,0.0,0.0,0.0,0.0,11.0,0.0,0.0,0.0,0.0,0.0,0.0,0.0,0.0,0.0
767,16420.448,1778821058.1949396,16420.448,"[0.5980848073959351, -1.7137077490436, -1.214536492024557, -1.7060979048358362, 1.528131365776062, 2.174327850341797]","[0.5834835521215259, 0.08916649078293952, -0.0012958909842514243, 2.814824625590638, -0.024151204339785595, 1.3801102639872385]","[0.0061294689992535505, 1.3422866781788976, 1.75576607274574, 1.1174340744877684, -0.2894655838435597, -0.002622475245719319]","[0.0061294687911868095, 1.3422867059707642, 1.7557660341262817, 1.117434024810791, -0.2894655764102936, -0.0026224751491099596]","[3.798073115003808, 3.798073115003808, 4.285440390025987, 2.6302640264026405, 2.6302640264026405, 2.6302640264026405]",0.0,0.0,0.0,0.0,0.0,0.0,0.0,0.0,0.0,0.0,0.0,0.0,0.0,0.0,0.0,0.5829297890213533,0.08908236989184379,0.0006241508435489984,1.0,0.0,0.0,0.0,0.0,11.0,0.0,0.0,0.0,0.0,0.0,0.0,0.0,0.0,0.0
768,16420.456,1778821058.2038844,16420.456,"[0.5973478555679321, -1.7144807020770472, -1.2228511015521448, -1.6969793478595179, 1.5281888246536255, 2.1735925674438477]","[0.5840371970500366, 0.08925051565415869, -0.0032160421584769283, 2.8148246221175297, -0.02415119638806762, 1.3801097698070333]","[0.00607377128781142, 1.3455580562435516, 1.7575545830483477, 1.117848843615986, -0.28912841273054174, -0.002624694521779306]","[0.006073771510273218, 1.3455580472946167, 1.757554531097412, 1.1178488731384277, -0.2891284227371216, -0.0026246944908052683]","[3.798073115003808, 3.798073115003808, 4.285440390025987, 2.6302640264026405, 2.6302640264026405, 2.6302640264026405]",0.0,0.0,0.0,0.0,0.0,0.0,0.0,0.0,0.0,0.0,0.0,0.0,0.0,0.0,0.0,0.5834835521215259,0.08916649078293952,-0.0012958909842514243,1.0,0.0,0.0,0.0,0.0,11.0,0.0,0.0,0.0,0.0,0.0,0.0,0.0,0.0,0.0
769,16420.464,1778821058.2115083,16420.464,"[0.5966134071350098, -1.715329949055807, -1.231058422719137, -1.6878913084613245, 1.5282461643218994, 2.1728596687316895]","[0.5845910063719238, 0.08933472890904987, -0.005135941198854688, 2.8148246450494163, -0.024151289416321206, 1.380110135447396]","[0.006019811813518519, 1.3488295294878043, 1.759265148776678, 1.1182522904378094, -0.28879227108978084, -0.0026269376822583962]","[0.006019811611622572, 1.3488295078277588, 1.7592651844024658, 1.1182522773742676, -0.28879228234291077, -0.0026269375812262297]","[3.798073115003808, 3.798073115003808, 4.285440390025987, 2.6302640264026405, 2.6302640264026405, 2.6302640264026405]",0.0,0.0,0.0,0.0,0.0,0.0,0.0,0.0,0.0,0.0,0.0,0.0,0.0,0.0,0.0,0.5834835521215259,0.08916649078293952,-0.0012958909842514243,1.0,0.0,0.0,0.0,0.0,11.0,0.0,0.0,0.0,0.0,0.0,0.0,0.0,0.0,0.0
770,16420.471999999998,1778821058.2195911,16420.471999999998,"[0.5958812832832336, -1.716255013142721, -1.2391603628741663, -1.678833309804098, 1.5283032655715942, 2.1721291542053223]","[0.5851447429184141, 0.08941879243646778, -0.007055986214750232, 2.8148245992647785, -0.024151301488679215, 1.3801100628428697]","[0.005967476399494636, 1.3521024174905254, 1.7608973762225189, 1.1186448769792037, -0.2884571504185888, -0.0026292023252515273]","[0.0059674764052033424, 1.3521023988723755, 1.7608973979949951, 1.1186448335647583, -0.28845715522766113, -0.002629202324897051]","[3.798073115003808, 3.798073115003808, 4.285440390025987, 2.6302640264026405, 2.6302640264026405, 2.6302640264026405]",0.0,0.0,0.0,0.0,0.0,0.0,0.0,0.0,0.0,0.0,0.0,0.0,0.0,0.0,0.0,0.5845910063719238,0.08933472890904987,-0.005135941198854688,1.0,0.0,0.0,0.0,0.0,11.0,0.0,0.0,0.0,0.0,0.0,0.0,0.0,0.0,0.0
771,16420.48,1778821058.2276802,16420.48,"[0.5951516628265381, -1.717254940663473, -1.2471578756915491, -1.66980487505068, 1.5283602476119995, 2.171401023864746]","[0.5856984501279988, 0.08950292267326994, -0.008975886591484183, 2.814824633073757, -0.024151225457573266, 1.3801101904412623]","[0.005916657518558295, 1.3553779508271455, 1.7624509280317453, 1.1190270334915677, -0.28812304258836496, -0.002631486231713048]","[0.005916657391935587, 1.3553779125213623, 1.762450933456421, 1.119027018547058, -0.2881230413913727, -0.0026314861606806517]","[3.798073115003808, 3.798073115003808, 4.285440390025987, 2.6302640264026405, 2.6302640264026405, 2.6302640264026405]",0.0,0.0,0.0,0.0,0.0,0.0,0.0,0.0,0.0,0.0,0.0,0.0,0.0,0.0,0.0,0.5851447429184141,0.08941879243646778,-0.007055986214750232,1.0,0.0,0.0,0.0,0.0,11.0,0.0,0.0,0.0,0.0,0.0,0.0,0.0,0.0,0.0
772,16420.487999999998,1778821058.2372646,16420.487999999998,"[0.5944244265556335, -1.7183297316180628, -1.2550528685199183, -1.660804573689596, 1.5284171104431152, 2.170675277709961]","[0.5862521283369386, 0.08958704790068238, -0.010896052155899671, 2.8148247524686, -0.024151040405193606, 1.3801098351581769]","[0.0058672537659893685, 1.358657278364597, 1.7639255181909397, 1.1193991610354397, -0.2877899398114733, -0.0026337873464507737]","[0.005867253988981247, 1.3586572408676147, 1.763925552368164, 1.1193991899490356, -0.2877899408340454, -0.0026337874587625265]","[3.798073115003808, 3.798073115003808, 4.285440390025987, 2.6302640264026405, 2.6302640264026405, 2.6302640264026405]",0.0,0.0,0.0,0.0,0.0,0.0,0.0,0.0,0.0,0.0,0.0,0.0,0.0,0.0,0.0,0.5856984501279988,0.08950292267326994,-0.008975886591484183,1.0,0.0,0.0,0.0,0.0,11.0,0.0,0.0,0.0,0.0,0.0,0.0,0.0,0.0,0.0
773,16420.496,1778821058.2444346,16420.496,"[0.59369957447052, -1.719477955495016, -1.2628462950335901, -1.651832405720846, 1.5284737348556519, 2.169952154159546]","[0.5868057787851341, 0.08967105898534045, -0.012816055831794848, 2.8148246972565203, -0.02415122763719314, 1.3801096679338214]","[0.005819169371304706, 1.3619414738620663, 1.7653209075533296, 1.119761633822785, -0.28745783461242325, -0.0026361037627053033]","[0.0058191693387925625, 1.3619414567947388, 1.765320897102356, 1.11976158618927, -0.28745782375335693, -0.002636103658005595]","[3.798073115003808, 3.798073115003808, 4.285440390025987, 2.6302640264026405, 2.6302640264026405, 2.6302640264026405]",0.0,0.0,0.0,0.0,0.0,0.0,0.0,0.0,0.0,0.0,0.0,0.0,0.0,0.0,0.0,0.5862521283369386,0.08958704790068238,-0.010896052155899671,1.0,0.0,0.0,0.0,0.0,11.0,0.0,0.0,0.0,0.0,0.0,0.0,0.0,0.0,0.0
774,16420.504,1778821058.2532482,16420.504,"[0.5929771661758423, -1.7206996122943323, -1.2705391089068812, -1.6428874174701136, 1.5285301208496094, 2.1692311763763428]","[0.5873595259042199, 0.08975518075764574, -0.01473598191261355, 2.8148246472617773, -0.02415100704591337, 1.3801097835653129]","[0.005772313744464661, 1.3652315418668286, 1.7666368999419206, 1.1201148013477413, -0.2871267198066723, -0.0026384337132083165]","[0.005772313568741083, 1.3652315139770508, 1.766636848449707, 1.120114803314209, -0.28712671995162964, -0.002638433827087283]","[3.798073115003808, 3.798073115003808, 4.285440390025987, 2.6302640264026405, 2.6302640264026405, 2.6302640264026405]",0.0,0.0,0.0,0.0,0.0,0.0,0.0,0.0,0.0,0.0,0.0,0.0,0.0,0.0,0.0,0.5862521283369386,0.08958704790068238,-0.010896052155899671,1.0,0.0,0.0,0.0,0.0,11.0,0.0,0.0,0.0,0.0,0.0,0.0,0.0,0.0,0.0
775,16420.512,1778821058.2614002,16420.512,"[0.5922570824623108, -1.7219942251788538, -1.278132740651266, -1.6339686552630823, 1.528586506843567, 2.1685125827789307]","[0.5879133457809103, 0.08983940833973753, -0.01665594011300664, 2.8148247337029075, -0.02415100446477671, 1.3801100075207489]","[0.005726601098940659, 1.3685284231243415, 1.7678733385887118, 1.120458990325766, -0.2867965884723553, -0.0026407755520501883]","[0.005726600997149944, 1.3685283660888672, 1.7678732872009277, 1.120458960533142, -0.28679659962654114, -0.0026407756377011538]","[3.798073115003808, 3.798073115003808, 4.285440390025987, 2.6302640264026405, 2.6302640264026405, 2.6302640264026405]",0.0,0.0,0.0,0.0,0.0,0.0,0.0,0.0,0.0,0.0,0.0,0.0,0.0,0.0,0.0,0.5873595259042199,0.08975518075764574,-0.01473598191261355,1.0,0.0,0.0,0.0,0.0,11.0,0.0,0.0,0.0,0.0,0.0,0.0,0.0,0.0,0.0
776,16420.52,1778821058.2698765,16420.52,"[0.5915393233299255, -1.723360840474264, -1.285628620778219, -1.6250761190997522, 1.5286426544189453, 2.1677966117858887]","[0.5884670364452397, 0.08992342945591868, -0.018575999662112153, 2.8148246771128336, -0.02415126995765035, 1.380109746252374]","[0.005681950051130639, 1.3718329993832985, 1.7690301030896758, 1.1207945064610532, -0.28646743393781876, -0.0026431277521376654]","[0.005681950133293867, 1.3718329668045044, 1.7690300941467285, 1.1207945346832275, -0.28646743297576904, -0.002643127692863345]","[3.798073115003808, 3.798073115003808, 4.285440390025987, 2.6302640264026405, 2.6302640264026405, 2.6302640264026405]",0.0,0.0,0.0,0.0,0.0,0.0,0.0,0.0,0.0,0.0,0.0,0.0,0.0,0.0,0.0,0.5879133457809103,0.08983940833973753,-0.01665594011300664,1.0,0.0,0.0,0.0,0.0,11.0,0.0,0.0,0.0,0.0,0.0,0.0,0.0,0.0,0.0
777,16420.528,1778821058.2783644,16420.528,"[0.5908239483833313, -1.7247989813434046, -1.293027702962057, -1.616208855305807, 1.5286985635757446, 2.1670827865600586]","[0.5890207765598852, 0.09000750522320058, -0.020496008329427662, 2.8148246022497982, -0.024151211185734774, 1.3801097540004064]","[0.005638283330019215, 1.3751460978354466, 1.770107106583251, 1.1211216360616858, -0.2861392497550618, -0.002645488887155006]","[0.005638283211737871, 1.3751461505889893, 1.7701071500778198, 1.1211216449737549, -0.28613924980163574, -0.002645488828420639]","[3.798073115003808, 3.798073115003808, 4.285440390025987, 2.6302640264026405, 2.6302640264026405, 2.6302640264026405]",0.0,0.0,0.0,0.0,0.0,0.0,0.0,0.0,0.0,0.0,0.0,0.0,0.0,0.0,0.0,0.5884670364452397,0.08992342945591868,-0.018575999662112153,1.0,0.0,0.0,0.0,0.0,11.0,0.0,0.0,0.0,0.0,0.0,0.0,0.0,0.0,0.0
778,16420.536,1778821058.2883375,16420.536,"[0.5901109576225281, -1.7263081709491175, -1.300330940877096, -1.6073663870440882, 1.528754472732544, 2.1663713455200195]","[0.5895745101731718, 0.09009168651998321, -0.022415993251867716, 2.8148246885973265, -0.02415128678052749, 1.3801098805459329]","[0.005595527450778404, 1.3784684950566872, 1.771104293358577, 1.121440647515775, -0.28581202968945923, -0.0026478576295986436]","[0.0055955275893211365, 1.3784685134887695, 1.771104335784912, 1.1214406490325928, -0.28581202030181885, -0.0026478576473891735]","[3.798073115003808, 3.798073115003808, 4.285440390025987, 2.6302640264026405, 2.6302640264026405, 2.6302640264026405]",0.0,0.0,0.0,0.0,0.0,0.0,0.0,0.0,0.0,0.0,0.0,0.0,0.0,0.0,0.0,0.5890207765598852,0.09000750522320058,-0.020496008329427662,1.0,0.0,0.0,0.0,0.0,11.0,0.0,0.0,0.0,0.0,0.0,0.0,0.0,0.0,0.0
779,16420.543999999998,1778821058.297249,16420.543999999998,"[0.5894002318382263, -1.7278879324542444, -1.3075392881976526, -1.598548714314596, 1.5288101434707642, 2.1656620502471924]","[0.5901281365636427, 0.09017574969619797, -0.024336057639558595, 2.8148247651733835, -0.02415101839486411, 1.380109591295781]","[0.005553612452577149, 1.381800920653967, 1.7720216366437964, 1.1217517926434997, -0.285485767700996, -0.002650232738737291]","[0.005553612485527992, 1.381800889968872, 1.7720216512680054, 1.1217517852783203, -0.28548577427864075, -0.0026502327527850866]","[3.798073115003808, 3.798073115003808, 4.285440390025987, 2.6302640264026405, 2.6302640264026405, 2.6302640264026405]",0.0,0.0,0.0,0.0,0.0,0.0,0.0,0.0,0.0,0.0,0.0,0.0,0.0,0.0,0.0,0.5890207765598852,0.09000750522320058,-0.020496008329427662,1.0,0.0,0.0,0.0,0.0,11.0,0.0,0.0,0.0,0.0,0.0,0.0,0.0,0.0,0.0
780,16420.552,1778821058.305124,16420.552,"[0.5886918306350708, -1.7295377890216272, -1.314653221760885, -1.589754883443014, 1.5288655757904053, 2.1649553775787354]","[0.5906819868476461, 0.09025986233372267, -0.026255828770182954, 2.8148245870943107, -0.024151392102100003, 1.380110133904331]","[0.00551247164082494, 1.3851440605109842, 1.7728591367272735, 1.1220553079384197, -0.2851604579333216, -0.002652613055490395]","[0.005512471776455641, 1.3851441144943237, 1.7728590965270996, 1.1220552921295166, -0.28516045212745667, -0.00265261298045516]","[3.798073115003808, 3.798073115003808, 4.285440390025987, 2.6302640264026405, 2.6302640264026405, 2.6302640264026405]",0.0,0.0,0.0,0.0,0.0,0.0,0.0,0.0,0.0,0.0,0.0,0.0,0.0,0.0,0.0,0.5901281365636427,0.09017574969619797,-0.024336057639558595,1.0,0.0,0.0,0.0,0.0,11.0,0.0,0.0,0.0,0.0,0.0,0.0,0.0,0.0,0.0
781,16420.559999999998,1778821058.3133621,16420.559999999998,"[0.5879857540130615, -1.731257740651266, -1.321674648915426, -1.5809844175921839, 1.5289208889007568, 2.1642508506774902]","[0.5912356289962036, 0.09034390391996226, -0.0281760698277278, 2.814824610313755, -0.024151207175845797, 1.38010955674313]","[0.005472041375437043, 1.3884985597818718, 1.7736168192379258, 1.122351415705401, -0.284836094699154, -0.00265499749538262]","[0.005472041200846434, 1.3884985446929932, 1.7736167907714844, 1.1223514080047607, -0.284836083650589, -0.0026549973990768194]","[3.798073115003808, 3.798073115003808, 4.285440390025987, 2.6302640264026405, 2.6302640264026405, 2.6302640264026405]",0.0,0.0,0.0,0.0,0.0,0.0,0.0,0.0,0.0,0.0,0.0,0.0,0.0,0.0,0.0,0.5906819868476461,0.09025986233372267,-0.026255828770182954,1.0,0.0,0.0,0.0,0.0,11.0,0.0,0.0,0.0,0.0,0.0,0.0,0.0,0.0,0.0
782,16420.568,1778821058.3218508,16420.568,"[0.5872820019721985, -1.7330463568316858, -1.3286035696612757, -1.5722373167621058, 1.5289760828018188, 2.163548469543457]","[0.5917893580278055, 0.09042807617531116, -0.03009593808761568, 2.814824663158033, -0.024151023260973778, 1.3801098406299244]","[0.0054322608544430375, 1.391865025594911, 1.7742947336533228, 1.1226403251101689, -0.2845126724695729, -0.002657385041087165]","[0.005432260688394308, 1.3918650150299072, 1.7742947340011597, 1.1226403713226318, -0.2845126688480377, -0.00265738507732749]","[3.798073115003808, 3.798073115003808, 4.285440390025987, 2.6302640264026405, 2.6302640264026405, 2.6302640264026405]",0.0,0.0,0.0,0.0,0.0,0.0,0.0,0.0,0.0,0.0,0.0,0.0,0.0,0.0,0.0,0.5912356289962036,0.09034390391996226,-0.0281760698277278,1.0,0.0,0.0,0.0,0.0,11.0,0.0,0.0,0.0,0.0,0.0,0.0,0.0,0.0,0.0
783,16420.576,1778821058.3314254,16420.576,"[0.5865804553031921, -1.7349041144000452, -1.3354409376727503, -1.5635126272784632, 1.5290311574935913, 2.162848472595215]","[0.5923432079747298, 0.09051227969647839, -0.0320158324195004, 2.814824676662627, -0.024151169124160238, 1.3801102593401908]","[0.00539307192677416, 1.39524402949861, 1.7748929519952703, 1.1229222331429376, -0.28419018586503225, -0.0026597747400678128]","[0.005393072031438351, 1.3952440023422241, 1.7748929262161255, 1.1229221820831299, -0.28419017791748047, -0.002659774851053953]","[3.798073115003808, 3.798073115003808, 4.285440390025987, 2.6302640264026405, 2.6302640264026405, 2.6302640264026405]",0.0,0.0,0.0,0.0,0.0,0.0,0.0,0.0,0.0,0.0,0.0,0.0,0.0,0.0,0.0,0.5917893580278055,0.09042807617531116,-0.03009593808761568,1.0,0.0,0.0,0.0,0.0,11.0,0.0,0.0,0.0,0.0,0.0,0.0,0.0,0.0,0.0
784,16420.584,1778821058.3385642,16420.584,"[0.585881233215332, -1.7368300596820276, -1.3421877066241663, -1.5548108259784144, 1.5290859937667847, 2.1621508598327637]","[0.5928969111317224, 0.09059635287130192, -0.03393577978014184, 2.8148246291329655, -0.024151235920216972, 1.3801102281956026]","[0.005354418923310458, 1.3986361097050404, 1.775411567663956, 1.1231973255100687, -0.2838686296446641, -0.0026621656971466635]","[0.005354418884962797, 1.3986361026763916, 1.775411605834961, 1.123197317123413, -0.2838686406612396, -0.0026621657889336348]","[3.798073115003808, 3.798073115003808, 4.285440390025987, 2.6302640264026405, 2.6302640264026405, 2.6302640264026405]",0.0,0.0,0.0,0.0,0.0,0.0,0.0,0.0,0.0,0.0,0.0,0.0,0.0,0.0,0.0,0.5917893580278055,0.09042807617531116,-0.03009593808761568,1.0,0.0,0.0,0.0,0.0,11.0,0.0,0.0,0.0,0.0,0.0,0.0,0.0,0.0,0.0
785,16420.592,1778821058.3484287,16420.592,"[0.5851842164993286, -1.738824192677633, -1.3488448301898401, -1.5461309591876429, 1.5291407108306885, 2.1614553928375244]","[0.5934505389356691, 0.0906803849416605, -0.035855946826105545, 2.8148246797415575, -0.024151098858872178, 1.3801097112998404]","[0.005316248501548873, 1.4020417731214858, 1.7758506944249668, 1.1234657774555374, -0.2835479986980546, -0.0026645570710442422]","[0.005316248629242182, 1.4020417928695679, 1.7758506536483765, 1.1234657764434814, -0.2835479974746704, -0.00266455695964396]","[3.798073115003808, 3.798073115003808, 4.285440390025987, 2.6302640264026405, 2.6302640264026405, 2.6302640264026405]",0.0,0.0,0.0,0.0,0.0,0.0,0.0,0.0,0.0,0.0,0.0,0.0,0.0,0.0,0.0,0.5928969111317224,0.09059635287130192,-0.03393577978014184,1.0,0.0,0.0,0.0,0.0,11.0,0.0,0.0,0.0,0.0,0.0,0.0,0.0,0.0,0.0
786,16420.6,1778821058.3564203,16420.6,"[0.5844895243644714, -1.7408855597125452, -1.3554123083697718, -1.5374725500689905, 1.5291953086853027, 2.160762310028076]","[0.5940044797564009, 0.09076466686370376, -0.03777562817919833, 2.814824622025073, -0.02415149541875491, 1.3801106735300228]","[0.005278509502322667, 1.4054614971866428, 1.776210465543347, 1.1237277545225197, -0.2832282880375284, -0.002666948069538512]","[0.005278509575873613, 1.4054615497589111, 1.7762104272842407, 1.123727798461914, -0.2832282781600952, -0.0026669481303542852]","[3.798073115003808, 3.798073115003808, 4.285440390025987, 2.6302640264026405, 2.6302640264026405, 2.6302640264026405]",0.0,0.0,0.0,0.0,0.0,0.0,0.0,0.0,0.0,0.0,0.0,0.0,0.0,0.0,0.0,0.5934505389356691,0.0906803849416605,-0.035855946826105545,1.0,0.0,0.0,0.0,0.0,11.0,0.0,0.0,0.0,0.0,0.0,0.0,0.0,0.0,0.0
787,16420.608,1778821058.365219,16420.608,"[0.583797037601471, -1.7430146376239222, -1.3618915716754358, -1.5288360754596155, 1.529249668121338, 2.16007137298584]","[0.5945580892390361, 0.09084868149499224, -0.03969588387453199, 2.8148246531504073, -0.024151261785423393, 1.380109879097428]","[0.005241152816171186, 1.4088957315709865, 1.7764910329945318, 1.1239834132562516, -0.28290949279164834, -0.0026693379474895056]","[0.005241152830421925, 1.40889573097229, 1.7764910459518433, 1.123983383178711, -0.28290948271751404, -0.0026693379040807486]","[3.798073115003808, 3.798073115003808, 4.285440390025987, 2.6302640264026405, 2.6302640264026405, 2.6302640264026405]",0.0,0.0,0.0,0.0,0.0,0.0,0.0,0.0,0.0,0.0,0.0,0.0,0.0,0.0,0.0,0.5940044797564009,0.09076466686370376,-0.03777562817919833,1.0,0.0,0.0,0.0,0.0,11.0,0.0,0.0,0.0,0.0,0.0,0.0,0.0,0.0,0.0
788,16420.615999999998,1778821058.3732023,16420.615999999998,"[0.5831067562103271, -1.7452099959002894, -1.3682830969439905, -1.5202205816852015, 1.5293039083480835, 2.1593825817108154]","[0.5951118170934484, 0.09093279686123508, -0.04161587431430308, 2.8148246647593744, -0.02415119532132678, 1.380109919789968]","[0.005204131278926969, 1.4123448996991366, 1.7766925668064906, 1.124232901858737, -0.28259160819597, -0.0026717259997097245]","[0.005204131361097097, 1.4123449325561523, 1.776692509651184, 1.1242328882217407, -0.2825916111469269, -0.0026717260479927063]","[3.798073115003808, 3.798073115003808, 4.285440390025987, 2.6302640264026405, 2.6302640264026405, 2.6302640264026405]",0.0,0.0,0.0,0.0,0.0,0.0,0.0,0.0,0.0,0.0,0.0,0.0,0.0,0.0,0.0,0.5945580892390361,0.09084868149499224,-0.03969588387453199,1.0,0.0,0.0,0.0,0.0,11.0,0.0,0.0,0.0,0.0,0.0,0.0,0.0,0.0,0.0
789,16420.624,1778821058.380978,16420.624,"[0.58241868019104, -1.7474716345416468, -1.374587361012594, -1.5116260687457483, 1.5293580293655396, 2.158695936203003]","[0.5956655658972327, 0.09101695291940502, -0.043535805625682045, 2.8148247161481996, -0.024151110477369297, 1.380110133925043]","[0.005167399541328847, 1.415809400119256, 1.7768152545282778, 1.1244763607940085, -0.2822746295921765, -0.002674111563556499]","[0.005167399533092976, 1.4158093929290771, 1.7768152952194214, 1.1244763135910034, -0.28227463364601135, -0.002674111630767584]","[3.798073115003808, 3.798073115003808, 4.285440390025987, 2.6302640264026405, 2.6302640264026405, 2.6302640264026405]",0.0,0.0,0.0,0.0,0.0,0.0,0.0,0.0,0.0,0.0,0.0,0.0,0.0,0.0,0.0,0.5945580892390361,0.09084868149499224,-0.03969588387453199,1.0,0.0,0.0,0.0,0.0,11.0,0.0,0.0,0.0,0.0,0.0,0.0,0.0,0.0,0.0
790,16420.631999999998,1778821058.389646,16420.631999999998,"[0.5817328095436096, -1.7497995535479944, -1.3808048407184046, -1.5030525366412562, 1.5294119119644165, 2.1580116748809814]","[0.596219262593542, 0.09110099156196029, -0.04545587327363587, 2.814824661603582, -0.024151114871879743, 1.3801098697720786]","[0.005130913995945584, 1.4192896078076627, 1.7768593006858378, 1.1247139233522843, -0.2819585524164321, -0.0026764940096716525]","[0.00513091403990984, 1.4192895889282227, 1.7768592834472656, 1.1247138977050781, -0.28195855021476746, -0.0026764939539134502]","[3.798073115003808, 3.798073115003808, 4.285440390025987, 2.6302640264026405, 2.6302640264026405, 2.6302640264026405]",0.0,0.0,0.0,0.0,0.0,0.0,0.0,0.0,0.0,0.0,0.0,0.0,0.0,0.0,0.0,0.5956655658972327,0.09101695291940502,-0.043535805625682045,1.0,0.0,0.0,0.0,0.0,11.0,0.0,0.0,0.0,0.0,0.0,0.0,0.0,0.0,0.0
791,16420.64,1778821058.3987522,16420.64,"[0.5810492038726807, -1.752192799245016, -1.3869364897357386, -1.4944995085345667, 1.529465675354004, 2.157329559326172]","[0.5967729294268768, 0.0911850856688707, -0.047375888130544996, 2.814824671656303, -0.024151017292058492, 1.3801097896178578]","[0.005094632670959298, 1.4227858752879428, 1.7768249264214169, 1.124945716174686, -0.281643372198796, -0.0026788727440970523]","[0.005094632506370544, 1.4227858781814575, 1.776824951171875, 1.1249457597732544, -0.2816433608531952, -0.002678872784599662]","[3.798073115003808, 3.798073115003808, 4.285440390025987, 2.6302640264026405, 2.6302640264026405, 2.6302640264026405]",0.0,0.0,0.0,0.0,0.0,0.0,0.0,0.0,0.0,0.0,0.0,0.0,0.0,0.0,0.0,0.596219262593542,0.09110099156196029,-0.04545587327363587,1.0,0.0,0.0,0.0,0.0,11.0,0.0,0.0,0.0,0.0,0.0,0.0,0.0,0.0,0.0
792,16420.648,1778821058.4068854,16420.648,"[0.5803676843643188, -1.7546513716327112, -1.392982308064596, -1.48596698442568, 1.5295193195343018, 2.156649589538574]","[0.5973266540474345, 0.09126917983320806, -0.04929582920889458, 2.8148246738099596, -0.024151068684065042, 1.3801098577153157]","[0.005058515155359852, 1.4262985336821592, 1.7767123691421547, 1.1251718597421896, -0.2813290845567568, -0.0026812472036262117]","[0.005058515351265669, 1.4262984991073608, 1.776712417602539, 1.1251718997955322, -0.28132909536361694, -0.002681247191503644]","[3.798073115003808, 3.798073115003808, 4.285440390025987, 2.6302640264026405, 2.6302640264026405, 2.6302640264026405]",0.0,0.0,0.0,0.0,0.0,0.0,0.0,0.0,0.0,0.0,0.0,0.0,0.0,0.0,0.0,0.5967729294268768,0.0911850856688707,-0.047375888130544996,1.0,0.0,0.0,0.0,0.0,11.0,0.0,0.0,0.0,0.0,0.0,0.0,0.0,0.0,0.0
793,16420.656,1778821058.4155188,16420.656,"[0.5796884298324585, -1.7571752707110804, -1.398942772542135, -1.4774544874774378, 1.52957284450531, 2.1559717655181885]","[0.5978804901791666, 0.0913534309245949, -0.05121578205429084, 2.814824740516851, -0.024151017871444223, 1.3801101091025187]","[0.00502252252750206, 1.4298278936649012, 1.7765218822348459, 1.1253924688314219, -0.28101568519099496, -0.0026836168544988005]","[0.0050225225277245045, 1.4298279285430908, 1.776521921157837, 1.1253924369812012, -0.28101569414138794, -0.002683616941794753]","[3.798073115003808, 3.798073115003808, 4.285440390025987, 2.6302640264026405, 2.6302640264026405, 2.6302640264026405]",0.0,0.0,0.0,0.0,0.0,0.0,0.0,0.0,0.0,0.0,0.0,0.0,0.0,0.0,0.0,0.5973266540474345,0.09126917983320806,-0.04929582920889458,1.0,0.0,0.0,0.0,0.0,11.0,0.0,0.0,0.0,0.0,0.0,0.0,0.0,0.0,0.0
794,16420.664,1778821058.4242496,16420.664,"[0.5790112614631653, -1.7597630659686487, -1.4048188368426722, -1.4689624945269983, 1.5296261310577393, 2.1552963256835938]","[0.5984342659503772, 0.09143749872889861, -0.053135552306852074, 2.8148245929294955, -0.024151408101780306, 1.3801105181349371]","[0.0049866172889601445, 1.433374246323873, 1.7762537348428113, 1.125607652941613, -0.2807031698807725, -0.002685981188975809]","[0.004986617248505354, 1.433374285697937, 1.7762537002563477, 1.1256076097488403, -0.2807031571865082, -0.0026859811041504145]","[3.798073115003808, 3.798073115003808, 4.285440390025987, 2.6302640264026405, 2.6302640264026405, 2.6302640264026405]",0.0,0.0,0.0,0.0,0.0,0.0,0.0,0.0,0.0,0.0,0.0,0.0,0.0,0.0,0.0,0.5973266540474345,0.09126917983320806,-0.04929582920889458,1.0,0.0,0.0,0.0,0.0,11.0,0.0,0.0,0.0,0.0,0.0,0.0,0.0,0.0,0.0
795,16420.672,1778821058.432243,16420.672,"[0.5783362984657288, -1.7624157110797327, -1.4106109778033655, -1.4604905287372034, 1.529679298400879, 2.154622793197632]","[0.5989878476430719, 0.09152154201571994, -0.05505577382224541, 2.814824688355425, -0.02415106397111984, 1.3801098142700876]","[0.004950763291090216, 1.43693786392095, 1.7759082117204334, 1.1258175166917925, -0.2803915344833272, -0.0026883397267263966]","[0.004950763192027807, 1.4369378089904785, 1.7759082317352295, 1.1258175373077393, -0.28039154410362244, -0.002688339678570628]","[3.798073115003808, 3.798073115003808, 4.285440390025987, 2.6302640264026405, 2.6302640264026405, 2.6302640264026405]",0.0,0.0,0.0,0.0,0.0,0.0,0.0,0.0,0.0,0.0,0.0,0.0,0.0,0.0,0.0,0.5984342659503772,0.09143749872889861,-0.053135552306852074,1.0,0.0,0.0,0.0,0.0,11.0,0.0,0.0,0.0,0.0,0.0,0.0,0.0,0.0,0.0
796,16420.68,1778821058.4405167,16420.68,"[0.5776634216308594, -1.7651317755328577, -1.4163196722613733, -1.4520381132708948, 1.529732346534729, 2.153951406478882]","[0.5995415553372458, 0.09160564712605243, -0.05697575607629257, 2.8148247144340295, -0.024151052597722045, 1.3801099192453312]","[0.004914925710482206, 1.4405190006359139, 1.7754856130443175, 1.1260221601949822, -0.28008077492442957, -0.0026906920078434496]","[0.004914925899356604, 1.4405189752578735, 1.775485634803772, 1.126022219657898, -0.28008076548576355, -0.002690691966563463]","[3.798073115003808, 3.798073115003808, 4.285440390025987, 2.6302640264026405, 2.6302640264026405, 2.6302640264026405]",0.0,0.0,0.0,0.0,0.0,0.0,0.0,0.0,0.0,0.0,0.0,0.0,0.0,0.0,0.0,0.5989878476430719,0.09152154201571994,-0.05505577382224541,1.0,0.0,0.0,0.0,0.0,11.0,0.0,0.0,0.0,0.0,0.0,0.0,0.0,0.0,0.0
797,16420.688,1778821058.4493697,16420.688,"[0.5769926905632019, -1.767911736165182, -1.4219444433795374, -1.4436057249652308, 1.52978515625, 2.153282403945923]","[0.6000953994199507, 0.09168974972948143, -0.058895644286434456, 2.8148245510410352, -0.024151398485754098, 1.3801101917577825]","[0.004879070966709008, 1.4441178931588072, 1.774986254397154, 1.1262216794066418, -0.2797708872021764, -0.002693037597313631]","[0.004879070911556482, 1.4441179037094116, 1.7749862670898438, 1.1262216567993164, -0.2797708809375763, -0.0026930375024676323]","[3.798073115003808, 3.798073115003808, 4.285440390025987, 2.6302640264026405, 2.6302640264026405, 2.6302640264026405]",0.0,0.0,0.0,0.0,0.0,0.0,0.0,0.0,0.0,0.0,0.0,0.0,0.0,0.0,0.0,0.5995415553372458,0.09160564712605243,-0.05697575607629257,1.0,0.0,0.0,0.0,0.0,11.0,0.0,0.0,0.0,0.0,0.0,0.0,0.0,0.0,0.0
798,16420.696,1778821058.4577496,16420.696,"[0.5763241052627563, -1.770754639302389, -1.4274867216693323, -1.4351933638202112, 1.529837965965271, 2.1526153087615967]","[0.6006490218323387, 0.09177384964137324, -0.060815669577481524, 2.81482467422606, -0.024151333881940722, 1.3801099487189097]","[0.0048431666993227285, 1.4477347613092517, 1.7744104666456173, 1.126416166452998, -0.2794618673787416, -0.002695376078668782]","[0.004843166563659906, 1.4477347135543823, 1.7744104862213135, 1.1264162063598633, -0.2794618606567383, -0.0026953760534524918]","[3.798073115003808, 3.798073115003808, 4.285440390025987, 2.6302640264026405, 2.6302640264026405, 2.6302640264026405]",0.0,0.0,0.0,0.0,0.0,0.0,0.0,0.0,0.0,0.0,0.0,0.0,0.0,0.0,0.0,0.6000953994199507,0.09168974972948143,-0.058895644286434456,1.0,0.0,0.0,0.0,0.0,11.0,0.0,0.0,0.0,0.0,0.0,0.0,0.0,0.0,0.0
799,16420.703999999998,1778821058.4658234,16420.703999999998,"[0.5756576657295227, -1.773660961781637, -1.432946507130758, -1.426800552998678, 1.529890537261963, 2.1519503593444824]","[0.6012026341088037, 0.09185790924189523, -0.0627359318231348, 2.814824750168695, -0.024151095545372148, 1.3801092506414898]","[0.004807181727372322, 1.451369808525773, 1.7737585959618525, 1.126605709938439, -0.27915371157987207, -0.002697707055374001]","[0.004807181656360626, 1.4513697624206543, 1.7737586498260498, 1.126605749130249, -0.2791537046432495, -0.0026977071538567543]","[3.798073115003808, 3.798073115003808, 4.285440390025987, 2.6302640264026405, 2.6302640264026405, 2.6302640264026405]",0.0,0.0,0.0,0.0,0.0,0.0,0.0,0.0,0.0,0.0,0.0,0.0,0.0,0.0,0.0,0.6000953994199507,0.09168974972948143,-0.058895644286434456,1.0,0.0,0.0,0.0,0.0,11.0,0.0,0.0,0.0,0.0,0.0,0.0,0.0,0.0,0.0
800,16420.712,1778821058.474386,16420.712,"[0.5749932527542114, -1.7766292730914515, -1.4383237997638147, -1.4184272925006312, 1.5299428701400757, 2.151287317276001]","[0.6017565715163171, 0.09194212007551761, -0.06465564913030802, 2.814824617181104, -0.02415105152644015, 1.380110104832174]","[0.004771086004562644, 1.4550232223500008, 1.7730310038066446, 1.1267903952348715, -0.2788464159922789, -0.0027000301486653964]","[0.004771085921674967, 1.455023169517517, 1.7730309963226318, 1.1267904043197632, -0.27884641289711, -0.002700030105188489]","[3.798073115003808, 3.798073115003808, 4.285440390025987, 2.6302640264026405, 2.6302640264026405, 2.6302640264026405]",0.0,0.0,0.0,0.0,0.0,0.0,0.0,0.0,0.0,0.0,0.0,0.0,0.0,0.0,0.0,0.6012026341088037,0.09185790924189523,-0.0627359318231348,1.0,0.0,0.0,0.0,0.0,11.0,0.0,0.0,0.0,0.0,0.0,0.0,0.0,0.0,0.0
801,16420.719999999998,1778821058.483083,16420.719999999998,"[0.5743309855461121, -1.7796600500689905, -1.4436195532428187, -1.4100740591632288, 1.5299952030181885, 2.1506266593933105]","[0.6023102028109539, 0.09202618939575466, -0.06657575573141455, 2.814824680439569, -0.024151110851252728, 1.380109694858585]","[0.0047348505961446125, 1.4586951748469668, 1.7722280669543462, 1.1269703047527764, -0.2785399768608288, -0.002702344997162472]","[0.004734850488603115, 1.4586951732635498, 1.7722281217575073, 1.1269702911376953, -0.2785399854183197, -0.0027023449074476957]","[3.798073115003808, 3.798073115003808, 4.285440390025987, 2.6302640264026405, 2.6302640264026405, 2.6302640264026405]",0.0,0.0,0.0,0.0,0.0,0.0,0.0,0.0,0.0,0.0,0.0,0.0,0.0,0.0,0.0,0.6017565715163171,0.09194212007551761,-0.06465564913030802,1.0,0.0,0.0,0.0,0.0,11.0,0.0,0.0,0.0,0.0,0.0,0.0,0.0,0.0,0.0
802,16420.728,1778821058.49108,16420.728,"[0.5736707448959351, -1.7827523390399378, -1.4488337675677698, -1.4017403761493128, 1.5300472974777222, 2.149967908859253]","[0.6028640140454399, 0.09211032388460592, -0.06849556708372578, 2.8148245981611, -0.02415118105141494, 1.3801101731476566]","[0.004698447653221498, 1.4623858229728153, 1.7713501775582228, 1.127145518198018, -0.27823439048622245, -0.002704651255261047]","[0.00469844788312912, 1.4623857736587524, 1.7713501453399658, 1.127145528793335, -0.2782343924045563, -0.002704651327803731]","[3.798073115003808, 3.798073115003808, 4.285440390025987, 2.6302640264026405, 2.6302640264026405, 2.6302640264026405]",0.0,0.0,0.0,0.0,0.0,0.0,0.0,0.0,0.0,0.0,0.0,0.0,0.0,0.0,0.0,0.6023102028109539,0.09202618939575466,-0.06657575573141455,1.0,0.0,0.0,0.0,0.0,11.0,0.0,0.0,0.0,0.0,0.0,0.0,0.0,0.0,0.0
803,16420.736,1778821058.5000844,16420.736,"[0.5730125904083252, -1.7859066168414515, -1.4539669195758265, -1.393426243458883, 1.5300992727279663, 2.1493113040924072]","[0.603417762167605, 0.09219442662894342, -0.07041562827765302, 2.8148245742468827, -0.024151217334976407, 1.3801101308036825]","[0.0046618503834191674, 1.4660953089293878, 1.7703977431895206, 1.1273161128118057, -0.2779296532223431, -0.002706948591214456]","[0.004661850165575743, 1.4660953283309937, 1.7703977823257446, 1.1273161172866821, -0.2779296636581421, -0.0027069486677646637]","[3.798073115003808, 3.798073115003808, 4.285440390025987, 2.6302640264026405, 2.6302640264026405, 2.6302640264026405]",0.0,0.0,0.0,0.0,0.0,0.0,0.0,0.0,0.0,0.0,0.0,0.0,0.0,0.0,0.0,0.6028640140454399,0.09211032388460592,-0.06849556708372578,1.0,0.0,0.0,0.0,0.0,11.0,0.0,0.0,0.0,0.0,0.0,0.0,0.0,0.0,0.0
804,16420.744,1778821058.508362,16420.744,"[0.5723565220832825, -1.7891219297992151, -1.4590190092669886, -1.385132137929098, 1.530151128768921, 2.1486566066741943]","[0.6039715133692016, 0.09227859334944513, -0.07233557343440866, 2.8148246221144513, -0.024151054111821054, 1.380110272873626]","[0.004625033027155509, 1.4698237604406077, 1.7693711869643962, 1.1274821635978507, -0.2776257614771087, -0.002709236690172446]","[0.004625033121556044, 1.4698237180709839, 1.7693711519241333, 1.1274821758270264, -0.27762576937675476, -0.0027092366944998503]","[3.798073115003808, 3.798073115003808, 4.285440390025987, 2.6302640264026405, 2.6302640264026405, 2.6302640264026405]",0.0,0.0,0.0,0.0,0.0,0.0,0.0,0.0,0.0,0.0,0.0,0.0,0.0,0.0,0.0,0.6028640140454399,0.09211032388460592,-0.06849556708372578,1.0,0.0,0.0,0.0,0.0,11.0,0.0,0.0,0.0,0.0,0.0,0.0,0.0,0.0,0.0
805,16420.752,1778821058.5168831,16420.752,"[0.5717024803161621, -1.7923982779132288, -1.4639905134784144, -1.3768580595599573, 1.530202865600586, 2.1480042934417725]","[0.6045251489669166, 0.09236261486862689, -0.07425567376266101, 2.8148246276343447, -0.02415128927766476, 1.3801098394054034]","[0.004587970855876798, 1.4735712910558392, 1.7682709475763814, 1.127643743535972, -0.27732271170517303, -0.0027115152474198596]","[0.004587970674037933, 1.4735713005065918, 1.7682709693908691, 1.1276437044143677, -0.2773227095603943, -0.002711515175178647]","[3.798073115003808, 3.798073115003808, 4.285440390025987, 2.6302640264026405, 2.6302640264026405, 2.6302640264026405]",0.0,0.0,0.0,0.0,0.0,0.0,0.0,0.0,0.0,0.0,0.0,0.0,0.0,0.0,0.0,0.6039715133692016,0.09227859334944513,-0.07233557343440866,1.0,0.0,0.0,0.0,0.0,11.0,0.0,0.0,0.0,0.0,0.0,0.0,0.0,0.0,0.0
806,16420.76,1778821058.52514,16420.76,"[0.5710505247116089, -1.795734707509176, -1.4688814322101038, -1.3686040083514612, 1.5302544832229614, 2.1473536491394043]","[0.6050789131552377, 0.09244683820987125, -0.07617542783544773, 2.8148247173530847, -0.02415115869256555, 1.3801102954774536]","[0.004550640132356274, 1.4773380003548104, 1.767097479465332, 1.127800923783985, -0.2770205004121243, -0.002713783973288384]","[0.004550640005618334, 1.4773379564285278, 1.7670974731445312, 1.1278009414672852, -0.27702051401138306, -0.0027137838769704103]","[3.798073115003808, 3.798073115003808, 4.285440390025987, 2.6302640264026405, 2.6302640264026405, 2.6302640264026405]",0.0,0.0,0.0,0.0,0.0,0.0,0.0,0.0,0.0,0.0,0.0,0.0,0.0,0.0,0.0,0.6045251489669166,0.09236261486862689,-0.07425567376266101,1.0,0.0,0.0,0.0,0.0,11.0,0.0,0.0,0.0,0.0,0.0,0.0,0.0,0.0,0.0
807,16420.768,1778821058.5336046,16420.768,"[0.5704005360603333, -1.7991321722613733, -1.4736927191363733, -1.3603695074664515, 1.5303058624267578, 2.146705150604248]","[0.605632525115127, 0.09253084501416259, -0.0780957314129821, 2.8148247570041525, -0.02415092456920465, 1.3801095913115058]","[0.004513018121680892, 1.4811239741760043, 1.7658512528987356, 1.127953773867177, -0.2767191241483978, -0.0027160425894603695]","[0.004513018298894167, 1.481123924255371, 1.7658512592315674, 1.1279537677764893, -0.2767191231250763, -0.0027160425670444965]","[3.798073115003808, 3.798073115003808, 4.285440390025987, 2.6302640264026405, 2.6302640264026405, 2.6302640264026405]",0.0,0.0,0.0,0.0,0.0,0.0,0.0,0.0,0.0,0.0,0.0,0.0,0.0,0.0,0.0,0.6050789131552377,0.09244683820987125,-0.07617542783544773,1.0,0.0,0.0,0.0,0.0,11.0,0.0,0.0,0.0,0.0,0.0,0.0,0.0,0.0,0.0
808,16420.775999999998,1778821058.5419133,16420.775999999998,"[0.5697526335716248, -1.8025887648211878, -1.4784238974200647, -1.3521555105792444, 1.5303571224212646, 2.1460587978363037]","[0.6061862091323247, 0.09261492806886241, -0.08001561228007315, 2.814824725169057, -0.024151020638454167, 1.3801096920579607]","[0.004475083059457522, 1.4849292848081328, 1.7645327540912847, 1.1281023618580133, -0.276418579510093, -0.002718290829142369]","[0.004475083202123642, 1.4849293231964111, 1.7645328044891357, 1.1281023025512695, -0.2764185667037964, -0.0027182907797396183]","[3.798073115003808, 3.798073115003808, 4.285440390025987, 2.6302640264026405, 2.6302640264026405, 2.6302640264026405]",0.0,0.0,0.0,0.0,0.0,0.0,0.0,0.0,0.0,0.0,0.0,0.0,0.0,0.0,0.0,0.605632525115127,0.09253084501416259,-0.0780957314129821,1.0,0.0,0.0,0.0,0.0,11.0,0.0,0.0,0.0,0.0,0.0,0.0,0.0,0.0,0.0
809,16420.784,1778821058.5507762,16420.784,"[0.5691066980361938, -1.8061054388629358, -1.483074967061178, -1.3439610640155237, 1.530408263206482, 2.145414352416992]","[0.6067402097743293, 0.09269921710324208, -0.08193536712338906, 2.814824650384724, -0.02415126552628619, 1.3801106160615075]","[0.0044368141592379265, 1.488753991136744, 1.7631424853564048, 1.1282467545447399, -0.276118863136247, -0.002720528436773981]","[0.004436814226210117, 1.4887540340423584, 1.763142466545105, 1.128246784210205, -0.2761188745498657, -0.0027205285150557756]","[3.798073115003808, 3.798073115003808, 4.285440390025987, 2.6302640264026405, 2.6302640264026405, 2.6302640264026405]",0.0,0.0,0.0,0.0,0.0,0.0,0.0,0.0,0.0,0.0,0.0,0.0,0.0,0.0,0.0,0.605632525115127,0.09253084501416259,-0.0780957314129821,1.0,0.0,0.0,0.0,0.0,11.0,0.0,0.0,0.0,0.0,0.0,0.0,0.0,0.0,0.0
