shh444/ur-rtde/backend/recordings/rtde_20260515_134046_hhh.csv
frame_index,robot_timestamp_s,received_wall_time_s,timestamp,actual_q,actual_TCP_pose,target_current,actual_current,actual_current_window,urTimestamp,timer,wcrIn,weldCurrent,weldVoltage,xOffset,zOffset,BotRight_Plus,TopLeft_Minus,StandardCurrent,allIntegral,xUp,xUi,zUp,zUi,x,y,z,weldingOnOff,touchOnOff,ratioT_19,tri_count,tri_2,output_double_register_23,peak_value,Arc_percent,ARC_T_Plus,output_double_register_27,output_double_register_28,output_double_register_29,BotRight_Plus_VA,TopLeft_Minus_VA,output_double_register_32
3681,15440.815999999999,1778820046.593379,15440.815999999999,"[0.4984094202518463, -1.642754379902975, -1.171077076588766, -1.8166630903827112, 1.5361006259918213, 2.074896812438965]","[0.5701318630207775, 0.044081475841782417, 0.024382805184543832, 2.814824828790266, -0.024150945654176727, 1.3801093110420177]","[-0.01047912452751536, 1.2410885635487023, 1.7229867760720277, 1.1459748825662357, -0.24201441501058424, -0.007921033647940933]","[-0.010479124262928963, 1.2410885095596313, 1.7229868173599243, 1.14597487449646, -0.24201440811157227, -0.007921033538877964]","[3.798073115003808, 3.798073115003808, 4.285440390025987, 2.6302640264026405, 2.6302640264026405, 2.6302640264026405]",0.0,0.0,0.0,0.0,0.0,0.0,0.0,0.0,0.0,0.0,0.0,0.0,0.0,0.0,0.0,0.5701319402122258,0.04047376247506582,0.022655582708035638,1.0,0.0,0.0,0.0,0.0,11.0,0.0,0.0,0.0,0.0,0.0,0.0,0.0,0.0,0.0
3682,15440.823999999999,1778820046.6009474,15440.823999999999,"[0.5036032795906067, -1.6452143828021448, -1.1640422979937952, -1.8214181105243128, 1.535676121711731, 2.0800764560699463]","[0.5701320784461142, 0.045885391344859514, 0.02524668657934659, 2.814824614104713, -0.02415107429190277, 1.3801100960354535]","[-0.01062065010928178, 1.2423243824881232, 1.7209776753437107, 1.1445222335538459, -0.24450416441410083, -0.00797598154272742]","[-0.01062064990401268, 1.2423243522644043, 1.7209776639938354, 1.1445221900939941, -0.2445041686296463, -0.007975981570780277]","[3.798073115003808, 3.798073115003808, 4.285440390025987, 2.6302640264026405, 2.6302640264026405, 2.6302640264026405]",0.0,0.0,0.0,0.0,0.0,0.0,0.0,0.0,0.0,0.0,0.0,0.0,0.0,0.0,0.0,0.5701318630207775,0.044081475841782417,0.024382805184543832,1.0,0.0,0.0,0.0,0.0,11.0,0.0,0.0,0.0,0.0,0.0,0.0,0.0,0.0,0.0
3683,15440.831999999999,1778820046.6683772,15440.831999999999,"[0.5087774991989136, -1.6477411429034632, -1.156919304524557, -1.8261964956866663, 1.5352542400360107, 2.0852367877960205]","[0.5701320986281095, 0.04768924269337555, 0.026110449861732055, 2.8148245347493943, -0.024151283918077502, 1.380110259868504]","[-0.010756770748118911, 1.2436048101015866, 1.718949908526777, 1.1430539639414952, -0.24697815689868538, -0.00802949920866847]","[-0.010756771080195904, 1.2436047792434692, 1.7189499139785767, 1.1430540084838867, -0.24697816371917725, -0.008029499091207981]","[3.798073115003808, 3.798073115003808, 4.285440390025987, 2.6302640264026405, 2.6302640264026405, 2.6302640264026405]",0.0,0.0,0.0,0.0,0.0,0.0,0.0,0.0,0.0,0.0,0.0,0.0,0.0,0.0,0.0,0.5701320784461142,0.045885391344859514,0.02524668657934659,1.0,0.0,0.0,0.0,0.0,11.0,0.0,0.0,0.0,0.0,0.0,0.0,0.0,0.0,0.0
3684,15440.84,1778820046.708077,15440.84,"[0.5139317512512207, -1.6503351370440882, -1.1497071425067347, -1.83099872270693, 1.5348349809646606, 2.09037709236145]","[0.5701319620171692, 0.049493075460344746, 0.026974014592002493, 2.8148246902882446, -0.02415097617054885, 1.3801098219716652]","[-0.010887402395277836, 1.2449288667199703, 1.7169038210567393, 1.141569987940679, -0.2494362916379445, -0.00808157773208121]","[-0.01088740210980177, 1.2449288368225098, 1.716903805732727, 1.141569972038269, -0.24943628907203674, -0.008081577718257904]","[3.798073115003808, 3.798073115003808, 4.285440390025987, 2.6302640264026405, 2.6302640264026405, 2.6302640264026405]",0.0,0.0,0.0,0.0,0.0,0.0,0.0,0.0,0.0,0.0,0.0,0.0,0.0,0.0,0.0,0.5701320986281095,0.04768924269337555,0.026110449861732055,1.0,0.0,0.0,0.0,0.0,11.0,0.0,0.0,0.0,0.0,0.0,0.0,0.0,0.0,0.0
3685,15440.848,1778820046.710078,15440.848,"[0.5190658569335938, -1.652996842061178, -1.1424039045916956, -1.835825268422262, 1.5344182252883911, 2.0954976081848145]","[0.5701320223991277, 0.05129694437340643, 0.02783778472461873, 2.8148246176184406, -0.02415101177905401, 1.380110054692219]","[-0.01101246067102019, 1.2462955111412806, 1.7148397847668395, 1.1400701964599125, -0.2518784726624845, -0.008132209068494713]","[-0.01101246103644371, 1.24629545211792, 1.7148398160934448, 1.1400701999664307, -0.2518784701824188, -0.008132209070026875]","[3.798073115003808, 3.798073115003808, 4.285440390025987, 2.6302640264026405, 2.6302640264026405, 2.6302640264026405]",0.0,0.0,0.0,0.0,0.0,0.0,0.0,0.0,0.0,0.0,0.0,0.0,0.0,0.0,0.0,0.5701319620171692,0.049493075460344746,0.026974014592002493,1.0,0.0,0.0,0.0,0.0,11.0,0.0,0.0,0.0,0.0,0.0,0.0,0.0,0.0,0.0
3686,15440.856,1778820046.710078,15440.856,"[0.5241796374320984, -1.655726734791891, -1.1350091139422815, -1.8406770865069788, 1.5340042114257812, 2.100598096847534]","[0.5701319151074843, 0.053100784522627925, 0.02870125393598183, 2.814824769040862, -0.024151067295555807, 1.380109488964562]","[-0.01113186052775405, 1.247703635704575, 1.7127582011385638, 1.1385544550312172, -0.2543046088142467, -0.008181386017805582]","[-0.011131860315799713, 1.2477036714553833, 1.712758183479309, 1.1385544538497925, -0.2543046176433563, -0.008181385695934296]","[3.798073115003808, 3.798073115003808, 4.285440390025987, 2.6302640264026405, 2.6302640264026405, 2.6302640264026405]",0.0,0.0,0.0,0.0,0.0,0.0,0.0,0.0,0.0,0.0,0.0,0.0,0.0,0.0,0.0,0.5701319620171692,0.049493075460344746,0.026974014592002493,1.0,0.0,0.0,0.0,0.0,11.0,0.0,0.0,0.0,0.0,0.0,0.0,0.0,0.0,0.0
3687,15440.864,1778820046.7126725,15440.864,"[0.5292728543281555, -1.6585248152362269, -1.1275203863727015, -1.8455551306353968, 1.533592700958252, 2.105678081512451]","[0.5701320403152687, 0.05490472576750311, 0.029565172302897902, 2.8148246856994246, -0.024151160547634585, 1.3801102232911462]","[-0.0112455158946921, 1.2491520609204072, 1.7106595048735194, 1.1370226015422882, -0.25671461369696574, -0.00822910220064409]","[-0.011245516128838062, 1.2491520643234253, 1.7106595039367676, 1.137022614479065, -0.2567146122455597, -0.00822910200804472]","[3.798073115003808, 3.798073115003808, 4.285440390025987, 2.6302640264026405, 2.6302640264026405, 2.6302640264026405]",0.0,0.0,0.0,0.0,0.0,0.0,0.0,0.0,0.0,0.0,0.0,0.0,0.0,0.0,0.0,0.5701319151074843,0.053100784522627925,0.02870125393598183,1.0,0.0,0.0,0.0,0.0,11.0,0.0,0.0,0.0,0.0,0.0,0.0,0.0,0.0,0.0
3689,15440.88,1778820046.7922335,15440.88,"[0.5393968820571899, -1.6643293539630335, -1.1122568289386194, -1.85539418855776, 1.5327775478363037, 2.115776538848877]","[0.570132007178306, 0.05851238153128336, 0.03129240529463634, 2.8148246414335594, -0.02415124910837067, 1.3801097684321149]","[-0.011455241348300437, 1.2521646996190037, 1.706412704082147, 1.133909756581375, -0.26148590753697176, -0.008320130675612953]","[-0.011455241590738297, 1.2521647214889526, 1.706412672996521, 1.1339097023010254, -0.26148590445518494, -0.008320130407810211]","[3.798073115003808, 3.798073115003808, 4.285440390025987, 2.6302640264026405, 2.6302640264026405, 2.6302640264026405]",0.0,0.0,0.0,0.0,0.0,0.0,0.0,0.0,0.0,0.0,0.0,0.0,0.0,0.0,0.0,0.5701321035542899,0.05670862448583765,0.0304287778639466,1.0,0.0,0.0,0.0,0.0,11.0,0.0,0.0,0.0,0.0,0.0,0.0,0.0,0.0,0.0
3691,15440.895999999999,1778820046.8518085,15440.895999999999,"[0.5494364500045776, -1.6704137961017054, -1.0966013113604944, -1.865349594746725, 1.531973123550415, 2.125791072845459]","[0.5701320730244213, 0.062120224659520794, 0.03301988368004649, 2.8148246907135355, -0.02415119901573314, 1.380110264640554]","[-0.01164091187574485, 1.2553223105447522, 1.7021036904435947, 1.1307297112077905, -0.2661917559659272, -0.00840525871409363]","[-0.011640911921858788, 1.2553223371505737, 1.7021037340164185, 1.1307296752929688, -0.2661917507648468, -0.008405258879065514]","[3.798073115003808, 3.798073115003808, 4.285440390025987, 2.6302640264026405, 2.6302640264026405, 2.6302640264026405]",0.0,0.0,0.0,0.0,0.0,0.0,0.0,0.0,0.0,0.0,0.0,0.0,0.0,0.0,0.0,0.570132007178306,0.05851238153128336,0.03129240529463634,1.0,0.0,0.0,0.0,0.0,11.0,0.0,0.0,0.0,0.0,0.0,0.0,0.0,0.0,0.0
3692,15440.903999999999,1778820046.8518085,15440.903999999999,"[0.5544192790985107, -1.6735599676715296, -1.0886295477496546, -1.8703692595111292, 1.5315752029418945, 2.1307618618011475]","[0.5701320821037044, 0.06392229205030289, 0.033882706515390604, 2.8148246019977625, -0.024151225839998, 1.3801100662123538]","[-0.0563328833866356, 1.2705482221188407, 1.669655814008008, 1.1183834582910273, -0.2821247923669408, -0.008150143912345599]","[-0.05633288249373436, 1.2705482244491577, 1.6696557998657227, 1.1183834075927734, -0.282124787569046, -0.008150143548846245]","[3.798073115003808, 3.798073115003808, 4.285440390025987, 2.6302640264026405, 2.6302640264026405, 2.6302640264026405]",0.0,0.0,0.0,0.0,0.0,0.0,0.0,0.0,0.0,0.0,0.0,0.0,0.0,0.0,0.0,0.5701320730244213,0.062120224659520794,0.03301988368004649,1.0,0.0,0.0,0.0,0.0,11.0,0.0,0.0,0.0,0.0,0.0,0.0,0.0,0.0,0.0
3693,15440.911999999998,1778820046.8533165,15440.911999999998,"[0.5592613816261292, -1.676699463521139, -1.0807507673846644, -1.8752992788897913, 1.5311895608901978, 2.135592222213745]","[0.5701319533128926, 0.06568101145217847, 0.03472461804085647, 2.8148247350353883, -0.02415093448200444, 1.3801095177782587]","[-0.3054014972735296, 1.352578193209172, 1.496026942202181, 1.05642163874512, -0.36000088749061404, -0.00620214307071095]","[-0.3054015040397644, 1.3525781631469727, 1.4960269927978516, 1.0564216375350952, -0.360000878572464, -0.0062021431513130665]","[3.798073115003808, 3.798073115003808, 4.285440390025987, 2.6302640264026405, 2.6302640264026405, 2.6302640264026405]",0.0,0.0,0.0,0.0,0.0,0.0,0.0,0.0,0.0,0.0,0.0,0.0,0.0,0.0,0.0,0.5701320821037044,0.06392229205030289,0.033882706515390604,1.0,0.0,0.0,0.0,0.0,11.0,0.0,0.0,0.0,0.0,0.0,0.0,0.0,0.0,0.0
3694,15440.92,1778820046.854912,15440.92,"[0.5638933181762695, -1.6797803084002894, -1.073087517415182, -1.8800652662860315, 1.530821442604065, 2.1402132511138916]","[0.5701320261239673, 0.06737052507333881, 0.0355336957149775, 2.814824622716619, -0.02415112268789288, 1.3801098588457466]","[-0.30432360802714076, 1.3612996364223964, 1.4902311974648155, 1.0553551835513943, -0.3618461079731153, -0.005649868050813297]","[-0.30432361364364624, 1.3612996339797974, 1.4902311563491821, 1.055355191230774, -0.36184611916542053, -0.005649867933243513]","[3.798073115003808, 3.798073115003808, 4.285440390025987, 2.6302640264026405, 2.6302640264026405, 2.6302640264026405]",0.0,0.0,0.0,0.0,0.0,0.0,0.0,0.0,0.0,0.0,0.0,0.0,0.0,0.0,0.0,0.5701319533128926,0.06568101145217847,0.03472461804085647,1.0,0.0,0.0,0.0,0.0,11.0,0.0,0.0,0.0,0.0,0.0,0.0,0.0,0.0,0.0
3697,15440.944,1778820046.8564425,15440.944,"[0.5765498280525208, -1.6885994116412562, -1.051492993031637, -1.8933513800250452, 1.5298200845718384, 2.1528403759002686]","[0.5701321041573417, 0.07202351833553987, 0.03776160297733677, 2.814824613370921, -0.024151153059011575, 1.3801102354288672]","[-0.3007962132627241, 1.385897438963376, 1.473887510609569, 1.0527429183482608, -0.36670125418218674, -0.004090541072718269]","[-0.3007962107658386, 1.3858973979949951, 1.47388756275177, 1.0527429580688477, -0.36670124530792236, -0.0040905410423874855]","[3.798073115003808, 3.798073115003808, 4.285440390025987, 2.6302640264026405, 2.6302640264026405, 2.6302640264026405]",0.0,0.0,0.0,0.0,0.0,0.0,0.0,0.0,0.0,0.0,0.0,0.0,0.0,0.0,0.0,0.5701320418867379,0.07054178841429484,0.03705192910835253,1.0,0.0,0.0,0.0,0.0,11.0,0.0,0.0,0.0,0.0,0.0,0.0,0.0,0.0,0.0
3698,15440.952,1778820046.8564425,15440.952,"[0.5803625583648682, -1.6913755575763147, -1.0447915236102503, -1.8974335829364222, 1.52951979637146, 2.156644582748413]","[0.5701320332750685, 0.0734359438767001, 0.03843757524272795, 2.814824744956455, -0.02415117863080044, 1.3801095135768988]","[-0.29969955308827456, 1.3935927140441573, 1.468703873498283, 1.0520170610170876, -0.36814895340940623, -0.0036056329643845398]","[-0.2996995449066162, 1.3935927152633667, 1.4687038660049438, 1.052017092704773, -0.36814895272254944, -0.0036056330427527428]","[3.798073115003808, 3.798073115003808, 4.285440390025987, 2.6302640264026405, 2.6302640264026405, 2.6302640264026405]",0.0,0.0,0.0,0.0,0.0,0.0,0.0,0.0,0.0,0.0,0.0,0.0,0.0,0.0,0.0,0.5701321041573417,0.07202351833553987,0.03776160297733677,1.0,0.0,0.0,0.0,0.0,11.0,0.0,0.0,0.0,0.0,0.0,0.0,0.0,0.0,0.0
3699,15440.96,1778820046.8569803,15440.96,"[0.5839754939079285, -1.6940582434283655, -1.0383532683001917, -1.9013384024249476, 1.529235601425171, 2.1602494716644287]","[0.570132004730062, 0.0747790105568463, 0.039080755808842405, 2.814824618568467, -0.024151208326345087, 1.3801095702004988]","[-0.2986467168060663, 1.4010187852985516, 1.4636683008074203, 1.0513581333914395, -0.3695140006792764, -0.0031396360147262765]","[-0.2986467182636261, 1.401018738746643, 1.4636683464050293, 1.0513581037521362, -0.36951398849487305, -0.0031396360136568546]","[3.798073115003808, 3.798073115003808, 4.285440390025987, 2.6302640264026405, 2.6302640264026405, 2.6302640264026405]",0.0,0.0,0.0,0.0,0.0,0.0,0.0,0.0,0.0,0.0,0.0,0.0,0.0,0.0,0.0,0.5701320332750685,0.0734359438767001,0.03843757524272795,1.0,0.0,0.0,0.0,0.0,11.0,0.0,0.0,0.0,0.0,0.0,0.0,0.0,0.0,0.0
3700,15440.967999999999,1778820046.8569803,15440.967999999999,"[0.5873906016349792, -1.6966422239886683, -1.032187287007467, -1.9050620237933558, 1.5289676189422607, 2.1636569499969482]","[0.5701321541817805, 0.07605305057544394, 0.039690824626640586, 2.8148246513410333, -0.024151316965976666, 1.3801101275086607]","[-0.297639673537284, 1.408164799736022, 1.4587911105868268, 1.0507625841729136, -0.37079786913247775, -0.002693307923870279]","[-0.2976396679878235, 1.4081648588180542, 1.4587911367416382, 1.0507625341415405, -0.37079787254333496, -0.0026933078188449144]","[3.798073115003808, 3.798073115003808, 4.285440390025987, 2.6302640264026405, 2.6302640264026405, 2.6302640264026405]",0.0,0.0,0.0,0.0,0.0,0.0,0.0,0.0,0.0,0.0,0.0,0.0,0.0,0.0,0.0,0.570132004730062,0.0747790105568463,0.039080755808842405,1.0,0.0,0.0,0.0,0.0,11.0,0.0,0.0,0.0,0.0,0.0,0.0,0.0,0.0,0.0
3701,15440.975999999999,1778820046.8580186,15440.975999999999,"[0.590609610080719, -1.6991213003741663, -1.0263026396380823, -1.908602539693014, 1.5287153720855713, 2.1668689250946045]","[0.5701321248557835, 0.07725761991547556, 0.04026749265355317, 2.814824625277573, -0.024151261796083814, 1.3801098229682762]","[-0.2966801145116144, 1.4150196333997918, 1.4540829949722367, 1.0502267211359406, -0.3720019609312431, -0.002267329778736042]","[-0.29668012261390686, 1.4150196313858032, 1.45408296585083, 1.0502266883850098, -0.372001975774765, -0.0022673297207802534]","[3.798073115003808, 3.798073115003808, 4.285440390025987, 2.6302640264026405, 2.6302640264026405, 2.6302640264026405]",0.0,0.0,0.0,0.0,0.0,0.0,0.0,0.0,0.0,0.0,0.0,0.0,0.0,0.0,0.0,0.570132004730062,0.0747790105568463,0.039080755808842405,1.0,0.0,0.0,0.0,0.0,11.0,0.0,0.0,0.0,0.0,0.0,0.0,0.0,0.0,0.0
3702,15440.983999999999,1778820046.8589928,15440.983999999999,"[0.5936342477798462, -1.701489273701803, -1.0207074324237269, -1.911957089100973, 1.5284788608551025, 2.169886827468872]","[0.5701320267204943, 0.07839297348162322, 0.040811153962324265, 2.8148247536814353, -0.024151071271498983, 1.3801098261295546]","[-0.2957694762513162, 1.4215719465774388, 1.4495549529052367, 1.0497467416566586, -0.3731276069217743, -0.001862312571224764]","[-0.29576948285102844, 1.421571969985962, 1.4495549201965332, 1.0497467517852783, -0.37312760949134827, -0.0018623125506564975]","[3.798073115003808, 3.798073115003808, 4.285440390025987, 2.6302640264026405, 2.6302640264026405, 2.6302640264026405]",0.0,0.0,0.0,0.0,0.0,0.0,0.0,0.0,0.0,0.0,0.0,0.0,0.0,0.0,0.0,0.5701321248557835,0.07725761991547556,0.04026749265355317,1.0,0.0,0.0,0.0,0.0,11.0,0.0,0.0,0.0,0.0,0.0,0.0,0.0,0.0,0.0
3703,15440.992,1778820046.8589928,15440.992,"[0.5964661836624146, -1.7037418524371546, -1.0154097715960901, -1.9151223341571253, 1.5282576084136963, 2.172712802886963]","[0.5701320334560571, 0.07945899429848012, 0.04132142437495845, 2.814824642555123, -0.02415112153869381, 1.3801094216983696]","[-0.29490896332012156, 1.4278102497796612, 1.445218213862206, 1.049318765674673, -0.37417606645738044, -0.001478803355387679]","[-0.29490897059440613, 1.4278101921081543, 1.4452182054519653, 1.049318790435791, -0.3741760551929474, -0.0014788033440709114]","[3.798073115003808, 3.798073115003808, 4.285440390025987, 2.6302640264026405, 2.6302640264026405, 2.6302640264026405]",0.0,0.0,0.0,0.0,0.0,0.0,0.0,0.0,0.0,0.0,0.0,0.0,0.0,0.0,0.0,0.5701320267204943,0.07839297348162322,0.040811153962324265,1.0,0.0,0.0,0.0,0.0,11.0,0.0,0.0,0.0,0.0,0.0,0.0,0.0,0.0,0.0
3704,15441.0,1778820046.8589928,15441.0,"[0.5991068482398987, -1.7058728376971644, -1.0104172865497034, -1.91809589067568, 1.528051733970642, 2.1753478050231934]","[0.5701321128715945, 0.08045588498606604, 0.04179877884904676, 2.8148246656667135, -0.024151224832768114, 1.3801097782457072]","[-0.2940995706205023, 1.4337229799723605, 1.4410841529758776, 1.0489388709715335, -0.37514852735040993, -0.001117291024016769]","[-0.2940995693206787, 1.433722972869873, 1.4410841464996338, 1.0489388704299927, -0.3751485347747803, -0.0011172910453751683]","[3.798073115003808, 3.798073115003808, 4.285440390025987, 2.6302640264026405, 2.6302640264026405, 2.6302640264026405]",0.0,0.0,0.0,0.0,0.0,0.0,0.0,0.0,0.0,0.0,0.0,0.0,0.0,0.0,0.0,0.5701320334560571,0.07945899429848012,0.04132142437495845,1.0,0.0,0.0,0.0,0.0,11.0,0.0,0.0,0.0,0.0,0.0,0.0,0.0,0.0,0.0
3705,15441.008,1778820046.8599977,15441.008,"[0.601557731628418, -1.7078774611102503, -1.005737606679098, -1.9208758513080042, 1.5278608798980713, 2.177793502807617]","[0.5701319859436789, 0.08138333607242258, 0.042242880327673926, 2.81482467927011, -0.024151178847193727, 1.3801095510695867]","[-0.2933421051748253, 1.4392985863209304, 1.4371641981366423, 1.0486031305475476, -0.37604610591997145, -0.0007782116966790793]","[-0.29334211349487305, 1.4392986297607422, 1.4371641874313354, 1.0486031770706177, -0.3760460913181305, -0.000778211688157171]","[3.798073115003808, 3.798073115003808, 4.285440390025987, 2.6302640264026405, 2.6302640264026405, 2.6302640264026405]",0.0,0.0,0.0,0.0,0.0,0.0,0.0,0.0,0.0,0.0,0.0,0.0,0.0,0.0,0.0,0.5701321128715945,0.08045588498606604,0.04179877884904676,1.0,0.0,0.0,0.0,0.0,11.0,0.0,0.0,0.0,0.0,0.0,0.0,0.0,0.0,0.0
3706,15441.016,1778820046.8599977,15441.016,"[0.6038202047348022, -1.7097519079791468, -1.0013774077044886, -1.9234584013568323, 1.5276849269866943, 2.18005108833313]","[0.5701321558613897, 0.0822417624050127, 0.04265387434608142, 2.8148246898234843, -0.02415112072016382, 1.3801099944266761]","[-0.29263720732509607, 1.444525624382019, 1.4334697299757875, 1.0483076517910495, -0.37686984710567256, -0.00046195371039998756]","[-0.2926371991634369, 1.4445255994796753, 1.4334697723388672, 1.0483076572418213, -0.3768698573112488, -0.0004619537212420255]","[3.798073115003808, 3.798073115003808, 4.285440390025987, 2.6302640264026405, 2.6302640264026405, 2.6302640264026405]",0.0,0.0,0.0,0.0,0.0,0.0,0.0,0.0,0.0,0.0,0.0,0.0,0.0,0.0,0.0,0.5701321128715945,0.08045588498606604,0.04179877884904676,1.0,0.0,0.0,0.0,0.0,11.0,0.0,0.0,0.0,0.0,0.0,0.0,0.0,0.0,0.0
3707,15441.024,1778820046.8609993,15441.024,"[0.605895459651947, -1.7114909330951136, -0.9973438421832483, -1.925842587147848, 1.5275237560272217, 2.182121992111206]","[0.5701320391830174, 0.0830307056066528, 0.043031580442956074, 2.8148247505600126, -0.024151026636474, 1.38010967041975]","[-0.2919853713326308, 1.4493928575392938, 1.4300119757829326, 1.0480486170341843, -0.37762072462258034, -0.0001688622123392523]","[-0.2919853627681732, 1.4493929147720337, 1.4300119876861572, 1.0480486154556274, -0.37762072682380676, -0.00016886221419554204]","[3.798073115003808, 3.798073115003808, 4.285440390025987, 2.6302640264026405, 2.6302640264026405, 2.6302640264026405]",0.0,0.0,0.0,0.0,0.0,0.0,0.0,0.0,0.0,0.0,0.0,0.0,0.0,0.0,0.0,0.5701321558613897,0.0822417624050127,0.04265387434608142,1.0,0.0,0.0,0.0,0.0,11.0,0.0,0.0,0.0,0.0,0.0,0.0,0.0,0.0,0.0
3708,15441.032,1778820046.8609993,15441.032,"[0.607784628868103, -1.7130911985980433, -0.9936426321612757, -1.9280250708209437, 1.5273771286010742, 2.184007406234741]","[0.5701321380919192, 0.08375043407103222, 0.04337621945436371, 2.8148246348732395, -0.024151316793360324, 1.3801098706988808]","[-0.2913869652213527, 1.4538893640720663, 1.4268018987646478, 1.0478223250053933, -0.37829964112219067, 0.00010075665925570697]","[-0.2913869619369507, 1.4538893699645996, 1.4268019199371338, 1.04782235622406, -0.37829965353012085, 0.00010075666068587452]","[3.798073115003808, 3.798073115003808, 4.285440390025987, 2.6302640264026405, 2.6302640264026405, 2.6302640264026405]",0.0,0.0,0.0,0.0,0.0,0.0,0.0,0.0,0.0,0.0,0.0,0.0,0.0,0.0,0.0,0.5701320391830174,0.0830307056066528,0.043031580442956074,1.0,0.0,0.0,0.0,0.0,11.0,0.0,0.0,0.0,0.0,0.0,0.0,0.0,0.0,0.0
3709,15441.039999999999,1778820046.861994,15441.039999999999,"[0.609488844871521, -1.714548412953512, -0.9902799765216272, -1.9300044218646448, 1.527245044708252, 2.1857080459594727]","[0.5701320997869366, 0.08440089058882368, 0.04368767877176971, 2.8148246715268987, -0.024151252184376144, 1.3801099019868297]","[-0.2908422498761539, 1.4580046481291598, 1.423850084220712, 1.0476252325973965, -0.3789074283476751, 0.0003466319944438875]","[-0.2908422350883484, 1.4580045938491821, 1.4238500595092773, 1.047625184059143, -0.3789074420928955, 0.0003466320049483329]","[3.798073115003808, 3.798073115003808, 4.285440390025987, 2.6302640264026405, 2.6302640264026405, 2.6302640264026405]",0.0,0.0,0.0,0.0,0.0,0.0,0.0,0.0,0.0,0.0,0.0,0.0,0.0,0.0,0.0,0.5701321380919192,0.08375043407103222,0.04337621945436371,1.0,0.0,0.0,0.0,0.0,11.0,0.0,0.0,0.0,0.0,0.0,0.0,0.0,0.0,0.0
3710,15441.047999999999,1778820046.861994,15441.047999999999,"[0.6110090613365173, -1.7158597151385706, -0.9872606436358851, -1.9317787329303187, 1.5271272659301758, 2.187225103378296]","[0.5701320423674463, 0.08498203624311947, 0.04396595200512782, 2.8148246482128507, -0.0241511228078392, 1.3801097364916033]","[-0.29035139721829634, 1.461728752557268, 1.4211666244759733, 1.047453996305269, -0.3794448472525159, 0.0005685247425884559]","[-0.29035139083862305, 1.461728811264038, 1.4211666584014893, 1.0474539995193481, -0.37944483757019043, 0.0005685247597284615]","[3.798073115003808, 3.798073115003808, 4.285440390025987, 2.6302640264026405, 2.6302640264026405, 2.6302640264026405]",0.0,0.0,0.0,0.0,0.0,0.0,0.0,0.0,0.0,0.0,0.0,0.0,0.0,0.0,0.0,0.5701320997869366,0.08440089058882368,0.04368767877176971,1.0,0.0,0.0,0.0,0.0,11.0,0.0,0.0,0.0,0.0,0.0,0.0,0.0,0.0,0.0
3711,15441.055999999999,1778820046.861994,15441.055999999999,"[0.6123460531234741, -1.7170222441302698, -0.9845898787127894, -1.9333456198321741, 1.5270237922668457, 2.1885592937469482]","[0.5701320188669823, 0.08549394181603168, 0.0442108896577626, 2.8148246881717265, -0.02415088308801128, 1.3801092947261606]","[-0.2899145073941076, 1.4650523714535943, 1.4187610045308563, 1.0473055126277744, -0.37991258807216977, 0.0007662247430066551]","[-0.2899145185947418, 1.4650523662567139, 1.4187610149383545, 1.0473054647445679, -0.3799125850200653, 0.000766224751714617]","[3.798073115003808, 3.798073115003808, 4.285440390025987, 2.6302640264026405, 2.6302640264026405, 2.6302640264026405]",0.0,0.0,0.0,0.0,0.0,0.0,0.0,0.0,0.0,0.0,0.0,0.0,0.0,0.0,0.0,0.5701320997869366,0.08440089058882368,0.04368767877176971,1.0,0.0,0.0,0.0,0.0,11.0,0.0,0.0,0.0,0.0,0.0,0.0,0.0,0.0,0.0
3712,15441.063999999998,1778820046.862995,15441.063999999998,"[0.6135006546974182, -1.718032185231344, -0.982271973286764, -1.9347036520587366, 1.5269345045089722, 2.189711570739746]","[0.5701320604848215, 0.08593662114678938, 0.044423015307418934, 2.8148246372839383, -0.024151084310466142, 1.380109846993493]","[-0.28953162484401984, 1.467966960089549, 1.416641990591138, 1.047176956692486, -0.38031127033194273, 0.0009395481583192456]","[-0.2895316183567047, 1.467966914176941, 1.4166419506072998, 1.0471769571304321, -0.3803112804889679, 0.0009395481320098042]","[3.798073115003808, 3.798073115003808, 4.285440390025987, 2.6302640264026405, 2.6302640264026405, 2.6302640264026405]",0.0,0.0,0.0,0.0,0.0,0.0,0.0,0.0,0.0,0.0,0.0,0.0,0.0,0.0,0.0,0.5701320188669823,0.08549394181603168,0.0442108896577626,1.0,0.0,0.0,0.0,0.0,11.0,0.0,0.0,0.0,0.0,0.0,0.0,0.0,0.0,0.0
3713,15441.072,1778820046.8639977,15441.072,"[0.6144734621047974, -1.7188885847674769, -0.9803102652179163, -1.9358518759356897, 1.5268594026565552, 2.1906824111938477]","[0.5701319806294866, 0.08630998504111889, 0.0446016604436808, 2.8148247495663488, -0.024151005123059455, 1.3801093817414023]","[-0.2892027531487441, 1.4704648399129694, 1.4148175236173113, 1.047065818347319, -0.3806414427850112, 0.0010883352975359036]","[-0.2892027497291565, 1.470464825630188, 1.4148175716400146, 1.0470658540725708, -0.3806414306163788, 0.0010883352952077985]","[3.798073115003808, 3.798073115003808, 4.285440390025987, 2.6302640264026405, 2.6302640264026405, 2.6302640264026405]",0.0,0.0,0.0,0.0,0.0,0.0,0.0,0.0,0.0,0.0,0.0,0.0,0.0,0.0,0.0,0.5701320604848215,0.08593662114678938,0.044423015307418934,1.0,0.0,0.0,0.0,0.0,11.0,0.0,0.0,0.0,0.0,0.0,0.0,0.0,0.0,0.0
3714,15441.08,1778820046.8723838,15441.08,"[0.6152651309967041, -1.719588581715719, -0.9787080923663538, -1.9367883841144007, 1.5267982482910156, 2.1914725303649902]","[0.5701320972536645, 0.08661419123570172, 0.04474742451928443, 2.814824693301985, -0.024151239957816446, 1.3801099142900752]","[-0.288927868496367, 1.4725392962169361, 1.4132946201326313, 1.0469699349754145, -0.38090358327034424, 0.0012124488296878042]","[-0.2889278829097748, 1.4725393056869507, 1.4132946729660034, 1.0469698905944824, -0.38090357184410095, 0.001212448813021183]","[3.798073115003808, 3.798073115003808, 4.285440390025987, 2.6302640264026405, 2.6302640264026405, 2.6302640264026405]",0.0,0.0,0.0,0.0,0.0,0.0,0.0,0.0,0.0,0.0,0.0,0.0,0.0,0.0,0.0,0.5701319806294866,0.08630998504111889,0.0446016604436808,1.0,0.0,0.0,0.0,0.0,11.0,0.0,0.0,0.0,0.0,0.0,0.0,0.0,0.0,0.0
3715,15441.088,1778820046.881416,15441.088,"[0.6158759593963623, -1.720130745564596, -0.9774683157550257, -1.9375126997577112, 1.5267510414123535, 2.192082166671753]","[0.5701321370115643, 0.08684902304430928, 0.044859929523135555, 2.8148246225142586, -0.024151330653420063, 1.3801100977681182]","[-0.28870693166298744, 1.4741846662201052, 1.4120792824194002, 1.0468875203220949, -0.3810980984933586, 0.0013117723716299606]","[-0.2887069284915924, 1.4741846323013306, 1.4120793342590332, 1.0468875169754028, -0.38109809160232544, 0.0013117723865434527]","[3.798073115003808, 3.798073115003808, 4.285440390025987, 2.6302640264026405, 2.6302640264026405, 2.6302640264026405]",0.0,0.0,0.0,0.0,0.0,0.0,0.0,0.0,0.0,0.0,0.0,0.0,0.0,0.0,0.0,0.5701320972536645,0.08661419123570172,0.04474742451928443,1.0,0.0,0.0,0.0,0.0,11.0,0.0,0.0,0.0,0.0,0.0,0.0,0.0,0.0,0.0
3716,15441.096,1778820046.8893971,15441.096,"[0.6163063645362854, -1.7205141226397913, -0.9765928427325647, -1.938023869191305, 1.5267177820205688, 2.192511558532715]","[0.5701321558840916, 0.08701460837252847, 0.044939119723641174, 2.814824645145654, -0.024151038655590307, 1.3801099306405662]","[-0.28853989839854277, 1.475396415477592, 1.411176420084543, 1.0468171886868012, -0.3812253237315016, 0.0013862094428731288]","[-0.2885398864746094, 1.4753963947296143, 1.4111764430999756, 1.0468171834945679, -0.3812253177165985, 0.0013862093910574913]","[3.798073115003808, 3.798073115003808, 4.285440390025987, 2.6302640264026405, 2.6302640264026405, 2.6302640264026405]",0.0,0.0,0.0,0.0,0.0,0.0,0.0,0.0,0.0,0.0,0.0,0.0,0.0,0.0,0.0,0.5701320972536645,0.08661419123570172,0.04474742451928443,1.0,0.0,0.0,0.0,0.0,11.0,0.0,0.0,0.0,0.0,0.0,0.0,0.0,0.0,0.0
3717,15441.104,1778820046.898142,15441.104,"[0.6165566444396973, -1.7207372824298304, -0.9760831038104456, -1.9383214155780237, 1.5266984701156616, 2.1927614212036133]","[0.5701321612035855, 0.08711090562913326, 0.044985248849227555, 2.8148246171025537, -0.024151183476285386, 1.3801099703873894]","[-0.28842672806916225, 1.4761712006947174, 1.4105897848235052, 1.046757973918491, -0.381285522468495, 0.001435682776925895]","[-0.2884267270565033, 1.4761712551116943, 1.4105898141860962, 1.0467579364776611, -0.38128551840782166, 0.0014356827596202493]","[3.798073115003808, 3.798073115003808, 4.285440390025987, 2.6302640264026405, 2.6302640264026405, 2.6302640264026405]",0.0,0.0,0.0,0.0,0.0,0.0,0.0,0.0,0.0,0.0,0.0,0.0,0.0,0.0,0.0,0.5701321558840916,0.08701460837252847,0.044939119723641174,1.0,0.0,0.0,0.0,0.0,11.0,0.0,0.0,0.0,0.0,0.0,0.0,0.0,0.0,0.0
3718,15441.112,1778820046.9063933,15441.112,"[0.6166278123855591, -1.7208007017718714, -0.9759405295001429, -1.9384039084063929, 1.5266929864883423, 2.1928324699401855]","[0.5701322423166998, 0.08713835340912388, 0.044997850432671405, 2.814824637001009, -0.024151138084922478, 1.38010967873858]","[-0.26010631201042955, 1.4480944327004122, 1.3960816213052791, 1.0544458630284308, -0.3700422726377471, -6.042686438722772e-05]","[-0.26010632514953613, 1.4480944871902466, 1.396081566810608, 1.0544458627700806, -0.37004226446151733, -6.042686436558142e-05]","[3.798073115003808, 3.798073115003808, 4.285440390025987, 2.6302640264026405, 2.6302640264026405, 2.6302640264026405]",0.0,0.0,0.0,0.0,0.0,0.0,0.0,0.0,0.0,0.0,0.0,0.0,0.0,0.0,0.0,0.5701321612035855,0.08711090562913326,0.044985248849227555,1.0,0.0,0.0,0.0,0.0,11.0,0.0,0.0,0.0,0.0,0.0,0.0,0.0,0.0,0.0
3719,15441.119999999999,1778820046.9151413,15441.119999999999,"[0.6166090369224548, -1.7207663694964808, -0.9762151877032679, -1.938162628804342, 1.526694416999817, 2.1928136348724365]","[0.570145217334514, 0.08714033329441957, 0.04495294587737392, 2.8148246373890027, -0.024151039512156754, 1.3801098797260243]","[-0.030729122220664158, 1.2176012401904468, 1.2808734595545168, 1.1171292740852496, -0.2788366245764168, -0.012376724110418454]","[-0.030729122459888458, 1.2176012992858887, 1.280873417854309, 1.1171293258666992, -0.2788366377353668, -0.012376723811030388]","[3.798073115003808, 3.798073115003808, 4.285440390025987, 2.6302640264026405, 2.6302640264026405, 2.6302640264026405]",0.0,0.0,0.0,0.0,0.0,0.0,0.0,0.0,0.0,0.0,0.0,0.0,0.0,0.0,0.0,0.5701322423166998,0.08713835340912388,0.044997850432671405,1.0,0.0,0.0,0.0,0.0,11.0,0.0,0.0,0.0,0.0,0.0,0.0,0.0,0.0,0.0
3720,15441.127999999999,1778820046.923374,15441.127999999999,"[0.6165595054626465, -1.7206767241107386, -0.9769390265094202, -1.937526051198141, 1.526698350906372, 2.1927642822265625]","[0.5701795096786272, 0.08714562003584668, 0.04483432431777823, 2.814824713685771, -0.024151289413561806, 1.3801100924270715]","[-0.03072740993309483, 1.2172941251099656, 1.2814501747301044, 1.1169385249565793, -0.2788101062801521, -0.012354139289813158]","[-0.030727410688996315, 1.2172940969467163, 1.2814501523971558, 1.1169384717941284, -0.2788101136684418, -0.012354139238595963]","[3.798073115003808, 3.798073115003808, 4.285440390025987, 2.6302640264026405, 2.6302640264026405, 2.6302640264026405]",0.0,0.0,0.0,0.0,0.0,0.0,0.0,0.0,0.0,0.0,0.0,0.0,0.0,0.0,0.0,0.570145217334514,0.08714033329441957,0.04495294587737392,1.0,0.0,0.0,0.0,0.0,11.0,0.0,0.0,0.0,0.0,0.0,0.0,0.0,0.0,0.0
3721,15441.135999999999,1778820046.9307828,15441.135999999999,"[0.6164792776107788, -1.7205317656146448, -0.9781115690814417, -1.9364951292621058, 1.5267045497894287, 2.1926841735839844]","[0.5702348548497701, 0.08715397018884104, 0.044641904194190285, 2.8148247529936294, -0.024151153217624583, 1.3801098335136783]","[-0.030689076840216857, 1.216659609198492, 1.2825076854607853, 1.1166773949832771, -0.27877072095405425, -0.012328621870998369]","[-0.030689077451825142, 1.216659665107727, 1.2825076580047607, 1.1166774034500122, -0.27877071499824524, -0.012328621931374073]","[3.798073115003808, 3.798073115003808, 4.285440390025987, 2.6302640264026405, 2.6302640264026405, 2.6302640264026405]",0.0,0.0,0.0,0.0,0.0,0.0,0.0,0.0,0.0,0.0,0.0,0.0,0.0,0.0,0.0,0.570145217334514,0.08714033329441957,0.04495294587737392,1.0,0.0,0.0,0.0,0.0,11.0,0.0,0.0,0.0,0.0,0.0,0.0,0.0,0.0,0.0
3722,15441.143999999998,1778820046.9403958,15441.143999999998,"[0.616368293762207, -1.7203338781939905, -0.9797304312335413, -1.9350698629962366, 1.5267130136489868, 2.192573308944702]","[0.5703115395031756, 0.08716553674195762, 0.04437548260046004, 2.8148247308896446, -0.024150714678611192, 1.3801090920473826]","[-0.030614322205599575, 1.2157022370395956, 1.2840411312850866, 1.1163478272391147, -0.27871856535327466, -0.012300226007134]","[-0.030614322051405907, 1.2157022953033447, 1.284041166305542, 1.1163477897644043, -0.2787185609340668, -0.012300225906074047]","[3.798073115003808, 3.798073115003808, 4.285440390025987, 2.6302640264026405, 2.6302640264026405, 2.6302640264026405]",0.0,0.0,0.0,0.0,0.0,0.0,0.0,0.0,0.0,0.0,0.0,0.0,0.0,0.0,0.0,0.5702348548497701,0.08715397018884104,0.044641904194190285,1.0,0.0,0.0,0.0,0.0,11.0,0.0,0.0,0.0,0.0,0.0,0.0,0.0,0.0,0.0
3723,15441.152,1778820046.9486501,15441.152,"[0.6162266731262207, -1.7200835386859339, -0.9817922751056116, -1.933251682912008, 1.5267239809036255, 2.192432165145874]","[0.5704096247151406, 0.08718045826007251, 0.04403580872224211, 2.8148246673670423, -0.02415119364680605, 1.3801096548708944]","[-0.030503478863791116, 1.2144284915778905, 1.286043383823528, 1.1159523851910862, -0.2786537368015538, -0.01226900700718749]","[-0.03050347976386547, 1.2144285440444946, 1.286043405532837, 1.1159523725509644, -0.27865374088287354, -0.012269007042050362]","[3.798073115003808, 3.798073115003808, 4.285440390025987, 2.6302640264026405, 2.6302640264026405, 2.6302640264026405]",0.0,0.0,0.0,0.0,0.0,0.0,0.0,0.0,0.0,0.0,0.0,0.0,0.0,0.0,0.0,0.5703115395031756,0.08716553674195762,0.04437548260046004,1.0,0.0,0.0,0.0,0.0,11.0,0.0,0.0,0.0,0.0,0.0,0.0,0.0,0.0,0.0
3724,15441.16,1778820046.9576461,15441.16,"[0.6160544157028198, -1.7197840849505823, -0.984293286000387, -1.931042496358053, 1.5267373323440552, 2.192260265350342]","[0.5705289240588373, 0.08719861052747371, 0.04362226140402686, 2.814824718427317, -0.024151257226717304, 1.3801097036238337]","[-0.030357007690986273, 1.2128466867097598, 1.2885051444412559, 1.1154942098223941, -0.27857633194250714, -0.012235020683751738]","[-0.030357006937265396, 1.2128466367721558, 1.28850519657135, 1.1154942512512207, -0.2785763442516327, -0.012235020287334919]","[3.798073115003808, 3.798073115003808, 4.285440390025987, 2.6302640264026405, 2.6302640264026405, 2.6302640264026405]",0.0,0.0,0.0,0.0,0.0,0.0,0.0,0.0,0.0,0.0,0.0,0.0,0.0,0.0,0.0,0.5704096247151406,0.08718045826007251,0.04403580872224211,1.0,0.0,0.0,0.0,0.0,11.0,0.0,0.0,0.0,0.0,0.0,0.0,0.0,0.0,0.0
3725,15441.168,1778820046.9661145,15441.168,"[0.615851640701294, -1.7194379011737269, -0.9872301260577601, -1.9284432570086878, 1.5267529487609863, 2.1920578479766846]","[0.5706694560963487, 0.08721993939591476, 0.043134714387564665, 2.814824724987081, -0.02415103194998473, 1.3801092800479808]","[-0.030175490138264878, 1.2109668314505053, 1.2914150705270593, 1.1149769677103514, -0.2784864456275827, -0.012198322776669048]","[-0.03017549030482769, 1.2109668254852295, 1.2914150953292847, 1.1149770021438599, -0.2784864604473114, -0.01219832245260477]","[3.798073115003808, 3.798073115003808, 4.285440390025987, 2.6302640264026405, 2.6302640264026405, 2.6302640264026405]",0.0,0.0,0.0,0.0,0.0,0.0,0.0,0.0,0.0,0.0,0.0,0.0,0.0,0.0,0.0,0.5705289240588373,0.08719861052747371,0.04362226140402686,1.0,0.0,0.0,0.0,0.0,11.0,0.0,0.0,0.0,0.0,0.0,0.0,0.0,0.0,0.0
3726,15441.176,1778820046.9742486,15441.176,"[0.6156184077262878, -1.7190473715411585, -0.9905961195575159, -1.9254568258868616, 1.5267709493637085, 2.1918251514434814]","[0.5708313837576381, 0.08724458491230988, 0.04257402493552764, 2.8148246304998725, -0.02415141851401101, 1.380110260727553]","[-0.02995961898975769, 1.2088004697450319, 1.294759926675847, 1.114404791506626, -0.2783841699464813, -0.012158968441595135]","[-0.02995961904525757, 1.2088004350662231, 1.2947598695755005, 1.1144047975540161, -0.27838417887687683, -0.012158968485891819]","[3.798073115003808, 3.798073115003808, 4.285440390025987, 2.6302640264026405, 2.6302640264026405, 2.6302640264026405]",0.0,0.0,0.0,0.0,0.0,0.0,0.0,0.0,0.0,0.0,0.0,0.0,0.0,0.0,0.0,0.5705289240588373,0.08719861052747371,0.04362226140402686,1.0,0.0,0.0,0.0,0.0,11.0,0.0,0.0,0.0,0.0,0.0,0.0,0.0,0.0,0.0
3727,15441.184,1778820046.9829621,15441.184,"[0.6153548359870911, -1.7186172644244593, -0.9943864981280726, -1.9220855871783655, 1.5267913341522217, 2.1915619373321533]","[0.5710142467605044, 0.0872723092857009, 0.04193902436367658, 2.8148247783566798, -0.024150931757469872, 1.38010944313894]","[-0.0297101876568725, 1.2063605003446072, 1.2985247567289413, 1.1137822144168008, -0.2782695934291275, -0.0121170118275612]","[-0.029710188508033752, 1.2063604593276978, 1.2985247373580933, 1.1137821674346924, -0.27826958894729614, -0.012117011472582817]","[3.798073115003808, 3.798073115003808, 4.285440390025987, 2.6302640264026405, 2.6302640264026405, 2.6302640264026405]",0.0,0.0,0.0,0.0,0.0,0.0,0.0,0.0,0.0,0.0,0.0,0.0,0.0,0.0,0.0,0.5708313837576381,0.08724458491230988,0.04257402493552764,1.0,0.0,0.0,0.0,0.0,11.0,0.0,0.0,0.0,0.0,0.0,0.0,0.0,0.0,0.0
3728,15441.192,1778820046.9905107,15441.192,"[0.6150609850883484, -1.7181513945208948, -0.9985936323748987, -1.9183309713946741, 1.5268139839172363, 2.1912686824798584]","[0.5712187955882606, 0.08730347548333643, 0.041230667986560166, 2.814824688082473, -0.024151099378921372, 1.380110087356523]","[-0.029428078295855684, 1.2036609816565227, 1.3026930721237246, 1.1131141003766511, -0.2781428004289262, -0.012072505747331562]","[-0.02942807786166668, 1.2036609649658203, 1.3026931285858154, 1.1131141185760498, -0.2781428098678589, -0.012072505429387093]","[3.798073115003808, 3.798073115003808, 4.285440390025987, 2.6302640264026405, 2.6302640264026405, 2.6302640264026405]",0.0,0.0,0.0,0.0,0.0,0.0,0.0,0.0,0.0,0.0,0.0,0.0,0.0,0.0,0.0,0.5710142467605044,0.0872723092857009,0.04193902436367658,1.0,0.0,0.0,0.0,0.0,11.0,0.0,0.0,0.0,0.0,0.0,0.0,0.0,0.0,0.0
3729,15441.199999999999,1778820046.9989634,15441.199999999999,"[0.6147369742393494, -1.7176535765277308, -1.0032113234149378, -1.914196793233053, 1.526839017868042, 2.1909453868865967]","[0.5714443892092944, 0.08733772743461364, 0.040448477716886144, 2.8148246669561563, -0.024151226789363878, 1.3801101997837033]","[-0.029114249053122473, 1.200716926718069, 1.3072470517331134, 1.112405571645926, -0.2780038706874529, -0.01202550144021232]","[-0.029114248231053352, 1.2007169723510742, 1.3072470426559448, 1.11240553855896, -0.27800387144088745, -0.01202550157904625]","[3.798073115003808, 3.798073115003808, 4.285440390025987, 2.6302640264026405, 2.6302640264026405, 2.6302640264026405]",0.0,0.0,0.0,0.0,0.0,0.0,0.0,0.0,0.0,0.0,0.0,0.0,0.0,0.0,0.0,0.5712187955882606,0.08730347548333643,0.041230667986560166,1.0,0.0,0.0,0.0,0.0,11.0,0.0,0.0,0.0,0.0,0.0,0.0,0.0,0.0,0.0
3730,15441.207999999999,1778820047.0074856,15441.207999999999,"[0.6143829822540283, -1.7171295324908655, -1.008230988179342, -1.9096859137164515, 1.5268663167953491, 2.190592050552368]","[0.5716912347471665, 0.08737520742993324, 0.03959241905571231, 2.8148246573522537, -0.02415100878848052, 1.3801098772947462]","[-0.028769720784506216, 1.1975440933163068, 1.3121677484599368, 1.1116619354977204, -0.277852879082764, -0.01197604843006736]","[-0.02876972034573555, 1.1975440979003906, 1.312167763710022, 1.1116619110107422, -0.2778528928756714, -0.011976048350334167]","[3.798073115003808, 3.798073115003808, 4.285440390025987, 2.6302640264026405, 2.6302640264026405, 2.6302640264026405]",0.0,0.0,0.0,0.0,0.0,0.0,0.0,0.0,0.0,0.0,0.0,0.0,0.0,0.0,0.0,0.5714443892092944,0.08733772743461364,0.040448477716886144,1.0,0.0,0.0,0.0,0.0,11.0,0.0,0.0,0.0,0.0,0.0,0.0,0.0,0.0,0.0
3731,15441.215999999999,1778820047.0161088,15441.215999999999,"[0.61399906873703, -1.716583553944723, -1.0136449972735804, -1.9048011938678187, 1.5268959999084473, 2.190208911895752]","[0.5719592827795078, 0.08741588225633118, 0.03866268090549507, 2.814824688758067, -0.024150957947725312, 1.3801096904253916]","[-0.0283955635630558, 1.1941587741863886, 1.3174352978994195, 1.1108886115836223, -0.27768989555239854, -0.011924194475823727]","[-0.02839556336402893, 1.1941587924957275, 1.3174352645874023, 1.1108886003494263, -0.2776899039745331, -0.011924194172024727]","[3.798073115003808, 3.798073115003808, 4.285440390025987, 2.6302640264026405, 2.6302640264026405, 2.6302640264026405]",0.0,0.0,0.0,0.0,0.0,0.0,0.0,0.0,0.0,0.0,0.0,0.0,0.0,0.0,0.0,0.5714443892092944,0.08733772743461364,0.040448477716886144,1.0,0.0,0.0,0.0,0.0,11.0,0.0,0.0,0.0,0.0,0.0,0.0,0.0,0.0,0.0
3732,15441.224,1778820047.0236435,15441.224,"[0.6135854721069336, -1.7160218397723597, -1.0194438139544886, -1.899545971547262, 1.5269279479980469, 2.189796209335327]","[0.5722486758714588, 0.08745982847393811, 0.037659263846023916, 2.8148246490990156, -0.024151033195807175, 1.3801097067908863]","[-0.027992883276907014, 1.1905775918637065, 1.323029124675667, 1.1100910614059651, -0.2775149851751229, -0.011869985605942157]","[-0.027992883697152138, 1.1905776262283325, 1.3230291604995728, 1.1100910902023315, -0.2775149941444397, -0.011869985610246658]","[3.798073115003808, 3.798073115003808, 4.285440390025987, 2.6302640264026405, 2.6302640264026405, 2.6302640264026405]",0.0,0.0,0.0,0.0,0.0,0.0,0.0,0.0,0.0,0.0,0.0,0.0,0.0,0.0,0.0,0.5719592827795078,0.08741588225633118,0.03866268090549507,1.0,0.0,0.0,0.0,0.0,11.0,0.0,0.0,0.0,0.0,0.0,0.0,0.0,0.0,0.0
3733,15441.232,1778820047.0326812,15441.232,"[0.6131423115730286, -1.7154501120196741, -1.0256179014789026, -1.8939240614520472, 1.5269622802734375, 2.1893539428710938]","[0.5725593247116855, 0.08750706212837772, 0.03658222998451738, 2.814824713502754, -0.024151121550207526, 1.380109897131865]","[-0.027562808615647767, 1.1868173022541113, 1.3289281425246056, 1.1092747211422054, -0.27732820839614875, -0.011813466228759352]","[-0.027562808245420456, 1.1868172883987427, 1.3289281129837036, 1.1092747449874878, -0.277328222990036, -0.011813466437160969]","[3.798073115003808, 3.798073115003808, 4.285440390025987, 2.6302640264026405, 2.6302640264026405, 2.6302640264026405]",0.0,0.0,0.0,0.0,0.0,0.0,0.0,0.0,0.0,0.0,0.0,0.0,0.0,0.0,0.0,0.5722486758714588,0.08745982847393811,0.037659263846023916,1.0,0.0,0.0,0.0,0.0,11.0,0.0,0.0,0.0,0.0,0.0,0.0,0.0,0.0,0.0
3734,15441.24,1778820047.0407133,15441.24,"[0.6126697659492493, -1.7148750464068812, -1.0321581999408167, -1.8879388014422815, 1.52699875831604, 2.188882350921631]","[0.5728911123594915, 0.08755736349740599, 0.03543109295180541, 2.814824706872717, -0.02415082484692216, 1.3801090656342032]","[-0.027106478677432114, 1.1828946104330647, 1.3351109446828604, 1.1084449388494984, -0.27712962137577374, -0.011754679315229902]","[-0.027106478810310364, 1.1828945875167847, 1.3351109027862549, 1.1084449291229248, -0.2771296203136444, -0.01175467949360609]","[3.798073115003808, 3.798073115003808, 4.285440390025987, 2.6302640264026405, 2.6302640264026405, 2.6302640264026405]",0.0,0.0,0.0,0.0,0.0,0.0,0.0,0.0,0.0,0.0,0.0,0.0,0.0,0.0,0.0,0.5725593247116855,0.08750706212837772,0.03658222998451738,1.0,0.0,0.0,0.0,0.0,11.0,0.0,0.0,0.0,0.0,0.0,0.0,0.0,0.0,0.0
3735,15441.248,1778820047.0492783,15441.248,"[0.61216801404953, -1.7143023649798792, -1.039053742085592, -1.8815935293780726, 1.5270376205444336, 2.1883816719055176]","[0.5732443941616892, 0.08761110899556353, 0.0342067066032572, 2.8148246989865124, -0.02415112174560315, 1.3801097153804713]","[-0.026625031441134702, 1.1788260016673502, 1.3415559816284393, 1.1076069168570488, -0.27691927643339037, -0.011693666628590444]","[-0.026625031605362892, 1.1788259744644165, 1.3415559530258179, 1.1076068878173828, -0.27691927552223206, -0.011693666689097881]","[3.798073115003808, 3.798073115003808, 4.285440390025987, 2.6302640264026405, 2.6302640264026405, 2.6302640264026405]",0.0,0.0,0.0,0.0,0.0,0.0,0.0,0.0,0.0,0.0,0.0,0.0,0.0,0.0,0.0,0.5728911123594915,0.08755736349740599,0.03543109295180541,1.0,0.0,0.0,0.0,0.0,11.0,0.0,0.0,0.0,0.0,0.0,0.0,0.0,0.0,0.0
3736,15441.256,1778820047.0573812,15441.256,"[0.6116372346878052, -1.7137396971331995, -1.0462945143329065, -1.874892536793844, 1.527078628540039, 2.187851905822754]","[0.5736187948072916, 0.08766793749056848, 0.0329082649122967, 2.814824683203988, -0.024150879917741574, 1.3801093827846702]","[-0.02611959324448555, 1.1746275897510112, 1.3482417240501416, 1.1067656599114142, -0.27669722257061524, -0.011630469008242258]","[-0.026119593530893326, 1.1746275424957275, 1.3482416868209839, 1.106765627861023, -0.27669721841812134, -0.011630469001829624]","[3.798073115003808, 3.798073115003808, 4.285440390025987, 2.6302640264026405, 2.6302640264026405, 2.6302640264026405]",0.0,0.0,0.0,0.0,0.0,0.0,0.0,0.0,0.0,0.0,0.0,0.0,0.0,0.0,0.0,0.5728911123594915,0.08755736349740599,0.03543109295180541,1.0,0.0,0.0,0.0,0.0,11.0,0.0,0.0,0.0,0.0,0.0,0.0,0.0,0.0,0.0
3737,15441.264,1778820047.0658333,15441.264,"[0.6110776662826538, -1.713193718587057, -1.0538690725909632, -1.8678391615497034, 1.5271220207214355, 2.187293529510498]","[0.5740146141589028, 0.08772816675904808, 0.03153635308509356, 2.814824719237442, -0.024151148704244695, 1.3801098875753335]","[-0.025591269427026594, 1.1703149844239153, 1.3551468092386647, 1.1059259294241885, -0.27646350604118936, -0.01156512667851022]","[-0.02559126913547516, 1.1703150272369385, 1.3551467657089233, 1.1059259176254272, -0.27646350860595703, -0.011565126478672028]","[3.798073115003808, 3.798073115003808, 4.285440390025987, 2.6302640264026405, 2.6302640264026405, 2.6302640264026405]",0.0,0.0,0.0,0.0,0.0,0.0,0.0,0.0,0.0,0.0,0.0,0.0,0.0,0.0,0.0,0.5736187948072916,0.08766793749056848,0.0329082649122967,1.0,0.0,0.0,0.0,0.0,11.0,0.0,0.0,0.0,0.0,0.0,0.0,0.0,0.0,0.0
3738,15441.271999999999,1778820047.0755491,15441.271999999999,"[0.6104894876480103, -1.7126715818988245, -1.0617669264422815, -1.8604376951800745, 1.527167558670044, 2.18670654296875]","[0.5744315651304601, 0.08779149000806094, 0.030090644620258622, 2.814824710580813, -0.024151182361283812, 1.3801100758538813]","[-0.02504113624865677, 1.1659031787094316, 1.362250169988032, 1.1050922039551263, -0.2762181709546232, -0.01149767958509982]","[-0.025041136890649796, 1.1659032106399536, 1.3622502088546753, 1.105092167854309, -0.2762181758880615, -0.0114976791664958]","[3.798073115003808, 3.798073115003808, 4.285440390025987, 2.6302640264026405, 2.6302640264026405, 2.6302640264026405]",0.0,0.0,0.0,0.0,0.0,0.0,0.0,0.0,0.0,0.0,0.0,0.0,0.0,0.0,0.0,0.5740146141589028,0.08772816675904808,0.03153635308509356,1.0,0.0,0.0,0.0,0.0,11.0,0.0,0.0,0.0,0.0,0.0,0.0,0.0,0.0,0.0
3739,15441.279999999999,1778820047.0821037,15441.279999999999,"[0.6098729372024536, -1.7121813933001917, -1.0699761549579065, -1.852691952382223, 1.5272152423858643, 2.186091423034668]","[0.5748697457330908, 0.08785794130075053, 0.028571117993652417, 2.8148245960626435, -0.02415134264688207, 1.3801099171338493]","[-0.02447023409354226, 1.1614064566895996, 1.3695311453843588, 1.1042686458759972, -0.27596125988010095, -0.011428167735069172]","[-0.024470234289765358, 1.161406397819519, 1.3695311546325684, 1.1042686700820923, -0.2759612500667572, -0.011428168043494225]","[3.798073115003808, 3.798073115003808, 4.285440390025987, 2.6302640264026405, 2.6302640264026405, 2.6302640264026405]",0.0,0.0,0.0,0.0,0.0,0.0,0.0,0.0,0.0,0.0,0.0,0.0,0.0,0.0,0.0,0.5744315651304601,0.08779149000806094,0.030090644620258622,1.0,0.0,0.0,0.0,0.0,11.0,0.0,0.0,0.0,0.0,0.0,0.0,0.0,0.0,0.0
3740,15441.287999999999,1778820047.0916784,15441.287999999999,"[0.6092283129692078, -1.711731259022848, -1.078484837208883, -1.8446057478534144, 1.527265191078186, 2.185447931289673]","[0.5753291792373176, 0.08792774905832762, 0.026977744793288072, 2.8148247009747047, -0.024150917952172175, 1.3801094616324707]","[-0.02387956204641888, 1.1568383215356206, 1.3769695735858487, 1.103459073993254, -0.2756928144454747, -0.011356631547398624]","[-0.023879561573266983, 1.156838297843933, 1.376969575881958, 1.103459119796753, -0.27569282054901123, -0.01135663129389286]","[3.798073115003808, 3.798073115003808, 4.285440390025987, 2.6302640264026405, 2.6302640264026405, 2.6302640264026405]",0.0,0.0,0.0,0.0,0.0,0.0,0.0,0.0,0.0,0.0,0.0,0.0,0.0,0.0,0.0,0.5748697457330908,0.08785794130075053,0.028571117993652417,1.0,0.0,0.0,0.0,0.0,11.0,0.0,0.0,0.0,0.0,0.0,0.0,0.0,0.0,0.0
3741,15441.295999999998,1778820047.0995135,15441.295999999998,"[0.608555793762207, -1.7113283316241663, -1.0872815291034144, -1.8361824194537562, 1.5273172855377197, 2.184776782989502]","[0.5758100384617739, 0.08800083769184942, 0.025310942777522882, 2.8148246385812103, -0.02415103134376715, 1.3801099946295854]","[-0.02327007379122682, 1.1522114433532553, 1.3845458669238602, 1.1026669417764563, -0.27541287590161145, -0.0112831121873595]","[-0.023270074278116226, 1.1522114276885986, 1.384545922279358, 1.102666974067688, -0.2754128873348236, -0.01128311175853014]","[3.798073115003808, 3.798073115003808, 4.285440390025987, 2.6302640264026405, 2.6302640264026405, 2.6302640264026405]",0.0,0.0,0.0,0.0,0.0,0.0,0.0,0.0,0.0,0.0,0.0,0.0,0.0,0.0,0.0,0.5748697457330908,0.08785794130075053,0.028571117993652417,1.0,0.0,0.0,0.0,0.0,11.0,0.0,0.0,0.0,0.0,0.0,0.0,0.0,0.0,0.0
3742,15441.304,1778820047.1092672,15441.304,"[0.6078556776046753, -1.7109811941729944, -1.0963543097125452, -1.8274262587176722, 1.5273716449737549, 2.1840782165527344]","[0.5763120401661168, 0.08807711685799638, 0.02357032147558069, 2.81482467141024, -0.024151282727447168, 1.3801101723562872]","[-0.022642674835065765, 1.1475376259192007, 1.3922410701837649, 1.1018953207259363, -0.2751214856482083, -0.011207651892683258]","[-0.022642673924565315, 1.1475375890731812, 1.39224112033844, 1.1018953323364258, -0.2751214802265167, -0.011207652278244495]","[3.798073115003808, 3.798073115003808, 4.285440390025987, 2.6302640264026405, 2.6302640264026405, 2.6302640264026405]",0.0,0.0,0.0,0.0,0.0,0.0,0.0,0.0,0.0,0.0,0.0,0.0,0.0,0.0,0.0,0.5758100384617739,0.08800083769184942,0.025310942777522882,1.0,0.0,0.0,0.0,0.0,11.0,0.0,0.0,0.0,0.0,0.0,0.0,0.0,0.0,0.0
3743,15441.312,1778820047.1170526,15441.312,"[0.6071281433105469, -1.7106989065753382, -1.1056903044330042, -1.818341080342428, 1.5274280309677124, 2.18335223197937]","[0.5768353735493219, 0.08815659387816625, 0.02175591202294802, 2.8148246116392346, -0.024151312085771762, 1.3801101510136553]","[-0.021998220992925185, 1.1428277912181677, 1.4000369030793034, 1.1011468883352964, -0.27481868570420204, -0.011130294278336695]","[-0.021998221054673195, 1.1428277492523193, 1.4000369310379028, 1.101146936416626, -0.27481868863105774, -0.01113029383122921]","[3.798073115003808, 3.798073115003808, 4.285440390025987, 2.6302640264026405, 2.6302640264026405, 2.6302640264026405]",0.0,0.0,0.0,0.0,0.0,0.0,0.0,0.0,0.0,0.0,0.0,0.0,0.0,0.0,0.0,0.5763120401661168,0.08807711685799638,0.02357032147558069,1.0,0.0,0.0,0.0,0.0,11.0,0.0,0.0,0.0,0.0,0.0,0.0,0.0,0.0,0.0
3744,15441.32,1778820047.12528,15441.32,"[0.6063739061355591, -1.710489575062887, -1.1152737776385706, -1.808934513722555, 1.5274865627288818, 2.1825995445251465]","[0.5773796507271666, 0.08823926866365955, 0.019868516307360584, 2.8148246418702594, -0.024151214470601232, 1.3801098971825208]","[-0.01942668057459201, 1.1497810289745507, 1.429757099833724, 1.1012886567270292, -0.2757818052354154, -0.010485043392325815]","[-0.019426681101322174, 1.1497809886932373, 1.4297571182250977, 1.1012886762619019, -0.2757818102836609, -0.010485043749213219]","[3.798073115003808, 3.798073115003808, 4.285440390025987, 2.6302640264026405, 2.6302640264026405, 2.6302640264026405]",0.0,0.0,0.0,0.0,0.0,0.0,0.0,0.0,0.0,0.0,0.0,0.0,0.0,0.0,0.0,0.5768353735493219,0.08815659387816625,0.02175591202294802,1.0,0.0,0.0,0.0,0.0,11.0,0.0,0.0,0.0,0.0,0.0,0.0,0.0,0.0,0.0
3745,15441.328,1778820047.1332965,15441.328,"[0.6056091785430908, -1.7103632132159632, -1.124892536793844, -1.7994092146502894, 1.5275459289550781, 2.1818363666534424]","[0.5779332850978707, 0.08832332786225777, 0.017948489732684647, 2.8148246688520007, -0.024151104819137858, 1.3801097440647319]","[0.006804697690446835, 1.3090618351807743, 1.733553148763509, 1.1125149961022809, -0.2928970512920105, -0.0026054978033878003]","[0.006804697681218386, 1.309061884880066, 1.733553171157837, 1.1125149726867676, -0.2928970456123352, -0.0026054978370666504]","[3.798073115003808, 3.798073115003808, 4.285440390025987, 2.6302640264026405, 2.6302640264026405, 2.6302640264026405]",0.0,0.0,0.0,0.0,0.0,0.0,0.0,0.0,0.0,0.0,0.0,0.0,0.0,0.0,0.0,0.5773796507271666,0.08823926866365955,0.019868516307360584,1.0,0.0,0.0,0.0,0.0,11.0,0.0,0.0,0.0,0.0,0.0,0.0,0.0,0.0,0.0
3746,15441.336,1778820047.1420193,15441.336,"[0.6048470139503479, -1.7103236357318323, -1.1343815962420862, -1.789926830922262, 1.5276051759719849, 2.1810758113861084]","[0.5784870009842942, 0.088407452531652, 0.016028499910517746, 2.8148247191793545, -0.024151171980469708, 1.3801097689953963]","[0.006733640781702909, 1.312496054055791, 1.7362035396363733, 1.11308262158055, -0.29255598295592866, -0.0026041013641024593]","[0.0067336405627429485, 1.3124960660934448, 1.7362035512924194, 1.1130826473236084, -0.2925559878349304, -0.0026041013188660145]","[3.798073115003808, 3.798073115003808, 4.285440390025987, 2.6302640264026405, 2.6302640264026405, 2.6302640264026405]",0.0,0.0,0.0,0.0,0.0,0.0,0.0,0.0,0.0,0.0,0.0,0.0,0.0,0.0,0.0,0.5773796507271666,0.08823926866365955,0.019868516307360584,1.0,0.0,0.0,0.0,0.0,11.0,0.0,0.0,0.0,0.0,0.0,0.0,0.0,0.0,0.0
3747,15441.344,1778820047.151345,15441.344,"[0.6040874123573303, -1.710369888936178, -1.1437438170062464, -1.7804859320269983, 1.5276641845703125, 2.1803178787231445]","[0.5790407199895591, 0.08849152684562665, 0.014108319976993078, 2.814824713478581, -0.024151170198844357, 1.380109370806306]","[0.006655707651431498, 1.3158463592410388, 1.7386655786250973, 1.1136274564456352, -0.2922091083456743, -0.0026059322656213075]","[0.006655707489699125, 1.31584632396698, 1.7386655807495117, 1.1136274337768555, -0.29220911860466003, -0.0026059322990477085]","[3.798073115003808, 3.798073115003808, 4.285440390025987, 2.6302640264026405, 2.6302640264026405, 2.6302640264026405]",0.0,0.0,0.0,0.0,0.0,0.0,0.0,0.0,0.0,0.0,0.0,0.0,0.0,0.0,0.0,0.5784870009842942,0.088407452531652,0.016028499910517746,1.0,0.0,0.0,0.0,0.0,11.0,0.0,0.0,0.0,0.0,0.0,0.0,0.0,0.0,0.0
3748,15441.351999999999,1778820047.1595008,15441.351999999999,"[0.6033303737640381, -1.7105000654803675, -1.1529811064349573, -1.771085564290182, 1.527722954750061, 2.1795623302459717]","[0.5795945601200471, 0.0885756861057761, 0.012188528423796474, 2.8148246309563976, -0.024151132947515704, 1.3801099042030966]","[0.0065808983589017165, 1.319178672027904, 1.7410561780452642, 1.1141547385133372, -0.2918633157118483, -0.0026078426700196305]","[0.00658089853823185, 1.3191787004470825, 1.741056203842163, 1.1141546964645386, -0.2918633222579956, -0.0026078426744788885]","[3.798073115003808, 3.798073115003808, 4.285440390025987, 2.6302640264026405, 2.6302640264026405, 2.6302640264026405]",0.0,0.0,0.0,0.0,0.0,0.0,0.0,0.0,0.0,0.0,0.0,0.0,0.0,0.0,0.0,0.5790407199895591,0.08849152684562665,0.014108319976993078,1.0,0.0,0.0,0.0,0.0,11.0,0.0,0.0,0.0,0.0,0.0,0.0,0.0,0.0,0.0
3749,15441.359999999999,1778820047.1681588,15441.359999999999,"[0.6025758981704712, -1.7107132116900843, -1.1620968023883265, -1.76172382036318, 1.52778160572052, 2.178809404373169]","[0.5801483901996998, 0.08865986303735587, 0.010268741273836035, 2.814824571681626, -0.02415127196705016, 1.3801106139583705]","[0.006509072071709506, 1.32249606502604, 1.7433748865273238, 1.1146654218792755, -0.2915186389174321, -0.002609805643790571]","[0.00650907214730978, 1.3224960565567017, 1.7433749437332153, 1.1146653890609741, -0.2915186285972595, -0.0026098056696355343]","[3.798073115003808, 3.798073115003808, 4.285440390025987, 2.6302640264026405, 2.6302640264026405, 2.6302640264026405]",0.0,0.0,0.0,0.0,0.0,0.0,0.0,0.0,0.0,0.0,0.0,0.0,0.0,0.0,0.0,0.5795945601200471,0.0885756861057761,0.012188528423796474,1.0,0.0,0.0,0.0,0.0,11.0,0.0,0.0,0.0,0.0,0.0,0.0,0.0,0.0,0.0
3750,15441.367999999999,1778820047.1764033,15441.367999999999,"[0.6018239855766296, -1.7110093275653284, -1.1710928122149866, -1.7524002234088343, 1.5278401374816895, 2.1780591011047363]","[0.5807019190756273, 0.08874386295037133, 0.008348368428466868, 2.814824687510893, -0.024151016567558695, 1.3801095274231712]","[0.006440033333758797, 1.3258009617215318, 1.7456205843940025, 1.115160357984948, -0.29117506514562697, -0.00261181631969505]","[0.006440033204853535, 1.3258010149002075, 1.745620608329773, 1.115160346031189, -0.29117506742477417, -0.002611816395074129]","[3.798073115003808, 3.798073115003808, 4.285440390025987, 2.6302640264026405, 2.6302640264026405, 2.6302640264026405]",0.0,0.0,0.0,0.0,0.0,0.0,0.0,0.0,0.0,0.0,0.0,0.0,0.0,0.0,0.0,0.5801483901996998,0.08865986303735587,0.010268741273836035,1.0,0.0,0.0,0.0,0.0,11.0,0.0,0.0,0.0,0.0,0.0,0.0,0.0,0.0,0.0
3751,15441.376,1778820047.1844537,15441.376,"[0.6010745763778687, -1.711386505757467, -1.1799705664264124, -1.7431133429156702, 1.5278984308242798, 2.1773111820220947]","[0.581255607315216, 0.08882795167564318, 0.006428345916864087, 2.8148247026478974, -0.024150809022502884, 1.3801093587036777]","[0.006373600051455759, 1.3290955951512808, 1.747792274909406, 1.1156403323436357, -0.2908325820488913, -0.0026138703828555714]","[0.006373600102961063, 1.3290956020355225, 1.7477922439575195, 1.1156402826309204, -0.2908325791358948, -0.0026138704270124435]","[3.798073115003808, 3.798073115003808, 4.285440390025987, 2.6302640264026405, 2.6302640264026405, 2.6302640264026405]",0.0,0.0,0.0,0.0,0.0,0.0,0.0,0.0,0.0,0.0,0.0,0.0,0.0,0.0,0.0,0.5801483901996998,0.08865986303735587,0.010268741273836035,1.0,0.0,0.0,0.0,0.0,11.0,0.0,0.0,0.0,0.0,0.0,0.0,0.0,0.0,0.0
3752,15441.384,1778820047.1920822,15441.384,"[0.6003276705741882, -1.7118437925921839, -1.1887324492083948, -1.7338617483722132, 1.5279566049575806, 2.1765658855438232]","[0.581809430058789, 0.08891213481110082, 0.004508589631611493, 2.814824666893317, -0.024151051558359955, 1.3801100101887054]","[0.006309602687027719, 1.3323820286088572, 1.7498890764830495, 1.1161060707516985, -0.29049117799882707, -0.002615963880546943]","[0.006309602875262499, 1.332382082939148, 1.7498891353607178, 1.1161060333251953, -0.29049116373062134, -0.0026159638073295355]","[3.798073115003808, 3.798073115003808, 4.285440390025987, 2.6302640264026405, 2.6302640264026405, 2.6302640264026405]",0.0,0.0,0.0,0.0,0.0,0.0,0.0,0.0,0.0,0.0,0.0,0.0,0.0,0.0,0.0,0.581255607315216,0.08882795167564318,0.006428345916864087,1.0,0.0,0.0,0.0,0.0,11.0,0.0,0.0,0.0,0.0,0.0,0.0,0.0,0.0,0.0
3753,15441.392,1778820047.2008173,15441.392,"[0.5995832681655884, -1.7123811880694788, -1.197380844746725, -1.7246444861041468, 1.5280146598815918, 2.175823211669922]","[0.5823630953502583, 0.08899621747994829, 0.0025883781827129027, 2.8148247343533823, -0.02415117471017203, 1.3801095082012997]","[0.006247883131514874, 1.3356621713253218, 1.751910210946443, 1.1165582446523248, -0.2901508420191417, -0.002618093185761411]","[0.0062478831969201565, 1.3356621265411377, 1.7519102096557617, 1.1165581941604614, -0.29015085101127625, -0.0026180932763963938]","[3.798073115003808, 3.798073115003808, 4.285440390025987, 2.6302640264026405, 2.6302640264026405, 2.6302640264026405]",0.0,0.0,0.0,0.0,0.0,0.0,0.0,0.0,0.0,0.0,0.0,0.0,0.0,0.0,0.0,0.581809430058789,0.08891213481110082,0.004508589631611493,1.0,0.0,0.0,0.0,0.0,11.0,0.0,0.0,0.0,0.0,0.0,0.0,0.0,0.0,0.0
3754,15441.4,1778820047.209499,15441.4,"[0.5988413095474243, -1.712996784840719, -1.205916706715719, -1.7154610792743128, 1.528072476387024, 2.1750826835632324]","[0.5829168636095519, 0.08908037547161939, 0.0006685826822060981, 2.8148247535929127, -0.02415108013006477, 1.3801099528352208]","[0.006188293680605125, 1.3389377924532995, 1.753854993167151, 1.1169974759416474, -0.289811563725727, -0.0026202549669419083]","[0.00618829345330596, 1.338937759399414, 1.7538549900054932, 1.116997480392456, -0.28981155157089233, -0.0026202548760920763]","[3.798073115003808, 3.798073115003808, 4.285440390025987, 2.6302640264026405, 2.6302640264026405, 2.6302640264026405]",0.0,0.0,0.0,0.0,0.0,0.0,0.0,0.0,0.0,0.0,0.0,0.0,0.0,0.0,0.0,0.5823630953502583,0.08899621747994829,0.0025883781827129027,1.0,0.0,0.0,0.0,0.0,11.0,0.0,0.0,0.0,0.0,0.0,0.0,0.0,0.0,0.0
3755,15441.408,1778820047.217484,15441.408,"[0.5981018543243408, -1.7136905829059046, -1.2143424193011683, -1.7063100973712366, 1.528130054473877, 2.174344778060913]","[0.5834705945316926, 0.08916445906862491, -0.0012514010287237864, 2.8148246969643904, -0.02415100116937897, 1.3801099553609866]","[0.006130696123304995, 1.3422105336028463, 1.7557228218302021, 1.117424341283867, -0.28947333327089314, -0.0026224461580308636]","[0.006130696274340153, 1.3422105312347412, 1.7557228803634644, 1.1174243688583374, -0.2894733250141144, -0.002622446045279503]","[3.798073115003808, 3.798073115003808, 4.285440390025987, 2.6302640264026405, 2.6302640264026405, 2.6302640264026405]",0.0,0.0,0.0,0.0,0.0,0.0,0.0,0.0,0.0,0.0,0.0,0.0,0.0,0.0,0.0,0.5829168636095519,0.08908037547161939,0.0006685826822060981,1.0,0.0,0.0,0.0,0.0,11.0,0.0,0.0,0.0,0.0,0.0,0.0,0.0,0.0,0.0
3756,15441.416,1778820047.2258837,15441.416,"[0.5973648428916931, -1.714461628590719, -1.2226594130145472, -1.6971905867206019, 1.5281875133514404, 2.173609495162964]","[0.5840243787037935, 0.08924856320734983, -0.003171359438804755, 2.814824617291182, -0.0241512659489133, 1.3801101061515115]","[0.006074960922661932, 1.3454819200228012, 1.757513171329396, 1.1178393759937353, -0.28913614129591264, -0.0026246639347319357]","[0.006074960809201002, 1.3454818725585938, 1.757513165473938, 1.1178393363952637, -0.28913614153862, -0.0026246639899909496]","[3.798073115003808, 3.798073115003808, 4.285440390025987, 2.6302640264026405, 2.6302640264026405, 2.6302640264026405]",0.0,0.0,0.0,0.0,0.0,0.0,0.0,0.0,0.0,0.0,0.0,0.0,0.0,0.0,0.0,0.5829168636095519,0.08908037547161939,0.0006685826822060981,1.0,0.0,0.0,0.0,0.0,11.0,0.0,0.0,0.0,0.0,0.0,0.0,0.0,0.0,0.0
3757,15441.423999999999,1778820047.2344942,15441.423999999999,"[0.5966302752494812, -1.7153094450580042, -1.2308695952044886, -1.6881020704852503, 1.5282448530197144, 2.1728763580322266]","[0.5845779401509238, 0.08933260257854944, -0.005091698588308657, 2.8148247766845773, -0.024150800598489917, 1.3801091713409661]","[0.006020966471786312, 1.3487533706446664, 1.759225584571736, 1.118243077535332, -0.2887999788888235, -0.0026269056927804026]","[0.006020966451615095, 1.3487533330917358, 1.759225606918335, 1.1182430982589722, -0.2887999713420868, -0.002626905683428049]","[3.798073115003808, 3.798073115003808, 4.285440390025987, 2.6302640264026405, 2.6302640264026405, 2.6302640264026405]",0.0,0.0,0.0,0.0,0.0,0.0,0.0,0.0,0.0,0.0,0.0,0.0,0.0,0.0,0.0,0.5840243787037935,0.08924856320734983,-0.003171359438804755,1.0,0.0,0.0,0.0,0.0,11.0,0.0,0.0,0.0,0.0,0.0,0.0,0.0,0.0,0.0
3758,15441.431999999999,1778820047.2429397,15441.431999999999,"[0.5958982110023499, -1.7162326017962855, -1.2389734427081507, -1.6790431181537073, 1.5283019542694092, 2.1721458435058594]","[0.5851319580940479, 0.08941691830723607, -0.007011319423873952, 2.814824649044721, -0.02415110639603785, 1.3801104262547919]","[0.005968598445476058, 1.3520262071382814, 1.7608596665577705, 1.118635908681324, -0.2884648375422005, -0.0026291690238859113]","[0.005968598648905754, 1.3520262241363525, 1.7608596086502075, 1.118635892868042, -0.28846484422683716, -0.0026291690301150084]","[3.798073115003808, 3.798073115003808, 4.285440390025987, 2.6302640264026405, 2.6302640264026405, 2.6302640264026405]",0.0,0.0,0.0,0.0,0.0,0.0,0.0,0.0,0.0,0.0,0.0,0.0,0.0,0.0,0.0,0.5845779401509238,0.08933260257854944,-0.005091698588308657,1.0,0.0,0.0,0.0,0.0,11.0,0.0,0.0,0.0,0.0,0.0,0.0,0.0,0.0,0.0
3759,15441.439999999999,1778820047.2504854,15441.439999999999,"[0.5951684713363647, -1.7172310988055628, -1.2469738165484827, -1.6700142065631312, 1.5283589363098145, 2.171417713165283]","[0.5856854082528056, 0.08950082001898545, -0.008931667727598291, 2.8148247429388302, -0.024150820889103888, 1.3801092108824278]","[0.005917749179323233, 1.355301661983154, 1.7624150787757353, 1.1190183003687428, -0.2881307091241902, -0.0026314517044007096]","[0.005917749367654324, 1.3553016185760498, 1.7624150514602661, 1.119018316268921, -0.2881307005882263, -0.002631451701745391]","[3.798073115003808, 3.798073115003808, 4.285440390025987, 2.6302640264026405, 2.6302640264026405, 2.6302640264026405]",0.0,0.0,0.0,0.0,0.0,0.0,0.0,0.0,0.0,0.0,0.0,0.0,0.0,0.0,0.0,0.5851319580940479,0.08941691830723607,-0.007011319423873952,1.0,0.0,0.0,0.0,0.0,11.0,0.0,0.0,0.0,0.0,0.0,0.0,0.0,0.0,0.0
3760,15441.447999999999,1778820047.2588284,15441.447999999999,"[0.5944411754608154, -1.7183039824115198, -1.2548707167254847, -1.6610129515277308, 1.5284157991409302, 2.170691967010498]","[0.5862393759781368, 0.08958512512309291, -0.010851414398829085, 2.8148247306920875, -0.024151096135635906, 1.3801101601960406]","[0.005868317144944845, 1.3585808858249853, 1.7638915341252848, 1.1193906542888508, -0.28779758584235154, -0.0026337516720435854]","[0.0058683170937001705, 1.3585808277130127, 1.763891577720642, 1.119390606880188, -0.28779760003089905, -0.002633751602843404]","[3.798073115003808, 3.798073115003808, 4.285440390025987, 2.6302640264026405, 2.6302640264026405, 2.6302640264026405]",0.0,0.0,0.0,0.0,0.0,0.0,0.0,0.0,0.0,0.0,0.0,0.0,0.0,0.0,0.0,0.5856854082528056,0.08950082001898545,-0.008931667727598291,1.0,0.0,0.0,0.0,0.0,11.0,0.0,0.0,0.0,0.0,0.0,0.0,0.0,0.0,0.0
3761,15441.456,1778820047.2672963,15441.456,"[0.5937163233757019, -1.7194507757769983, -1.2626665274249476, -1.6520403067218226, 1.5284724235534668, 2.169968843460083]","[0.5867929114699488, 0.08966908093773274, -0.012771633938576221, 2.8148247306343124, -0.024151095281182925, 1.3801093322203954]","[0.005820206452005315, 1.3618649540199328, 1.7652887925141236, 1.119753345234056, -0.28746546022015224, -0.002636067017883529]","[0.005820206366479397, 1.3618649244308472, 1.7652888298034668, 1.119753360748291, -0.2874654531478882, -0.0026360671035945415]","[3.798073115003808, 3.798073115003808, 4.285440390025987, 2.6302640264026405, 2.6302640264026405, 2.6302640264026405]",0.0,0.0,0.0,0.0,0.0,0.0,0.0,0.0,0.0,0.0,0.0,0.0,0.0,0.0,0.0,0.5856854082528056,0.08950082001898545,-0.008931667727598291,1.0,0.0,0.0,0.0,0.0,11.0,0.0,0.0,0.0,0.0,0.0,0.0,0.0,0.0,0.0
3762,15441.464,1778820047.2760863,15441.464,"[0.5929937958717346, -1.720670525227682, -1.2703617254840296, -1.6430943647967737, 1.5285289287567139, 2.16924786567688]","[0.587346760987632, 0.08975328312038493, -0.01469140127757751, 2.814824706783018, -0.024151285172991168, 1.3801100277600635]","[0.005773326412978994, 1.365154872630315, 1.766606656847986, 1.1201067232335107, -0.2871343250680595, -0.0026383959674607534]","[0.0057733263820409775, 1.3651548624038696, 1.7666066884994507, 1.1201066970825195, -0.2871343195438385, -0.0026383958756923676]","[3.798073115003808, 3.798073115003808, 4.285440390025987, 2.6302640264026405, 2.6302640264026405, 2.6302640264026405]",0.0,0.0,0.0,0.0,0.0,0.0,0.0,0.0,0.0,0.0,0.0,0.0,0.0,0.0,0.0,0.5867929114699488,0.08966908093773274,-0.012771633938576221,1.0,0.0,0.0,0.0,0.0,11.0,0.0,0.0,0.0,0.0,0.0,0.0,0.0,0.0,0.0
3763,15441.472,1778820047.284641,15441.472,"[0.5922736525535583, -1.7219632307635706, -1.2779577414142054, -1.6341751257525843, 1.5285851955413818, 2.1685292720794678]","[0.5879005616353434, 0.08983741504186855, -0.016611307581474832, 2.814824640828397, -0.024151310909175397, 1.380110292731198]","[0.005727591130691635, 1.3684515837637745, 1.7678449695637475, 1.1204511154958225, -0.28680417346467707, -0.002640736873748575]","[0.0057275909930467606, 1.3684515953063965, 1.7678449153900146, 1.1204510927200317, -0.2868041694164276, -0.002640736987814307]","[3.798073115003808, 3.798073115003808, 4.285440390025987, 2.6302640264026405, 2.6302640264026405, 2.6302640264026405]",0.0,0.0,0.0,0.0,0.0,0.0,0.0,0.0,0.0,0.0,0.0,0.0,0.0,0.0,0.0,0.587346760987632,0.08975328312038493,-0.01469140127757751,1.0,0.0,0.0,0.0,0.0,11.0,0.0,0.0,0.0,0.0,0.0,0.0,0.0,0.0,0.0
3764,15441.48,1778820047.2928658,15441.48,"[0.5915558934211731, -1.723327938710348, -1.2854560057269495, -1.625282112752096, 1.5286413431167603, 2.1678130626678467]","[0.5884541979000412, 0.08992147037653905, -0.01853133355656722, 2.8148246625293663, -0.02415122818298559, 1.3801100718634043]","[0.005682919143436936, 1.3717559704601625, 1.7690036094825696, 1.1207868281807736, -0.2864749987337479, -0.002643088203247369]","[0.0056829191744327545, 1.3717559576034546, 1.7690036296844482, 1.1207867860794067, -0.2864750027656555, -0.002643088111653924]","[3.798073115003808, 3.798073115003808, 4.285440390025987, 2.6302640264026405, 2.6302640264026405, 2.6302640264026405]",0.0,0.0,0.0,0.0,0.0,0.0,0.0,0.0,0.0,0.0,0.0,0.0,0.0,0.0,0.0,0.5879005616353434,0.08983741504186855,-0.016611307581474832,1.0,0.0,0.0,0.0,0.0,11.0,0.0,0.0,0.0,0.0,0.0,0.0,0.0,0.0,0.0
3765,15441.488,1778820047.3004086,15441.488,"[0.5908404588699341, -1.724764649068014, -1.2928569952594202, -1.6164143721209925, 1.5286973714828491, 2.1670992374420166]","[0.5890079514464951, 0.09000560470441925, -0.02045134573095536, 2.8148246926352805, -0.024151308325234884, 1.3801100124191588]","[0.005639233092650533, 1.3750688610844728, 1.770082489057882, 1.1211141480170945, -0.2861467944268113, -0.0026454485275817685]","[0.005639233160763979, 1.3750689029693604, 1.7700824737548828, 1.1211141347885132, -0.28614678978919983, -0.002645448548719287]","[3.798073115003808, 3.798073115003808, 4.285440390025987, 2.6302640264026405, 2.6302640264026405, 2.6302640264026405]",0.0,0.0,0.0,0.0,0.0,0.0,0.0,0.0,0.0,0.0,0.0,0.0,0.0,0.0,0.0,0.5884541979000412,0.08992147037653905,-0.01853133355656722,1.0,0.0,0.0,0.0,0.0,11.0,0.0,0.0,0.0,0.0,0.0,0.0,0.0,0.0,0.0
3766,15441.496,1778820047.3095074,15441.496,"[0.5901274085044861, -1.7262724081622522, -1.3001626173602503, -1.6075714270221155, 1.5287531614303589, 2.1663875579833984]","[0.5895615929550895, 0.09008969009799545, -0.02237154170121103, 2.8148247609434067, -0.024150877067807525, 1.380109561431442]","[0.005596459412531091, 1.3783910333176232, 1.7710815519242615, 1.121433343782049, -0.28581955430750366, -0.002647816515284061]","[0.005596459377557039, 1.3783910274505615, 1.771081566810608, 1.1214333772659302, -0.28581956028938293, -0.0026478164363652468]","[3.798073115003808, 3.798073115003808, 4.285440390025987, 2.6302640264026405, 2.6302640264026405, 2.6302640264026405]",0.0,0.0,0.0,0.0,0.0,0.0,0.0,0.0,0.0,0.0,0.0,0.0,0.0,0.0,0.0,0.5884541979000412,0.08992147037653905,-0.01853133355656722,1.0,0.0,0.0,0.0,0.0,11.0,0.0,0.0,0.0,0.0,0.0,0.0,0.0,0.0,0.0
3767,15441.503999999999,1778820047.3177817,15441.503999999999,"[0.5894166231155396, -1.7278502623187464, -1.3073728720294397, -1.5987532774554651, 1.528808832168579, 2.1656785011291504]","[0.5901153262891138, 0.09017375936394939, -0.024291339893346642, 2.814824679478386, -0.02415122734110374, 1.3801098771384506]","[0.005554528072663249, 1.3817232177835843, 1.7720007707112373, 1.1217446676557297, -0.2854932723346444, -0.0026501909230974238]","[0.005554527975618839, 1.381723165512085, 1.772000789642334, 1.1217446327209473, -0.28549328446388245, -0.002650190843269229]","[3.798073115003808, 3.798073115003808, 4.285440390025987, 2.6302640264026405, 2.6302640264026405, 2.6302640264026405]",0.0,0.0,0.0,0.0,0.0,0.0,0.0,0.0,0.0,0.0,0.0,0.0,0.0,0.0,0.0,0.5895615929550895,0.09008969009799545,-0.02237154170121103,1.0,0.0,0.0,0.0,0.0,11.0,0.0,0.0,0.0,0.0,0.0,0.0,0.0,0.0,0.0
3768,15441.511999999999,1778820047.3255005,15441.511999999999,"[0.588708221912384, -1.7294986883746546, -1.3144891897784632, -1.5899584929095667, 1.5288642644882202, 2.1649715900421143]","[0.5906692187555163, 0.09025797066244814, -0.026211204265073507, 2.8148245796963884, -0.024151252838109087, 1.3801104601643062]","[0.00551337231542783, 1.385066101316198, 1.7728401451436362, 1.1220483564647423, -0.285167942650203, -0.0026525705887359805]","[0.005513372365385294, 1.3850661516189575, 1.772840142250061, 1.1220483779907227, -0.285167932510376, -0.002652570605278015]","[3.798073115003808, 3.798073115003808, 4.285440390025987, 2.6302640264026405, 2.6302640264026405, 2.6302640264026405]",0.0,0.0,0.0,0.0,0.0,0.0,0.0,0.0,0.0,0.0,0.0,0.0,0.0,0.0,0.0,0.5901153262891138,0.09017375936394939,-0.024291339893346642,1.0,0.0,0.0,0.0,0.0,11.0,0.0,0.0,0.0,0.0,0.0,0.0,0.0,0.0,0.0
3769,15441.519999999999,1778820047.3340724,15441.519999999999,"[0.58800208568573, -1.7312167326556605, -1.321512524281637, -1.5811875502215784, 1.5289196968078613, 2.164267063140869]","[0.5912229382792614, 0.09034211276308345, -0.02813119800123992, 2.81482465027822, -0.02415139333604086, 1.380110476850593]","[0.005472928434127744, 1.3884203299638451, 1.7735997003146262, 1.1223446328230922, -0.28484355956586443, -0.0026549544242707866]","[0.005472928285598755, 1.3884203433990479, 1.7735997438430786, 1.1223446130752563, -0.2848435640335083, -0.0026549543254077435]","[3.798073115003808, 3.798073115003808, 4.285440390025987, 2.6302640264026405, 2.6302640264026405, 2.6302640264026405]",0.0,0.0,0.0,0.0,0.0,0.0,0.0,0.0,0.0,0.0,0.0,0.0,0.0,0.0,0.0,0.5906692187555163,0.09025797066244814,-0.026211204265073507,1.0,0.0,0.0,0.0,0.0,11.0,0.0,0.0,0.0,0.0,0.0,0.0,0.0,0.0,0.0
3770,15441.527999999998,1778820047.342105,15441.527999999998,"[0.5872982144355774, -1.733004395161764, -1.3284433523761194, -1.572439972554342, 1.5289748907089233, 2.163564682006836]","[0.5917766348996734, 0.09042620725865683, -0.03005132082162487, 2.814824712813242, -0.024151190315446158, 1.3801100752695497]","[0.00543313557090941, 1.3917865116799095, 1.7742794852087596, 1.122633706181882, -0.28452011755246154, -0.002657341411612164]","[0.005433135665953159, 1.3917864561080933, 1.7742794752120972, 1.122633695602417, -0.28452011942863464, -0.002657341305166483]","[3.798073115003808, 3.798073115003808, 4.285440390025987, 2.6302640264026405, 2.6302640264026405, 2.6302640264026405]",0.0,0.0,0.0,0.0,0.0,0.0,0.0,0.0,0.0,0.0,0.0,0.0,0.0,0.0,0.0,0.5912229382792614,0.09034211276308345,-0.02813119800123992,1.0,0.0,0.0,0.0,0.0,11.0,0.0,0.0,0.0,0.0,0.0,0.0,0.0,0.0,0.0
3771,15441.536,1778820047.350514,15441.536,"[0.586596667766571, -1.7348602453814905, -1.335283104573385, -1.5637152830706995, 1.5290298461914062, 2.1628646850585938]","[0.5923302707272642, 0.09051022394911308, -0.03197131586537838, 2.814824656411766, -0.02415109457969987, 1.3801098850277647]","[0.005393935517916673, 1.3951652187917987, 1.7748795713744387, 1.1229157737970228, -0.2841976112294177, -0.0026597305947531555]","[0.005393935367465019, 1.395165205001831, 1.7748795747756958, 1.1229157447814941, -0.284197598695755, -0.002659730613231659]","[3.798073115003808, 3.798073115003808, 4.285440390025987, 2.6302640264026405, 2.6302640264026405, 2.6302640264026405]",0.0,0.0,0.0,0.0,0.0,0.0,0.0,0.0,0.0,0.0,0.0,0.0,0.0,0.0,0.0,0.5912229382792614,0.09034211276308345,-0.02813119800123992,1.0,0.0,0.0,0.0,0.0,11.0,0.0,0.0,0.0,0.0,0.0,0.0,0.0,0.0,0.0
3772,15441.544,1778820047.3595576,15441.544,"[0.5858973860740662, -1.7367847601519983, -1.342032257710592, -1.5550125280963343, 1.5290846824645996, 2.1621670722961426]","[0.5928840093060946, 0.09059430335666663, -0.03389136360347339, 2.8148245855239242, -0.024151245146826147, 1.3801098405019445]","[0.0053552725606559205, 1.39855699024702, 1.7754000517542379, 1.123191021620569, -0.2838760353544965, -0.002662121076117176]","[0.005355272442102432, 1.3985569477081299, 1.7754000425338745, 1.123190999031067, -0.2838760316371918, -0.002662121085450053]","[3.798073115003808, 3.798073115003808, 4.285440390025987, 2.6302640264026405, 2.6302640264026405, 2.6302640264026405]",0.0,0.0,0.0,0.0,0.0,0.0,0.0,0.0,0.0,0.0,0.0,0.0,0.0,0.0,0.0,0.5923302707272642,0.09051022394911308,-0.03197131586537838,1.0,0.0,0.0,0.0,0.0,11.0,0.0,0.0,0.0,0.0,0.0,0.0,0.0,0.0,0.0
3773,15441.552,1778820047.3674965,15441.552,"[0.5852003693580627, -1.738776985798971, -1.3486912886248987, -1.5463321844684046, 1.5291393995285034, 2.161471366882324]","[0.5934377356009333, 0.09067847089904153, -0.03581127055019934, 2.8148246557977328, -0.024150945691123225, 1.3801100250647815]","[0.005317093305635917, 1.4019623336331053, 1.7758410396941646, 1.123459625124793, -0.2835553848173975, -0.0026645120129000334]","[0.005317093338817358, 1.4019622802734375, 1.7758409976959229, 1.1234595775604248, -0.28355538845062256, -0.002664512023329735]","[3.798073115003808, 3.798073115003808, 4.285440390025987, 2.6302640264026405, 2.6302640264026405, 2.6302640264026405]",0.0,0.0,0.0,0.0,0.0,0.0,0.0,0.0,0.0,0.0,0.0,0.0,0.0,0.0,0.0,0.5928840093060946,0.09059430335666663,-0.03389136360347339,1.0,0.0,0.0,0.0,0.0,11.0,0.0,0.0,0.0,0.0,0.0,0.0,0.0,0.0,0.0
3774,15441.56,1778820047.3759716,15441.56,"[0.584505558013916, -1.7408369223224085, -1.3552611509906214, -1.537673298512594, 1.5291939973831177, 2.160778284072876]","[0.5939915377038225, 0.09076260446044153, -0.03773119344652043, 2.8148246095380047, -0.02415132408862161, 1.380110300952514]","[0.005279346548881434, 1.4053817270393159, 1.7762026680431793, 1.1237217500643648, -0.28323565462996764, -0.002666902611102733]","[0.005279346369206905, 1.405381679534912, 1.77620267868042, 1.123721718788147, -0.28323566913604736, -0.002666902495548129]","[3.798073115003808, 3.798073115003808, 4.285440390025987, 2.6302640264026405, 2.6302640264026405, 2.6302640264026405]",0.0,0.0,0.0,0.0,0.0,0.0,0.0,0.0,0.0,0.0,0.0,0.0,0.0,0.0,0.0,0.5934377356009333,0.09067847089904153,-0.03581127055019934,1.0,0.0,0.0,0.0,0.0,11.0,0.0,0.0,0.0,0.0,0.0,0.0,0.0,0.0,0.0
3775,15441.568,1778820047.384656,15441.568,"[0.5838130116462708, -1.7429640928851526, -1.3617423216449183, -1.5290363470660608, 1.5292483568191528, 2.1600873470306396]","[0.5945452477297638, 0.0908466679034302, -0.039651190972865125, 2.814824557630995, -0.024151359466897157, 1.38011015463144]","[0.005241983143767624, 1.4088156207533553, 1.776485088370859, 1.1239775531809868, -0.28291683991920447, -0.0026692921226250444]","[0.005241983104497194, 1.408815622329712, 1.7764850854873657, 1.123977541923523, -0.2829168438911438, -0.0026692920364439487]","[3.798073115003808, 3.798073115003808, 4.285440390025987, 2.6302640264026405, 2.6302640264026405, 2.6302640264026405]",0.0,0.0,0.0,0.0,0.0,0.0,0.0,0.0,0.0,0.0,0.0,0.0,0.0,0.0,0.0,0.5939915377038225,0.09076260446044153,-0.03773119344652043,1.0,0.0,0.0,0.0,0.0,11.0,0.0,0.0,0.0,0.0,0.0,0.0,0.0,0.0,0.0
3776,15441.576,1778820047.3937273,15441.576,"[0.5831226706504822, -1.7451580206500452, -1.3681357542621058, -1.5204203764544886, 1.5293025970458984, 2.1593985557556152]","[0.5950989990274665, 0.09093078091402301, -0.041571184307373055, 2.8148245455292327, -0.024151376584594954, 1.380110182114464]","[0.005204955879170135, 1.4122644387700314, 1.7766884703344052, 1.1242271828587078, -0.2825989359218583, -0.0026716798421633704]","[0.005204956047236919, 1.4122644662857056, 1.7766884565353394, 1.1242271661758423, -0.28259894251823425, -0.002671679947525263]","[3.798073115003808, 3.798073115003808, 4.285440390025987, 2.6302640264026405, 2.6302640264026405, 2.6302640264026405]",0.0,0.0,0.0,0.0,0.0,0.0,0.0,0.0,0.0,0.0,0.0,0.0,0.0,0.0,0.0,0.5939915377038225,0.09076260446044153,-0.03773119344652043,1.0,0.0,0.0,0.0,0.0,11.0,0.0,0.0,0.0,0.0,0.0,0.0,0.0,0.0,0.0
3777,15441.583999999999,1778820047.4017434,15441.583999999999,"[0.5824345946311951, -1.747418228779928, -1.374441925679342, -1.5118253866778772, 1.5293567180633545, 2.1587119102478027]","[0.595652764176742, 0.09101496886065927, -0.04349111936771688, 2.814824597366565, -0.02415129163688912, 1.3801103948405677]","[0.005168219375156698, 1.4157285801938422, 1.7768130010985859, 1.1244707797305984, -0.2822819379780225, -0.00267406510442038]","[0.0051682195626199245, 1.4157285690307617, 1.77681303024292, 1.124470829963684, -0.28228193521499634, -0.002674065064638853]","[3.798073115003808, 3.798073115003808, 4.285440390025987, 2.6302640264026405, 2.6302640264026405, 2.6302640264026405]",0.0,0.0,0.0,0.0,0.0,0.0,0.0,0.0,0.0,0.0,0.0,0.0,0.0,0.0,0.0,0.5950989990274665,0.09093078091402301,-0.041571184307373055,1.0,0.0,0.0,0.0,0.0,11.0,0.0,0.0,0.0,0.0,0.0,0.0,0.0,0.0,0.0
3778,15441.591999999999,1778820047.4112732,15441.591999999999,"[0.5817486643791199, -1.749744717274801, -1.3806613127337855, -1.5032513777362269, 1.529410719871521, 2.158027410507202]","[0.5962064534516638, 0.0910990990373791, -0.045411207472134396, 2.8148247254971945, -0.02415108720682691, 1.3801101069330306]","[0.005131729985900764, 1.4192084205241184, 1.7768588848244693, 1.1247084772436728, -0.2819658415237574, -0.002676447278404789]","[0.005131729878485203, 1.4192084074020386, 1.776858925819397, 1.1247085332870483, -0.28196585178375244, -0.0026764473877847195]","[3.798073115003808, 3.798073115003808, 4.285440390025987, 2.6302640264026405, 2.6302640264026405, 2.6302640264026405]",0.0,0.0,0.0,0.0,0.0,0.0,0.0,0.0,0.0,0.0,0.0,0.0,0.0,0.0,0.0,0.595652764176742,0.09101496886065927,-0.04349111936771688,1.0,0.0,0.0,0.0,0.0,11.0,0.0,0.0,0.0,0.0,0.0,0.0,0.0,0.0,0.0
3779,15441.599999999999,1778820047.4189937,15441.599999999999,"[0.5810649991035461, -1.752136532460348, -1.3867948690997522, -1.4946978727923792, 1.5294644832611084, 2.1573452949523926]","[0.5967601387665209, 0.09118318709626902, -0.04733122744859947, 2.8148247118259717, -0.0241510732366896, 1.3801100136976419]","[0.005095445705399933, 1.4227043127799321, 1.7768263423005521, 1.1249404021841356, -0.28165064208927054, -0.0026788257695446165]","[0.005095445550978184, 1.4227043390274048, 1.7768263816833496, 1.1249403953552246, -0.2816506326198578, -0.0026788257528096437]","[3.798073115003808, 3.798073115003808, 4.285440390025987, 2.6302640264026405, 2.6302640264026405, 2.6302640264026405]",0.0,0.0,0.0,0.0,0.0,0.0,0.0,0.0,0.0,0.0,0.0,0.0,0.0,0.0,0.0,0.5962064534516638,0.0910990990373791,-0.045411207472134396,1.0,0.0,0.0,0.0,0.0,11.0,0.0,0.0,0.0,0.0,0.0,0.0,0.0,0.0,0.0
3780,15441.608,1778820047.4284952,15441.608,"[0.5803834795951843, -1.7545936743365687, -1.3928425947772425, -1.4861648718463343, 1.5295181274414062, 2.156665325164795]","[0.5973138747696516, 0.09126730958298533, -0.04925117418328945, 2.814824714414868, -0.024151124552726493, 1.3801100805139463]","[0.005059326093172866, 1.426216588559782, 1.7767156105811506, 1.125166675167576, -0.2813363352913971, -0.0026812000129768066]","[0.005059326067566872, 1.4262166023254395, 1.776715636253357, 1.125166654586792, -0.28133633732795715, -0.0026811999268829823]","[3.798073115003808, 3.798073115003808, 4.285440390025987, 2.6302640264026405, 2.6302640264026405, 2.6302640264026405]",0.0,0.0,0.0,0.0,0.0,0.0,0.0,0.0,0.0,0.0,0.0,0.0,0.0,0.0,0.0,0.5967601387665209,0.09118318709626902,-0.04733122744859947,1.0,0.0,0.0,0.0,0.0,11.0,0.0,0.0,0.0,0.0,0.0,0.0,0.0,0.0,0.0
3781,15441.616,1778820047.4361024,15441.616,"[0.5797041058540344, -1.757115666066305, -1.3988054434405726, -1.4776518980609339, 1.529571533203125, 2.155987501144409]","[0.5978676650236938, 0.09135140733874934, -0.051171095106022635, 2.814824604716439, -0.02415118526393849, 1.3801103591127528]","[0.0050233321955928355, 1.4297455589977452, 1.776526942702081, 1.12538741109567, -0.28102291683031744, -0.002683569472822761]","[0.005023332312703133, 1.4297455549240112, 1.776526927947998, 1.12538743019104, -0.28102290630340576, -0.0026835694443434477]","[3.798073115003808, 3.798073115003808, 4.285440390025987, 2.6302640264026405, 2.6302640264026405, 2.6302640264026405]",0.0,0.0,0.0,0.0,0.0,0.0,0.0,0.0,0.0,0.0,0.0,0.0,0.0,0.0,0.0,0.5967601387665209,0.09118318709626902,-0.04733122744859947,1.0,0.0,0.0,0.0,0.0,11.0,0.0,0.0,0.0,0.0,0.0,0.0,0.0,0.0,0.0
3782,15441.624,1778820047.4447036,15441.624,"[0.5790269374847412, -1.759702507649557, -1.4046834150897425, -1.4691594282733362, 1.5296249389648438, 2.1553118228912354]","[0.5984213396224048, 0.09143554412327139, -0.053091150098330264, 2.8148247259846646, -0.024151099173309085, 1.3801100941409958]","[0.004987426480530721, 1.4332915156127632, 1.7762606074725098, 1.125602719582068, -0.28071038248651836, -0.0026859336424141147]","[0.004987426567822695, 1.4332915544509888, 1.7762606143951416, 1.1256027221679688, -0.280710369348526, -0.002685933606699109]","[3.798073115003808, 3.798073115003808, 4.285440390025987, 2.6302640264026405, 2.6302640264026405, 2.6302640264026405]",0.0,0.0,0.0,0.0,0.0,0.0,0.0,0.0,0.0,0.0,0.0,0.0,0.0,0.0,0.0,0.5978676650236938,0.09135140733874934,-0.051171095106022635,1.0,0.0,0.0,0.0,0.0,11.0,0.0,0.0,0.0,0.0,0.0,0.0,0.0,0.0,0.0
3783,15441.632,1778820047.4532452,15441.632,"[0.5783518552780151, -1.762353245412008, -1.4104774633990687, -1.460686985646383, 1.5296781063079834, 2.1546382904052734]","[0.5989750205156579, 0.09151959442357742, -0.05501111526113678, 2.814824711463497, -0.024151106260085656, 1.3801100279304779]","[0.004951572782790303, 1.4368547310991486, 1.7759168892873294, 1.1258127053534004, -0.2803987281142907, -0.002688292036945208]","[0.004951572977006435, 1.4368547201156616, 1.7759169340133667, 1.1258126497268677, -0.28039872646331787, -0.002688291948288679]","[3.798073115003808, 3.798073115003808, 4.285440390025987, 2.6302640264026405, 2.6302640264026405, 2.6302640264026405]",0.0,0.0,0.0,0.0,0.0,0.0,0.0,0.0,0.0,0.0,0.0,0.0,0.0,0.0,0.0,0.5984213396224048,0.09143554412327139,-0.053091150098330264,1.0,0.0,0.0,0.0,0.0,11.0,0.0,0.0,0.0,0.0,0.0,0.0,0.0,0.0,0.0
3784,15441.64,1778820047.4623797,15441.64,"[0.5776789784431458, -1.7650678793536585, -1.4161880652057093, -1.4522340933429163, 1.5297311544418335, 2.1539669036865234]","[0.5995287330560517, 0.09160372327044938, -0.0569311039868009, 2.8148247379743982, -0.024151094813217793, 1.3801101316408035]","[0.0049157362400130454, 1.4404354600314988, 1.7754960880034898, 1.1260174686205213, -0.2800879496418753, -0.0026906441983436734]","[0.004915736149996519, 1.4404354095458984, 1.7754961252212524, 1.126017451286316, -0.280087947845459, -0.002690644236281514]","[3.798073115003808, 3.798073115003808, 4.285440390025987, 2.6302640264026405, 2.6302640264026405, 2.6302640264026405]",0.0,0.0,0.0,0.0,0.0,0.0,0.0,0.0,0.0,0.0,0.0,0.0,0.0,0.0,0.0,0.5989750205156579,0.09151959442357742,-0.05501111526113678,1.0,0.0,0.0,0.0,0.0,11.0,0.0,0.0,0.0,0.0,0.0,0.0,0.0,0.0,0.0
3785,15441.648,1778820047.4701595,15441.648,"[0.5770082473754883, -1.767846409474508, -1.4218147436725062, -1.443801228200094, 1.5297839641571045, 2.1532976627349854]","[0.600082581931275, 0.09168789822022705, -0.05885099811420491, 2.8148246528521117, -0.024151092527173994, 1.3801104447614068]","[0.004879883250177337, 1.4440339394976223, 1.7749985188556996, 1.1262171054295675, -0.27977804306610615, -0.0026929896895666362]","[0.004879883024841547, 1.4440339803695679, 1.7749985456466675, 1.1262171268463135, -0.27977803349494934, -0.0026929897721856833]","[3.798073115003808, 3.798073115003808, 4.285440390025987, 2.6302640264026405, 2.6302640264026405, 2.6302640264026405]",0.0,0.0,0.0,0.0,0.0,0.0,0.0,0.0,0.0,0.0,0.0,0.0,0.0,0.0,0.0,0.5995287330560517,0.09160372327044938,-0.0569311039868009,1.0,0.0,0.0,0.0,0.0,11.0,0.0,0.0,0.0,0.0,0.0,0.0,0.0,0.0,0.0
3786,15441.655999999999,1778820047.4777753,15441.655999999999,"[0.576339602470398, -1.7706878821002405, -1.4273589293109339, -1.4353883902179163, 1.529836654663086, 2.152630567550659]","[0.6006362402890096, 0.0917719370506928, -0.06077101341630553, 2.8148246238274566, -0.02415105562940832, 1.3801102401940861]","[0.004843981431367157, 1.4476503896996185, 1.7744245123692965, 1.1264117079906342, -0.2794690044484068, -0.002695328092598666]","[0.004843981470912695, 1.44765043258667, 1.7744245529174805, 1.1264116764068604, -0.27946901321411133, -0.002695328090339899]","[3.798073115003808, 3.798073115003808, 4.285440390025987, 2.6302640264026405, 2.6302640264026405, 2.6302640264026405]",0.0,0.0,0.0,0.0,0.0,0.0,0.0,0.0,0.0,0.0,0.0,0.0,0.0,0.0,0.0,0.5995287330560517,0.09160372327044938,-0.0569311039868009,1.0,0.0,0.0,0.0,0.0,11.0,0.0,0.0,0.0,0.0,0.0,0.0,0.0,0.0,0.0
3787,15441.663999999999,1778820047.486785,15441.663999999999,"[0.5756730437278748, -1.7735922972308558, -1.4328206221209925, -1.426995102559225, 1.5298892259597778, 2.151965618133545]","[0.6011899493493348, 0.09185600107621583, -0.06269101759665174, 2.814824588151861, -0.024151167557612586, 1.3801101803968883]","[0.004807999571740251, 1.4512850144454565, 1.77377441437843, 1.1266013649848505, -0.27916082991504415, -0.002697659010321698]","[0.004807999357581139, 1.4512850046157837, 1.7737743854522705, 1.1266013383865356, -0.27916082739830017, -0.002697658957913518]","[3.798073115003808, 3.798073115003808, 4.285440390025987, 2.6302640264026405, 2.6302640264026405, 2.6302640264026405]",0.0,0.0,0.0,0.0,0.0,0.0,0.0,0.0,0.0,0.0,0.0,0.0,0.0,0.0,0.0,0.6006362402890096,0.0917719370506928,-0.06077101341630553,1.0,0.0,0.0,0.0,0.0,11.0,0.0,0.0,0.0,0.0,0.0,0.0,0.0,0.0,0.0
3788,15441.671999999999,1778820047.4960146,15441.671999999999,"[0.5750086307525635, -1.7765596548663538, -1.438199822102682, -1.4186213652240198, 1.5299416780471802, 2.1513028144836426]","[0.6017437689198273, 0.09194017254193748, -0.06461102213457182, 2.8148245699651073, -0.024151344514270274, 1.3801102768213045]","[0.004771907601875216, 1.4549380016340552, 1.773048586007442, 1.126786161853915, -0.2788535156531449, -0.0026999820646298836]","[0.004771907813847065, 1.4549380540847778, 1.7730486392974854, 1.1267861127853394, -0.27885350584983826, -0.0026999821420758963]","[3.798073115003808, 3.798073115003808, 4.285440390025987, 2.6302640264026405, 2.6302640264026405, 2.6302640264026405]",0.0,0.0,0.0,0.0,0.0,0.0,0.0,0.0,0.0,0.0,0.0,0.0,0.0,0.0,0.0,0.6011899493493348,0.09185600107621583,-0.06269101759665174,1.0,0.0,0.0,0.0,0.0,11.0,0.0,0.0,0.0,0.0,0.0,0.0,0.0,0.0,0.0
3789,15441.679999999998,1778820047.503943,15441.679999999998,"[0.5743463039398193, -1.77958852449526, -1.4434974829303187, -1.4102676550494593, 1.529994010925293, 2.150641918182373]","[0.6022974915722561, 0.09202433046107204, -0.06653086879892411, 2.8148246229298146, -0.02415132197456341, 1.3801105591923766]","[0.004735676569219871, 1.458609523680344, 1.7722474036889526, 1.126966181073659, -0.27854705790604173, -0.0027022968910703224]","[0.004735676571726799, 1.4586095809936523, 1.7722474336624146, 1.1269662380218506, -0.2785470485687256, -0.002702296944335103]","[3.798073115003808, 3.798073115003808, 4.285440390025987, 2.6302640264026405, 2.6302640264026405, 2.6302640264026405]",0.0,0.0,0.0,0.0,0.0,0.0,0.0,0.0,0.0,0.0,0.0,0.0,0.0,0.0,0.0,0.6017437689198273,0.09194017254193748,-0.06461102213457182,1.0,0.0,0.0,0.0,0.0,11.0,0.0,0.0,0.0,0.0,0.0,0.0,0.0,0.0,0.0
3790,15441.688,1778820047.5126605,15441.688,"[0.5736860036849976, -1.782679859791891, -1.4487136046039026, -1.401933495198385, 1.5300461053848267, 2.1499831676483154]","[0.6028512161211538, 0.09210838952138367, -0.06845095023530928, 2.8148245813207065, -0.024151293169533444, 1.3801103609256204]","[0.0046992785980574285, 1.4622997378894578, 1.7713712592235495, 1.1271415024083369, -0.27824145297456016, -0.002704603143563172]","[0.004699278622865677, 1.4622997045516968, 1.7713712453842163, 1.1271414756774902, -0.27824145555496216, -0.0027046031318604946]","[3.798073115003808, 3.798073115003808, 4.285440390025987, 2.6302640264026405, 2.6302640264026405, 2.6302640264026405]",0.0,0.0,0.0,0.0,0.0,0.0,0.0,0.0,0.0,0.0,0.0,0.0,0.0,0.0,0.0,0.6022974915722561,0.09202433046107204,-0.06653086879892411,1.0,0.0,0.0,0.0,0.0,11.0,0.0,0.0,0.0,0.0,0.0,0.0,0.0,0.0,0.0
3791,15441.696,1778820047.5202484,15441.696,"[0.5730278491973877, -1.78583270708193, -1.453848663960592, -1.3936193625079554, 1.5300980806350708, 2.1493265628814697]","[0.6034047819142838, 0.09219239468734095, -0.0703711556012227, 2.8148246228865195, -0.024151147124174804, 1.3801096535490867]","[0.004662686870648315, 1.466008786792616, 1.770420559849077, 1.127312203152366, -0.277936697213934, -0.002706900491969116]","[0.004662686958909035, 1.4660087823867798, 1.7704205513000488, 1.127312183380127, -0.2779366970062256, -0.0027069004718214273]","[3.798073115003808, 3.798073115003808, 4.285440390025987, 2.6302640264026405, 2.6302640264026405, 2.6302640264026405]",0.0,0.0,0.0,0.0,0.0,0.0,0.0,0.0,0.0,0.0,0.0,0.0,0.0,0.0,0.0,0.6022974915722561,0.09202433046107204,-0.06653086879892411,1.0,0.0,0.0,0.0,0.0,11.0,0.0,0.0,0.0,0.0,0.0,0.0,0.0,0.0,0.0
3792,15441.704,1778820047.5295444,15441.704,"[0.5723717212677002, -1.789046589528219, -1.458902661000387, -1.385324780141012, 1.5301499366760254, 2.148671865463257]","[0.6039585307178386, 0.09227654051302085, -0.07229110470599187, 2.814824647350182, -0.024151067701709834, 1.380109782449918]","[0.004625875612811602, 1.4697367984498038, 1.7693957283183988, 1.1274783583581682, -0.27763278702960825, -0.0027091886176699295]","[0.004625875502824783, 1.4697368144989014, 1.7693957090377808, 1.1274783611297607, -0.27763277292251587, -0.0027091887313872576]","[3.798073115003808, 3.798073115003808, 4.285440390025987, 2.6302640264026405, 2.6302640264026405, 2.6302640264026405]",0.0,0.0,0.0,0.0,0.0,0.0,0.0,0.0,0.0,0.0,0.0,0.0,0.0,0.0,0.0,0.6034047819142838,0.09219239468734095,-0.0703711556012227,1.0,0.0,0.0,0.0,0.0,11.0,0.0,0.0,0.0,0.0,0.0,0.0,0.0,0.0,0.0
3793,15441.712,1778820047.5375862,15441.712,"[0.5717176198959351, -1.7923210302936, -1.4638760725604456, -1.3770502249347132, 1.5302016735076904, 2.148019313812256]","[0.6045122546517274, 0.09236064812059672, -0.07421094141555207, 2.814824641585644, -0.024151220456484816, 1.380110041761578]","[0.004588820066130995, 1.4734838867277078, 1.768297202987493, 1.1276400410493637, -0.27732971887803026, -0.002711467217422519]","[0.004588820040225983, 1.473483920097351, 1.7682971954345703, 1.1276400089263916, -0.2773297131061554, -0.0027114672120660543]","[3.798073115003808, 3.798073115003808, 4.285440390025987, 2.6302640264026405, 2.6302640264026405, 2.6302640264026405]",0.0,0.0,0.0,0.0,0.0,0.0,0.0,0.0,0.0,0.0,0.0,0.0,0.0,0.0,0.0,0.6039585307178386,0.09227654051302085,-0.07229110470599187,1.0,0.0,0.0,0.0,0.0,11.0,0.0,0.0,0.0,0.0,0.0,0.0,0.0,0.0,0.0
3794,15441.72,1778820047.5458128,15441.72,"[0.5710656046867371, -1.7956565062152308, -1.4687688986407679, -1.3687952200519007, 1.530253291130066, 2.1473686695098877]","[0.60506609900184, 0.09244490332022483, -0.07613082434856633, 2.8148247075745334, -0.024151173492623794, 1.3801104848086612]","[0.004551496478648208, 1.477250151532164, 1.7671254379275732, 1.1277973224228728, -0.27702748926311344, -0.0027137359995001516]","[0.004551496356725693, 1.477250099182129, 1.7671254873275757, 1.1277973651885986, -0.2770274877548218, -0.0027137359138578176]","[3.798073115003808, 3.798073115003808, 4.285440390025987, 2.6302640264026405, 2.6302640264026405, 2.6302640264026405]",0.0,0.0,0.0,0.0,0.0,0.0,0.0,0.0,0.0,0.0,0.0,0.0,0.0,0.0,0.0,0.6045122546517274,0.09236064812059672,-0.07421094141555207,1.0,0.0,0.0,0.0,0.0,11.0,0.0,0.0,0.0,0.0,0.0,0.0,0.0,0.0,0.0
3795,15441.728,1778820047.5543618,15441.728,"[0.5704156160354614, -1.7990525404559534, -1.473581616078512, -1.360560719166891, 1.5303046703338623, 2.1467201709747314]","[0.6056197098066247, 0.09252892919215483, -0.07805102848027196, 2.81482474763948, -0.024150939296881387, 1.3801097794267403]","[0.004513882088263581, 1.4810356790110182, 1.7658809030587534, 1.1279502720392065, -0.2767260947364383, -0.0027159946862137284]","[0.004513882100582123, 1.4810357093811035, 1.7658809423446655, 1.1279503107070923, -0.276726096868515, -0.002715994603931904]","[3.798073115003808, 3.798073115003808, 4.285440390025987, 2.6302640264026405, 2.6302640264026405, 2.6302640264026405]",0.0,0.0,0.0,0.0,0.0,0.0,0.0,0.0,0.0,0.0,0.0,0.0,0.0,0.0,0.0,0.60506609900184,0.09244490332022483,-0.07613082434856633,1.0,0.0,0.0,0.0,0.0,11.0,0.0,0.0,0.0,0.0,0.0,0.0,0.0,0.0,0.0
3796,15441.735999999999,1778820047.563154,15441.735999999999,"[0.5697676539421082, -1.8025077025042933, -1.4783147017108362, -1.3523457686053675, 1.5303559303283691, 2.146073818206787]","[0.6061735626068344, 0.09261310047506047, -0.07997076998530783, 2.8148246253837974, -0.02415130033811183, 1.380110531644184]","[0.004475955114166735, 1.484840541763966, 1.7645640842330421, 1.1280989580017884, -0.2764255318932187, -0.002718243009668833]","[0.004475954920053482, 1.4848405122756958, 1.764564037322998, 1.128098964691162, -0.2764255404472351, -0.0027182430494576693]","[3.798073115003808, 3.798073115003808, 4.285440390025987, 2.6302640264026405, 2.6302640264026405, 2.6302640264026405]",0.0,0.0,0.0,0.0,0.0,0.0,0.0,0.0,0.0,0.0,0.0,0.0,0.0,0.0,0.0,0.60506609900184,0.09244490332022483,-0.07613082434856633,1.0,0.0,0.0,0.0,0.0,11.0,0.0,0.0,0.0,0.0,0.0,0.0,0.0,0.0,0.0
3797,15441.743999999999,1778820047.5717578,15441.743999999999,"[0.5691216588020325, -1.8060229460345667, -1.4829681555377405, -1.3441513220416468, 1.5304070711135864, 2.1454293727874756]","[0.6067271886283865, 0.09269712969937886, -0.08189090444505975, 2.814824660565645, -0.024151266328755826, 1.3801101135276241]","[0.004437694747525078, 1.4886647989920025, 1.7631754833849584, 1.128243447126218, -0.27612579737194676, -0.0027204807131801807]","[0.004437694791704416, 1.4886647462844849, 1.7631754875183105, 1.1282434463500977, -0.27612578868865967, -0.0027204807847738266]","[3.798073115003808, 3.798073115003808, 4.285440390025987, 2.6302640264026405, 2.6302640264026405, 2.6302640264026405]",0.0,0.0,0.0,0.0,0.0,0.0,0.0,0.0,0.0,0.0,0.0,0.0,0.0,0.0,0.0,0.6061735626068344,0.09261310047506047,-0.07997076998530783,1.0,0.0,0.0,0.0,0.0,11.0,0.0,0.0,0.0,0.0,0.0,0.0,0.0,0.0,0.0
3798,15441.751999999999,1778820047.579869,15441.751999999999,"[0.5684776902198792, -1.8095973173724573, -1.4875415007220667, -1.3359773794757288, 1.5304580926895142, 2.144786834716797]","[0.6072810204190543, 0.09278133750272484, -0.08381070338019242, 2.8148246772757126, -0.024151297532746967, 1.3801105299935947]","[0.004399081137355817, 1.492508496633465, 1.76171561868415, 1.1283838050999344, -0.27582688785477083, -0.0027227075524544567]","[0.004399081226438284, 1.4925085306167603, 1.7617156505584717, 1.128383755683899, -0.27582690119743347, -0.002722707577049732]","[3.798073115003808, 3.798073115003808, 4.285440390025987, 2.6302640264026405, 2.6302640264026405, 2.6302640264026405]",0.0,0.0,0.0,0.0,0.0,0.0,0.0,0.0,0.0,0.0,0.0,0.0,0.0,0.0,0.0,0.6067271886283865,0.09269712969937886,-0.08189090444505975,1.0,0.0,0.0,0.0,0.0,11.0,0.0,0.0,0.0,0.0,0.0,0.0,0.0,0.0,0.0
3799,15441.759999999998,1778820047.5879202,15441.759999999998,"[0.5678357481956482, -1.8132308165179651, -1.4920361677752894, -1.3278239409076136, 1.5305088758468628, 2.14414644241333]","[0.6078345780547553, 0.09286530728519858, -0.08573092194760462, 2.814824671299101, -0.024151142739362693, 1.3801097946838128]","[0.004360095400516061, 1.496371667514922, 1.7601850246176085, 1.1285200966326276, -0.2755288000618864, -0.0027249232910133104]","[0.004360095597803593, 1.4963716268539429, 1.7601850032806396, 1.128520131111145, -0.27552878856658936, -0.0027249231934547424]","[3.798073115003808, 3.798073115003808, 4.285440390025987, 2.6302640264026405, 2.6302640264026405, 2.6302640264026405]",0.0,0.0,0.0,0.0,0.0,0.0,0.0,0.0,0.0,0.0,0.0,0.0,0.0,0.0,0.0,0.6072810204190543,0.09278133750272484,-0.08381070338019242,1.0,0.0,0.0,0.0,0.0,11.0,0.0,0.0,0.0,0.0,0.0,0.0,0.0,0.0,0.0
