shh444/ur-rtde/backend/recordings/rtde_20260515_094219_Test1.csv
frame_index,robot_timestamp_s,received_wall_time_s,timestamp,actual_q,actual_TCP_pose,target_current,actual_current,actual_current_window,urTimestamp,timer,wcrIn,weldCurrent,weldVoltage,xOffset,zOffset,BotRight_Plus,TopLeft_Minus,StandardCurrent,allIntegral,xUp,xUi,zUp,zUi,x,y,z,weldingOnOff,touchOnOff,ratioT_19,tri_count,tri_2,output_double_register_23,peak_value,Arc_percent,ARC_T_Plus,output_double_register_27,output_double_register_28,output_double_register_29,BotRight_Plus_VA,TopLeft_Minus_VA,output_double_register_32
28581,1729.672,1778805739.7480884,1729.672,"[0.37319642305374146, -1.6037996451007288, -1.311556641255514, -1.711456600819723, 1.5465867519378662, 1.9500689506530762]","[0.5701321674466092, 0.0023009300854508197, 0.004378040940672401, 2.81482457837154, -0.02415128630624119, 1.3801105249654877]","[0.30443533892255475, 1.256728992971008, 1.9195793914277244, 1.2385883490126601, -0.07752203669520671, -0.000626993264367267]","[0.3044353425502777, 1.256729006767273, 1.9195793867111206, 1.2385883331298828, -0.07752203941345215, -0.0006269932491704822]","[3.798073115003808, 3.798073115003808, 4.285440390025987, 2.6302640264026405, 2.6302640264026405, 2.6302640264026405]",0.0,0.0,0.0,0.0,0.0,0.0,0.0,0.0,0.0,0.0,0.0,0.0,0.0,0.0,0.0,0.5701322828889756,0.0011846717239131356,0.0038435657166543957,1.0,0.0,0.0,0.0,0.0,11.0,0.0,0.0,0.0,0.0,0.0,0.0,0.0,0.0,0.0
28582,1729.6799999999998,1778805739.7571602,1729.6799999999998,"[0.37686243653297424, -1.604440991078512, -1.3081215063678187, -1.7143390814410608, 1.5462735891342163, 1.953722596168518]","[0.5701322964169746, 0.0034865158358612903, 0.004945772473169852, 2.8148245005461545, -0.02415130501613174, 1.3801110052582672]","[0.30392745607195154, 1.2527447731875403, 1.9202320340345485, 1.2380139690151573, -0.07958314722757213, -0.00087672984888887]","[0.3039274513721466, 1.2527447938919067, 1.9202320575714111, 1.2380139827728271, -0.07958314567804337, -0.0008767298422753811]","[3.798073115003808, 3.798073115003808, 4.285440390025987, 2.6302640264026405, 2.6302640264026405, 2.6302640264026405]",0.0,0.0,0.0,0.0,0.0,0.0,0.0,0.0,0.0,0.0,0.0,0.0,0.0,0.0,0.0,0.5701321674466092,0.0023009300854508197,0.004378040940672401,1.0,0.0,0.0,0.0,0.0,11.0,0.0,0.0,0.0,0.0,0.0,0.0,0.0,0.0,0.0
28583,1729.6879999999999,1778805739.775856,1729.6879999999999,"[0.3807365298271179, -1.6051490942584437, -1.3044527212726038, -1.7173956076251429, 1.5459429025650024, 1.9575837850570679]","[0.5701321888589621, 0.004741201752040472, 0.005546309061885468, 2.8148245709772803, -0.024151193699200844, 1.3801102405689498]","[0.30337036828719566, 1.2485376835516142, 1.920921580723726, 1.2373936818292282, -0.08175923958554426, -0.001148657231120025]","[0.3033703565597534, 1.2485376596450806, 1.9209215641021729, 1.2373937368392944, -0.08175923675298691, -0.0011486571747809649]","[3.798073115003808, 3.798073115003808, 4.285440390025987, 2.6302640264026405, 2.6302640264026405, 2.6302640264026405]",0.0,0.0,0.0,0.0,0.0,0.0,0.0,0.0,0.0,0.0,0.0,0.0,0.0,0.0,0.0,0.5701322964169746,0.0034865158358612903,0.004945772473169852,1.0,0.0,0.0,0.0,0.0,11.0,0.0,0.0,0.0,0.0,0.0,0.0,0.0,0.0,0.0
28586,1729.712,1778805739.7911363,1729.712,"[0.39359521865844727, -1.6077221075641077, -1.291983429585592, -1.7276175657855433, 1.5448483228683472, 1.9703999757766724]","[0.5701320791934896, 0.00892114193422228, 0.00754764321911866, 2.8148246531447843, -0.024151229747033653, 1.380109978951375]","[0.3013725136902198, 1.2346073163644775, 1.9232097235571517, 1.2352272414818233, -0.08896626096792905, -0.002109042809482561]","[0.3013725280761719, 1.2346073389053345, 1.9232096672058105, 1.2352272272109985, -0.0889662578701973, -0.0021090428344905376]","[3.798073115003808, 3.798073115003808, 4.285440390025987, 2.6302640264026405, 2.6302640264026405, 2.6302640264026405]",0.0,0.0,0.0,0.0,0.0,0.0,0.0,0.0,0.0,0.0,0.0,0.0,0.0,0.0,0.0,0.5701321630900649,0.007458584195406213,0.006847378877827104,1.0,0.0,0.0,0.0,0.0,11.0,0.0,0.0,0.0,0.0,0.0,0.0,0.0,0.0,0.0
28590,1729.744,1778805739.8529398,1729.744,"[0.41357094049453735, -1.6124184767352503, -1.2716882864581507, -1.7437494436847132, 1.543156385421753, 1.9903110265731812]","[0.570132158455376, 0.015464265064881348, 0.0106807081644818, 2.814824574563507, -0.024151281386786124, 1.3801104846497754]","[0.29782468323471306, 1.2130825525297457, 1.9267854834071163, 1.2314886322946255, -0.10011108361250112, -0.0037717567013811895]","[0.2978246808052063, 1.2130825519561768, 1.9267854690551758, 1.231488585472107, -0.10011108219623566, -0.003771756775677204]","[3.798073115003808, 3.798073115003808, 4.285440390025987, 2.6302640264026405, 2.6302640264026405, 2.6302640264026405]",0.0,0.0,0.0,0.0,0.0,0.0,0.0,0.0,0.0,0.0,0.0,0.0,0.0,0.0,0.0,0.570132109906103,0.012054155051148098,0.009047825455811453,1.0,0.0,0.0,0.0,0.0,11.0,0.0,0.0,0.0,0.0,0.0,0.0,0.0,0.0,0.0
28591,1729.752,1778805739.8984141,1729.752,"[0.41902872920036316, -1.6138537565814417, -1.2659395376788538, -1.7482145468341272, 1.5426959991455078, 1.9957515001296997]","[0.5701321902318027, 0.017263233349161293, 0.011542017336131971, 2.814824590347409, -0.02415131888927502, 1.3801104373590594]","[0.12236774499131635, 1.2200056815073652, 1.825908944153482, 1.1935171930090516, -0.1605393409028844, -0.005752355221145892]","[0.1223677471280098, 1.2200056314468384, 1.825908899307251, 1.1935172080993652, -0.16053934395313263, -0.0057523553259670734]","[3.798073115003808, 3.798073115003808, 4.285440390025987, 2.6302640264026405, 2.6302640264026405, 2.6302640264026405]",0.0,0.0,0.0,0.0,0.0,0.0,0.0,0.0,0.0,0.0,0.0,0.0,0.0,0.0,0.0,0.570132158455376,0.015464265064881348,0.0106807081644818,1.0,0.0,0.0,0.0,0.0,11.0,0.0,0.0,0.0,0.0,0.0,0.0,0.0,0.0,0.0
28592,1729.76,1778805739.961225,1729.76,"[0.4244859218597412, -1.6153553167926233, -1.2601011435138147, -1.7527053991900843, 1.5422364473342896, 2.0011913776397705]","[0.5701322222297115, 0.019067105434724625, 0.012405712378024514, 2.814824572918316, -0.024151154395621113, 1.3801105756625571]","[-0.008262166034182936, 1.228991424194595, 1.74862886420031, 1.1644604901487459, -0.20601392190144072, -0.007020790611567366]","[-0.008262165822088718, 1.2289913892745972, 1.748628854751587, 1.16446053981781, -0.20601391792297363, -0.007020790595561266]","[3.798073115003808, 3.798073115003808, 4.285440390025987, 2.6302640264026405, 2.6302640264026405, 2.6302640264026405]",0.0,0.0,0.0,0.0,0.0,0.0,0.0,0.0,0.0,0.0,0.0,0.0,0.0,0.0,0.0,0.5701321902318027,0.017263233349161293,0.011542017336131971,1.0,0.0,0.0,0.0,0.0,11.0,0.0,0.0,0.0,0.0,0.0,0.0,0.0,0.0,0.0
28594,1729.7759999999998,1778805740.0080972,1729.7759999999998,"[0.4353525638580322, -1.618547264729635, -1.2481988112079065, -1.7617304960833948, 1.5413239002227783, 2.012024402618408]","[0.5701320649252949, 0.02267462934092588, 0.014132918270984007, 2.814824567682524, -0.024151293718545967, 1.380109938222246]","[-0.008418673985893492, 1.230109710190947, 1.7453072845547064, 1.1620275327506269, -0.2113072680498437, -0.007164078192263004]","[-0.008418673649430275, 1.230109691619873, 1.7453073263168335, 1.1620274782180786, -0.21130727231502533, -0.007164078298956156]","[3.798073115003808, 3.798073115003808, 4.285440390025987, 2.6302640264026405, 2.6302640264026405, 2.6302640264026405]",0.0,0.0,0.0,0.0,0.0,0.0,0.0,0.0,0.0,0.0,0.0,0.0,0.0,0.0,0.0,0.5701321484204835,0.020870848351546768,0.013269269373752446,1.0,0.0,0.0,0.0,0.0,11.0,0.0,0.0,0.0,0.0,0.0,0.0,0.0,0.0,0.0
28595,1729.7839999999999,1778805740.0086105,1729.7839999999999,"[0.4407614767551422, -1.6202381292926233, -1.2421334425555628, -1.7662652174579065, 1.540871024131775, 2.017416477203369]","[0.5701320513837118, 0.02447852387172865, 0.014996547308162744, 2.8148247036113503, -0.024150960914206945, 1.3801098312924633]","[-0.008617645865610212, 1.2307582476220027, 1.7435398246024536, 1.1607598261857057, -0.21397453957766685, -0.007234990706641126]","[-0.008617646060883999, 1.2307581901550293, 1.743539810180664, 1.1607598066329956, -0.21397453546524048, -0.00723499059677124]","[3.798073115003808, 3.798073115003808, 4.285440390025987, 2.6302640264026405, 2.6302640264026405, 2.6302640264026405]",0.0,0.0,0.0,0.0,0.0,0.0,0.0,0.0,0.0,0.0,0.0,0.0,0.0,0.0,0.0,0.5701321484204835,0.020870848351546768,0.013269269373752446,1.0,0.0,0.0,0.0,0.0,11.0,0.0,0.0,0.0,0.0,0.0,0.0,0.0,0.0,0.0
28596,1729.792,1778805740.0401025,1729.792,"[0.4461537301540375, -1.6219924131976526, -1.2359908262835901, -1.7708151976214808, 1.540420413017273, 2.022792339324951]","[0.5701322161904961, 0.026282457436632056, 0.015860387370726703, 2.814824625231064, -0.02415115049183871, 1.3801104094356094]","[-0.008812280278917266, 1.2314595588738337, 1.741750828481255, 1.1594762835780437, -0.21662763463411358, -0.00730464995472243]","[-0.008812280371785164, 1.231459617614746, 1.7417508363723755, 1.1594762802124023, -0.21662762761116028, -0.0073046498000621796]","[3.798073115003808, 3.798073115003808, 4.285440390025987, 2.6302640264026405, 2.6302640264026405, 2.6302640264026405]",0.0,0.0,0.0,0.0,0.0,0.0,0.0,0.0,0.0,0.0,0.0,0.0,0.0,0.0,0.0,0.5701320513837118,0.02447852387172865,0.014996547308162744,1.0,0.0,0.0,0.0,0.0,11.0,0.0,0.0,0.0,0.0,0.0,0.0,0.0,0.0,0.0
28602,1729.84,1778805740.1013446,1729.84,"[0.478141725063324, -1.6338627974139612, -1.1974752585040491, -1.798471752797262, 1.5377655029296875, 2.0546860694885254]","[0.5701321115530709, 0.03710546924649189, 0.02104242027559544, 2.814824660302524, -0.024151127399257302, 1.3801099499650693]","[-0.009883475810558668, 1.2367456934798413, 1.7305756778557495, 1.1514463589031227, -0.2322398067280015, -0.007695227014303912]","[-0.009883475489914417, 1.2367457151412964, 1.730575680732727, 1.1514463424682617, -0.23223981261253357, -0.007695226930081844]","[3.798073115003808, 3.798073115003808, 4.285440390025987, 2.6302640264026405, 2.6302640264026405, 2.6302640264026405]",0.0,0.0,0.0,0.0,0.0,0.0,0.0,0.0,0.0,0.0,0.0,0.0,0.0,0.0,0.0,0.570132092633342,0.03530161882494517,0.020178815094541336,1.0,0.0,0.0,0.0,0.0,11.0,0.0,0.0,0.0,0.0,0.0,0.0,0.0,0.0,0.0
28603,1729.848,1778805740.1018627,1729.848,"[0.4834096431732178, -1.6360676924334925, -1.1907709280597132, -1.803145710621969, 1.537331461906433, 2.059938907623291]","[0.570132123320474, 0.03890935921117776, 0.02190617534164424, 2.8148246907802608, -0.024151070737293917, 1.380110087531283]","[-0.010045060553547425, 1.2378007629671965, 1.7286416206970612, 1.1500536916931723, -0.23478943916645864, -0.007755604002151454]","[-0.010045060887932777, 1.2378007173538208, 1.7286416292190552, 1.1500537395477295, -0.23478944599628448, -0.0077556041069328785]","[3.798073115003808, 3.798073115003808, 4.285440390025987, 2.6302640264026405, 2.6302640264026405, 2.6302640264026405]",0.0,0.0,0.0,0.0,0.0,0.0,0.0,0.0,0.0,0.0,0.0,0.0,0.0,0.0,0.0,0.5701321115530709,0.03710546924649189,0.02104242027559544,1.0,0.0,0.0,0.0,0.0,11.0,0.0,0.0,0.0,0.0,0.0,0.0,0.0,0.0,0.0
28604,1729.856,1778805740.2257705,1729.856,"[0.48865875601768494, -1.6383379141436976, -1.1839831511126917, -1.8078396956073206, 1.5368998050689697, 2.065173387527466]","[0.5701320344447374, 0.040713102041755815, 0.022769796513145868, 2.814824613647966, -0.02415123969890077, 1.3801098352670305]","[-0.010201569278093906, 1.2389037257040076, 1.7266877598102055, 1.1486455491128278, -0.2373237513911333, -0.007814593800399795]","[-0.010201569646596909, 1.2389037609100342, 1.7266877889633179, 1.1486455202102661, -0.23732374608516693, -0.007814593613147736]","[3.798073115003808, 3.798073115003808, 4.285440390025987, 2.6302640264026405, 2.6302640264026405, 2.6302640264026405]",0.0,0.0,0.0,0.0,0.0,0.0,0.0,0.0,0.0,0.0,0.0,0.0,0.0,0.0,0.0,0.570132123320474,0.03890935921117776,0.02190617534164424,1.0,0.0,0.0,0.0,0.0,11.0,0.0,0.0,0.0,0.0,0.0,0.0,0.0,0.0,0.0
28605,1729.864,1778805740.3038356,1729.864,"[0.49388882517814636, -1.6406744162188929, -1.1771100203143519, -1.812554184590475, 1.5364707708358765, 2.0703887939453125]","[0.570132096401234, 0.04251704386784315, 0.023633429620651125, 2.81482471490833, -0.024151189425956517, 1.3801098373298306]","[-0.010352916629081929, 1.2400538018708656, 1.7247143630580044, 1.1472219189128736, -0.23984262346761565, -0.00787218397489766]","[-0.01035291701555252, 1.2400537729263306, 1.7247143983840942, 1.1472219228744507, -0.23984262347221375, -0.007872183807194233]","[3.798073115003808, 3.798073115003808, 4.285440390025987, 2.6302640264026405, 2.6302640264026405, 2.6302640264026405]",0.0,0.0,0.0,0.0,0.0,0.0,0.0,0.0,0.0,0.0,0.0,0.0,0.0,0.0,0.0,0.570132123320474,0.03890935921117776,0.02190617534164424,1.0,0.0,0.0,0.0,0.0,11.0,0.0,0.0,0.0,0.0,0.0,0.0,0.0,0.0,0.0
28606,1729.8719999999998,1778805740.3038356,1729.8719999999998,"[0.49909961223602295, -1.6430767218219202, -1.1701505819903772, -1.8172906080829065, 1.5360441207885742, 2.075585126876831]","[0.5701321314728668, 0.04432090524306036, 0.024497244665867945, 2.814824651787087, -0.02415112781115272, 1.3801100787352287]","[-0.010499017908643793, 1.2412501651005234, 1.722721715142302, 1.1457827720941636, -0.2423459404381128, -0.00792836302235908]","[-0.010499018244445324, 1.2412501573562622, 1.7227216958999634, 1.1457828283309937, -0.24234594404697418, -0.007928363047540188]","[3.798073115003808, 3.798073115003808, 4.285440390025987, 2.6302640264026405, 2.6302640264026405, 2.6302640264026405]",0.0,0.0,0.0,0.0,0.0,0.0,0.0,0.0,0.0,0.0,0.0,0.0,0.0,0.0,0.0,0.570132096401234,0.04251704386784315,0.023633429620651125,1.0,0.0,0.0,0.0,0.0,11.0,0.0,0.0,0.0,0.0,0.0,0.0,0.0,0.0,0.0
28607,1729.8799999999999,1778805740.3499012,1729.8799999999999,"[0.5042908787727356, -1.645545784627096, -1.1631043593036097, -1.8220489660846155, 1.535620093345642, 2.0807621479034424]","[0.5701320989665211, 0.04612477502602572, 0.025360796387376372, 2.814824765636646, -0.02415098733459265, 1.3801097593011729]","[-0.010639788858448539, 1.2424919391211486, 1.720710119695552, 1.1443280614073894, -0.24483359229834015, -0.00798312035793852]","[-0.010639788582921028, 1.2424919605255127, 1.7207101583480835, 1.1443281173706055, -0.2448335886001587, -0.007983120158314705]","[3.798073115003808, 3.798073115003808, 4.285440390025987, 2.6302640264026405, 2.6302640264026405, 2.6302640264026405]",0.0,0.0,0.0,0.0,0.0,0.0,0.0,0.0,0.0,0.0,0.0,0.0,0.0,0.0,0.0,0.5701321314728668,0.04432090524306036,0.024497244665867945,1.0,0.0,0.0,0.0,0.0,11.0,0.0,0.0,0.0,0.0,0.0,0.0,0.0,0.0,0.0
28608,1729.888,1778805740.583308,1729.888,"[0.5094624757766724, -1.648081127797262, -1.1559694449054163, -1.8268306891070765, 1.5351985692977905, 2.0859198570251465]","[0.5701320984203067, 0.04792863384395622, 0.02622471119740777, 2.8148246747386416, -0.024151233112898456, 1.3801102000856895]","[-0.010775145421117228, 1.2437781940594115, 1.7186799016207446, 1.1428577197266239, -0.2473054739690094, -0.008036446299767911]","[-0.010775145143270493, 1.2437782287597656, 1.7186799049377441, 1.1428576707839966, -0.2473054677248001, -0.008036446757614613]","[3.798073115003808, 3.798073115003808, 4.285440390025987, 2.6302640264026405, 2.6302640264026405, 2.6302640264026405]",0.0,0.0,0.0,0.0,0.0,0.0,0.0,0.0,0.0,0.0,0.0,0.0,0.0,0.0,0.0,0.5701320989665211,0.04612477502602572,0.025360796387376372,1.0,0.0,0.0,0.0,0.0,11.0,0.0,0.0,0.0,0.0,0.0,0.0,0.0,0.0,0.0
28609,1729.896,1778805740.592842,1729.896,"[0.5146140456199646, -1.6506841818438929, -1.148745361958639, -1.8316357771502894, 1.5347795486450195, 2.091057777404785]","[0.5701320910683795, 0.04973242080794475, 0.027088313637356143, 2.814824591935652, -0.02415133477060825, 1.3801100201306127]","[-0.01090500345666458, 1.2451079423642486, 1.7166314097090893, 1.1413716582819315, -0.24976148526011863, -0.008088332049615498]","[-0.010905003175139427, 1.245107889175415, 1.7166314125061035, 1.1413716077804565, -0.24976149201393127, -0.008088331669569016]","[3.798073115003808, 3.798073115003808, 4.285440390025987, 2.6302640264026405, 2.6302640264026405, 2.6302640264026405]",0.0,0.0,0.0,0.0,0.0,0.0,0.0,0.0,0.0,0.0,0.0,0.0,0.0,0.0,0.0,0.5701320984203067,0.04792863384395622,0.02622471119740777,1.0,0.0,0.0,0.0,0.0,11.0,0.0,0.0,0.0,0.0,0.0,0.0,0.0,0.0,0.0
28610,1729.904,1778805740.5938492,1729.904,"[0.5197454690933228, -1.6533549467669886, -1.1414297262774866, -1.8364656607257288, 1.5343631505966187, 2.0961754322052]","[0.5701322199326886, 0.05153638167982671, 0.02795217953551321, 2.8148245669924545, -0.024151141973833137, 1.3801105476323443]","[-0.011029278454623152, 1.2464801343199707, 1.714565019563816, 1.1398697647349978, -0.2522015308336057, -0.008138769675665214]","[-0.011029278859496117, 1.246480107307434, 1.7145650386810303, 1.1398698091506958, -0.25220152735710144, -0.008138769306242466]","[3.798073115003808, 3.798073115003808, 4.285440390025987, 2.6302640264026405, 2.6302640264026405, 2.6302640264026405]",0.0,0.0,0.0,0.0,0.0,0.0,0.0,0.0,0.0,0.0,0.0,0.0,0.0,0.0,0.0,0.5701320984203067,0.04792863384395622,0.02622471119740777,1.0,0.0,0.0,0.0,0.0,11.0,0.0,0.0,0.0,0.0,0.0,0.0,0.0,0.0,0.0
28611,1729.912,1778805740.5978563,1729.912,"[0.5248565673828125, -1.6560938994037073, -1.1340225378619593, -1.8413212935077112, 1.533949375152588, 2.10127329826355]","[0.5701320160951061, 0.05334011626161489, 0.0288155915735967, 2.814824652223302, -0.02415109026518664, 1.380109597914644]","[-0.011147885191108294, 1.247893653076351, 1.7124811368785118, 1.1383519010806358, -0.2546255201561442, -0.0081877520865379]","[-0.011147885583341122, 1.2478936910629272, 1.712481141090393, 1.1383519172668457, -0.254625529050827, -0.008187752217054367]","[3.798073115003808, 3.798073115003808, 4.285440390025987, 2.6302640264026405, 2.6302640264026405, 2.6302640264026405]",0.0,0.0,0.0,0.0,0.0,0.0,0.0,0.0,0.0,0.0,0.0,0.0,0.0,0.0,0.0,0.5701322199326886,0.05153638167982671,0.02795217953551321,1.0,0.0,0.0,0.0,0.0,11.0,0.0,0.0,0.0,0.0,0.0,0.0,0.0,0.0,0.0
28612,1729.9199999999998,1778805740.5988562,1729.9199999999998,"[0.52994704246521, -1.6589015165912073, -1.126521412526266, -1.8462031523333948, 1.5335382223129272, 2.1063506603240967]","[0.5701319634127203, 0.055143940267350214, 0.02967916498204115, 2.8148246908306462, -0.024151045111255806, 1.3801092172848044]","[-0.01126073737479515, 1.2493473091865581, 1.7103802010838733, 1.136817901352277, -0.25703336744996075, -0.008235273008164049]","[-0.011260737664997578, 1.2493473291397095, 1.71038019657135, 1.1368179321289062, -0.2570333778858185, -0.008235272951424122]","[3.798073115003808, 3.798073115003808, 4.285440390025987, 2.6302640264026405, 2.6302640264026405, 2.6302640264026405]",0.0,0.0,0.0,0.0,0.0,0.0,0.0,0.0,0.0,0.0,0.0,0.0,0.0,0.0,0.0,0.5701320160951061,0.05334011626161489,0.0288155915735967,1.0,0.0,0.0,0.0,0.0,11.0,0.0,0.0,0.0,0.0,0.0,0.0,0.0,0.0,0.0
28614,1729.936,1778805740.5998638,1729.936,"[0.5400654673576355, -1.6647241751300257, -1.111232105885641, -1.8560493628131312, 1.5327239036560059, 2.116443395614624]","[0.5701321120845648, 0.05875179345012467, 0.03140672772049208, 2.814824695204359, -0.024151231802264878, 1.3801098914340368]","[-0.011468825096828401, 1.2523698756137347, 1.7061291216742487, 1.133700674680419, -0.26180031626810074, -0.008325909194948286]","[-0.011468824930489063, 1.2523698806762695, 1.7061290740966797, 1.1337007284164429, -0.2618003189563751, -0.0083259092643857]","[3.798073115003808, 3.798073115003808, 4.285440390025987, 2.6302640264026405, 2.6302640264026405, 2.6302640264026405]",0.0,0.0,0.0,0.0,0.0,0.0,0.0,0.0,0.0,0.0,0.0,0.0,0.0,0.0,0.0,0.5701320958416564,0.056947887736965325,0.030543133560170133,1.0,0.0,0.0,0.0,0.0,11.0,0.0,0.0,0.0,0.0,0.0,0.0,0.0,0.0,0.0
28615,1729.944,1778805740.5998638,1729.944,"[0.5450931191444397, -1.6677406469928187, -1.1034405867206019, -1.861016098652975, 1.5323206186294556, 2.1214585304260254]","[0.5701322147156357, 0.060555705740429636, 0.032270531577055894, 2.8148245926836344, -0.02415128949066226, 1.3801102147738955]","[-0.011563878864764454, 1.2539359861257953, 1.7039800649842143, 1.1321169521287064, -0.2641592694703578, -0.008369015723410667]","[-0.011563878506422043, 1.2539359331130981, 1.7039800882339478, 1.1321169137954712, -0.26415926218032837, -0.008369015529751778]","[3.798073115003808, 3.798073115003808, 4.285440390025987, 2.6302640264026405, 2.6302640264026405, 2.6302640264026405]",0.0,0.0,0.0,0.0,0.0,0.0,0.0,0.0,0.0,0.0,0.0,0.0,0.0,0.0,0.0,0.5701320958416564,0.056947887736965325,0.030543133560170133,1.0,0.0,0.0,0.0,0.0,11.0,0.0,0.0,0.0,0.0,0.0,0.0,0.0,0.0,0.0
28616,1729.952,1778805740.5998638,1729.952,"[0.5500993728637695, -1.6708276907550257, -1.0955494085894983, -1.8660133520709437, 1.531920075416565, 2.1264524459838867]","[0.5701321835762685, 0.06235955267309032, 0.03313424310325036, 2.814824609490242, -0.024151250380298608, 1.3801101868303742]","[-0.011652813507767746, 1.2555366186653343, 1.7018161399278948, 1.1305160959122424, -0.2665017838535472, -0.008410643215731548]","[-0.011652813293039799, 1.255536675453186, 1.7018160820007324, 1.1305160522460938, -0.266501784324646, -0.008410642854869366]","[3.798073115003808, 3.798073115003808, 4.285440390025987, 2.6302640264026405, 2.6302640264026405, 2.6302640264026405]",0.0,0.0,0.0,0.0,0.0,0.0,0.0,0.0,0.0,0.0,0.0,0.0,0.0,0.0,0.0,0.5701322147156357,0.060555705740429636,0.032270531577055894,1.0,0.0,0.0,0.0,0.0,11.0,0.0,0.0,0.0,0.0,0.0,0.0,0.0,0.0,0.0
28617,1729.9599999999998,1778805740.5998638,1729.9599999999998,"[0.5550751090049744, -1.6739805380450647, -1.0875714460956019, -1.871033016835348, 1.5315229892730713, 2.131416082382202]","[0.5701319853702603, 0.06416005305961855, 0.033996084284181105, 2.8148247796009733, -0.024151019515373216, 1.3801092621898505]","[-0.09540914154597291, 1.2827831345907725, 1.6428072834910223, 1.1087615889188664, -0.294335925125413, -0.007888939383484993]","[-0.09540913999080658, 1.2827831506729126, 1.6428072452545166, 1.1087615489959717, -0.2943359315395355, -0.00788893923163414]","[3.798073115003808, 3.798073115003808, 4.285440390025987, 2.6302640264026405, 2.6302640264026405, 2.6302640264026405]",0.0,0.0,0.0,0.0,0.0,0.0,0.0,0.0,0.0,0.0,0.0,0.0,0.0,0.0,0.0,0.5701321835762685,0.06235955267309032,0.03313424310325036,1.0,0.0,0.0,0.0,0.0,11.0,0.0,0.0,0.0,0.0,0.0,0.0,0.0,0.0,0.0
28618,1729.9679999999998,1778805740.600859,1729.9679999999998,"[0.5598891973495483, -1.6771124045001429, -1.0797203222857874, -1.8759411017047327, 1.531139612197876, 2.136218547821045]","[0.5701321597299203, 0.06590972186202612, 0.034834068986357936, 2.814824646840527, -0.02415112639044977, 1.3801102152873526]","[-0.30531370750828724, 1.353766124597348, 1.4952094046546716, 1.0562610760459188, -0.36026854209722753, -0.006127562264282239]","[-0.30531370639801025, 1.3537660837173462, 1.4952094554901123, 1.0562610626220703, -0.3602685332298279, -0.006127562373876572]","[3.798073115003808, 3.798073115003808, 4.285440390025987, 2.6302640264026405, 2.6302640264026405, 2.6302640264026405]",0.0,0.0,0.0,0.0,0.0,0.0,0.0,0.0,0.0,0.0,0.0,0.0,0.0,0.0,0.0,0.5701319853702603,0.06416005305961855,0.033996084284181105,1.0,0.0,0.0,0.0,0.0,11.0,0.0,0.0,0.0,0.0,0.0,0.0,0.0,0.0,0.0
28619,1729.9759999999999,1778805740.600859,1729.9759999999999,"[0.5644933581352234, -1.6801851431476038, -1.0720866362201136, -1.8806851545916956, 1.5307738780975342, 2.1408119201660156]","[0.5701321392374044, 0.06758999804764389, 0.035638540717604805, 2.814824653858009, -0.02415124738231151, 1.3801099625448239]","[-0.30415734857749244, 1.3624325165676119, 1.4894839103859145, 1.0552255181759704, -0.36207680143724097, -0.005577742903061263]","[-0.3041573464870453, 1.3624324798583984, 1.4894839525222778, 1.0552254915237427, -0.3620767891407013, -0.005577743053436279]","[3.798073115003808, 3.798073115003808, 4.285440390025987, 2.6302640264026405, 2.6302640264026405, 2.6302640264026405]",0.0,0.0,0.0,0.0,0.0,0.0,0.0,0.0,0.0,0.0,0.0,0.0,0.0,0.0,0.0,0.5701321597299203,0.06590972186202612,0.034834068986357936,1.0,0.0,0.0,0.0,0.0,11.0,0.0,0.0,0.0,0.0,0.0,0.0,0.0,0.0,0.0
28620,1729.984,1778805740.601384,1729.984,"[0.5688897967338562, -1.683190647755758, -1.0646804014789026, -1.8852618376361292, 1.5304254293441772, 2.145198106765747]","[0.5701322038156894, 0.0692010652162495, 0.03641003545972704, 2.81482461633612, -0.024151425710104348, 1.3801103792698137]","[-0.3029495008277169, 1.370842586130398, 1.4839283896078392, 1.0542895388407878, -0.3637704787872728, -0.005043603255613863]","[-0.3029494881629944, 1.3708425760269165, 1.4839284420013428, 1.0542895793914795, -0.3637704849243164, -0.005043603479862213]","[3.798073115003808, 3.798073115003808, 4.285440390025987, 2.6302640264026405, 2.6302640264026405, 2.6302640264026405]",0.0,0.0,0.0,0.0,0.0,0.0,0.0,0.0,0.0,0.0,0.0,0.0,0.0,0.0,0.0,0.5701321597299203,0.06590972186202612,0.034834068986357936,1.0,0.0,0.0,0.0,0.0,11.0,0.0,0.0,0.0,0.0,0.0,0.0,0.0,0.0,0.0
28621,1729.992,1778805740.601384,1729.992,"[0.5730807185173035, -1.6861227194415491, -1.0575111548053187, -1.8896692434894007, 1.5300939083099365, 2.149379253387451]","[0.5701320135300917, 0.07074268570006118, 0.037147937993988245, 2.81482467897971, -0.024150974765592324, 1.3801093304229348]","[-0.30177748420719713, 1.3790125381473408, 1.4784943086808406, 1.0534297925113045, -0.3653767152608517, -0.004525717862924725]","[-0.3017774820327759, 1.3790125846862793, 1.4784942865371704, 1.0534298419952393, -0.36537671089172363, -0.004525717813521624]","[3.798073115003808, 3.798073115003808, 4.285440390025987, 2.6302640264026405, 2.6302640264026405, 2.6302640264026405]",0.0,0.0,0.0,0.0,0.0,0.0,0.0,0.0,0.0,0.0,0.0,0.0,0.0,0.0,0.0,0.5701322038156894,0.0692010652162495,0.03641003545972704,1.0,0.0,0.0,0.0,0.0,11.0,0.0,0.0,0.0,0.0,0.0,0.0,0.0,0.0,0.0
28622,1730.0,1778805740.601384,1730.0,"[0.5770682096481323, -1.6889737288104456, -1.0505884329425257, -1.8939035574542444, 1.5297791957855225, 2.15335750579834]","[0.5701319781806948, 0.07221518234075766, 0.0378529204106981, 2.814824720311156, -0.02415075818253597, 1.380109229279347]","[-0.300644779258767, 1.386932686944891, 1.4731902241944261, 1.0526431359829742, -0.36689735937069656, -0.004025099078275875]","[-0.30064478516578674, 1.3869327306747437, 1.473190188407898, 1.0526431798934937, -0.3668973445892334, -0.004025098867714405]","[3.798073115003808, 3.798073115003808, 4.285440390025987, 2.6302640264026405, 2.6302640264026405, 2.6302640264026405]",0.0,0.0,0.0,0.0,0.0,0.0,0.0,0.0,0.0,0.0,0.0,0.0,0.0,0.0,0.0,0.5701320135300917,0.07074268570006118,0.037147937993988245,1.0,0.0,0.0,0.0,0.0,11.0,0.0,0.0,0.0,0.0,0.0,0.0,0.0,0.0,0.0
28623,1730.0079999999998,1778805740.6024015,1730.0079999999998,"[0.5808542370796204, -1.691737476979391, -1.0439208189593714, -1.8979623953448694, 1.529481053352356, 2.157135009765625]","[0.5701321138995301, 0.07361851457442892, 0.038524994188331274, 2.8148247099863792, -0.024151031000032883, 1.3801098741379927]","[-0.2995539414354269, 1.3945927962123281, 1.468025604268504, 1.0519263533251697, -0.36833401640997443, -0.0035426662680014638]","[-0.29955393075942993, 1.3945927619934082, 1.4680255651474, 1.0519263744354248, -0.368334025144577, -0.0035426663234829903]","[3.798073115003808, 3.798073115003808, 4.285440390025987, 2.6302640264026405, 2.6302640264026405, 2.6302640264026405]",0.0,0.0,0.0,0.0,0.0,0.0,0.0,0.0,0.0,0.0,0.0,0.0,0.0,0.0,0.0,0.5701319781806948,0.07221518234075766,0.0378529204106981,1.0,0.0,0.0,0.0,0.0,11.0,0.0,0.0,0.0,0.0,0.0,0.0,0.0,0.0,0.0
28624,1730.0159999999998,1778805740.6024015,1730.0159999999998,"[0.5844408273696899, -1.6944072882281702, -1.037518326436178, -1.9018433729754847, 1.5291991233825684, 2.1607136726379395]","[0.5701320371459181, 0.07495242300900949, 0.039163752128245966, 2.814824700722055, -0.024151190100216664, 1.380109867998229]","[-0.2985072000824983, 1.4019822838255023, 1.463010395158444, 1.0512760382553463, -0.36968822067082896, -0.0030792491316315894]","[-0.2985072135925293, 1.401982307434082, 1.4630104303359985, 1.0512760877609253, -0.3696882128715515, -0.003079249057918787]","[3.798073115003808, 3.798073115003808, 4.285440390025987, 2.6302640264026405, 2.6302640264026405, 2.6302640264026405]",0.0,0.0,0.0,0.0,0.0,0.0,0.0,0.0,0.0,0.0,0.0,0.0,0.0,0.0,0.0,0.5701321138995301,0.07361851457442892,0.038524994188331274,1.0,0.0,0.0,0.0,0.0,11.0,0.0,0.0,0.0,0.0,0.0,0.0,0.0,0.0,0.0
28625,1730.024,1778805740.6039178,1730.024,"[0.5878297686576843, -1.6969779173480433, -1.0313895384417933, -1.9055431524859827, 1.5289331674575806, 2.164095163345337]","[0.570131948797108, 0.07621702376355202, 0.03976902081263717, 2.814824717454623, -0.024151040424168834, 1.3801091047717404]","[-0.29750648624021403, 1.40909025768088, 1.4581549682461628, 1.0506886190948392, -0.3709614359116314, -0.0026355948232642786]","[-0.2975064814090729, 1.409090280532837, 1.4581549167633057, 1.050688624382019, -0.37096142768859863, -0.0026355949230492115]","[3.798073115003808, 3.798073115003808, 4.285440390025987, 2.6302640264026405, 2.6302640264026405, 2.6302640264026405]",0.0,0.0,0.0,0.0,0.0,0.0,0.0,0.0,0.0,0.0,0.0,0.0,0.0,0.0,0.0,0.5701321138995301,0.07361851457442892,0.038524994188331274,1.0,0.0,0.0,0.0,0.0,11.0,0.0,0.0,0.0,0.0,0.0,0.0,0.0,0.0,0.0
28626,1730.032,1778805740.6084719,1730.032,"[0.5910228490829468, -1.699442211781637, -1.0255425612079065, -1.9090588728534144, 1.528683066368103, 2.167281150817871]","[0.5701321136748829, 0.0774125741987742, 0.040341696651305214, 2.8148246826553063, -0.02415119208557734, 1.3801100829645356]","[-0.2965534561672364, 1.4159055614177278, 1.4534700605943418, 1.050160387143337, -0.37215505485738365, -0.002212374770414042]","[-0.29655346274375916, 1.4159055948257446, 1.4534701108932495, 1.0501604080200195, -0.3721550405025482, -0.0022123747039586306]","[3.798073115003808, 3.798073115003808, 4.285440390025987, 2.6302640264026405, 2.6302640264026405, 2.6302640264026405]",0.0,0.0,0.0,0.0,0.0,0.0,0.0,0.0,0.0,0.0,0.0,0.0,0.0,0.0,0.0,0.570131948797108,0.07621702376355202,0.03976902081263717,1.0,0.0,0.0,0.0,0.0,11.0,0.0,0.0,0.0,0.0,0.0,0.0,0.0,0.0,0.0
28627,1730.04,1778805740.6084719,1730.04,"[0.5940217971801758, -1.7017954031573694, -1.0199864546405237, -1.9123881498919886, 1.528448462486267, 2.170273542404175]","[0.5701321314712763, 0.07853869882975342, 0.040880881909162115, 2.8148246133558077, -0.024151085817184035, 1.3801100884291035]","[-0.295649514450603, 1.422416831065988, 1.4489667064677758, 1.0496875275338486, -0.37327039888495955, -0.0018101911467771979]","[-0.29564952850341797, 1.4224168062210083, 1.4489667415618896, 1.0496875047683716, -0.3732703924179077, -0.001810191199183464]","[3.798073115003808, 3.798073115003808, 4.285440390025987, 2.6302640264026405, 2.6302640264026405, 2.6302640264026405]",0.0,0.0,0.0,0.0,0.0,0.0,0.0,0.0,0.0,0.0,0.0,0.0,0.0,0.0,0.0,0.5701321136748829,0.0774125741987742,0.040341696651305214,1.0,0.0,0.0,0.0,0.0,11.0,0.0,0.0,0.0,0.0,0.0,0.0,0.0,0.0,0.0
28628,1730.048,1778805740.6084719,1730.048,"[0.5968282222747803, -1.7040322462665003, -1.014728848134176, -1.9155281225787562, 1.5282293558120728, 2.1730740070343018]","[0.5701321135152965, 0.07959556655916103, 0.041386712651999336, 2.814824645462401, -0.024151078967762574, 1.3801095843731173]","[-0.2947958367069036, 1.4286125624430273, 1.4446561598754295, 1.0492661525123261, -0.3743087178647277, -0.0014295829769912245]","[-0.29479584097862244, 1.4286125898361206, 1.4446561336517334, 1.0492660999298096, -0.374308705329895, -0.0014295829460024834]","[3.798073115003808, 3.798073115003808, 4.285440390025987, 2.6302640264026405, 2.6302640264026405, 2.6302640264026405]",0.0,0.0,0.0,0.0,0.0,0.0,0.0,0.0,0.0,0.0,0.0,0.0,0.0,0.0,0.0,0.5701321314712763,0.07853869882975342,0.040880881909162115,1.0,0.0,0.0,0.0,0.0,11.0,0.0,0.0,0.0,0.0,0.0,0.0,0.0,0.0,0.0
28629,1730.0559999999998,1778805740.657509,1730.0559999999998,"[0.5994436144828796, -1.706146542225973, -1.0097773710833948, -1.918476406727926, 1.528025507926941, 2.1756837368011475]","[0.5701321031949733, 0.08058322391115197, 0.04185971381425718, 2.8148247124643158, -0.024151082700958695, 1.3801098742909874]","[-0.29399339181629475, 1.4344811886691207, 1.4405498086121467, 1.0488923370086778, -0.3752711901286251, -0.0010710318636952675]","[-0.29399338364601135, 1.434481143951416, 1.4405498504638672, 1.0488923788070679, -0.375271201133728, -0.001071031903848052]","[3.798073115003808, 3.798073115003808, 4.285440390025987, 2.6302640264026405, 2.6302640264026405, 2.6302640264026405]",0.0,0.0,0.0,0.0,0.0,0.0,0.0,0.0,0.0,0.0,0.0,0.0,0.0,0.0,0.0,0.5701321135152965,0.07959556655916103,0.041386712651999336,1.0,0.0,0.0,0.0,0.0,11.0,0.0,0.0,0.0,0.0,0.0,0.0,0.0,0.0,0.0
28633,1730.088,1778805740.6585104,1730.088,"[0.6080219149589539, -1.7132933775531214, -0.9931758085833948, -1.9283002058612269, 1.5273587703704834, 2.184244155883789]","[0.5701320679257239, 0.08384091645135473, 0.043419467147103985, 2.8148247165961253, -0.02415118586468216, 1.3801095694121182]","[-0.2913092811454203, 1.4544562007699016, 1.4263933496497043, 1.047795015681856, -0.3783836795591866, 0.00013469215541050996]","[-0.29130926728248596, 1.4544562101364136, 1.4263933897018433, 1.047795057296753, -0.37838366627693176, 0.00013469214900396764]","[3.798073115003808, 3.798073115003808, 4.285440390025987, 2.6302640264026405, 2.6302640264026405, 2.6302640264026405]",0.0,0.0,0.0,0.0,0.0,0.0,0.0,0.0,0.0,0.0,0.0,0.0,0.0,0.0,0.0,0.5701319997566587,0.08313035213050501,0.04307925170798482,1.0,0.0,0.0,0.0,0.0,11.0,0.0,0.0,0.0,0.0,0.0,0.0,0.0,0.0,0.0
28634,1730.096,1778805740.7191405,1730.096,"[0.6097016334533691, -1.714731518422262, -0.9898584524737757, -1.9302523771869105, 1.527228593826294, 2.185920238494873]","[0.5701320390256625, 0.08448219714513662, 0.04372647599775348, 2.8148247889270275, -0.02415092061539133, 1.3801095147213573]","[-0.29077178289473193, 1.4585201162985375, 1.4234765426624811, 1.0476015354029526, -0.37898209615170975, 0.000377392636298043]","[-0.2907717823982239, 1.4585201740264893, 1.4234765768051147, 1.047601580619812, -0.3789820969104767, 0.0003773926291614771]","[3.798073115003808, 3.798073115003808, 4.285440390025987, 2.6302640264026405, 2.6302640264026405, 2.6302640264026405]",0.0,0.0,0.0,0.0,0.0,0.0,0.0,0.0,0.0,0.0,0.0,0.0,0.0,0.0,0.0,0.5701320679257239,0.08384091645135473,0.043419467147103985,1.0,0.0,0.0,0.0,0.0,11.0,0.0,0.0,0.0,0.0,0.0,0.0,0.0,0.0,0.0
28690,1730.5439999999999,1778805741.5345328,1730.5439999999999,"[0.443538635969162, -1.6211331526385706, -1.2389820257769983, -1.7686050573932093, 1.54063880443573, 2.0201852321624756]","[0.5701319913568069, 0.025406798982316847, 0.015440903048916432, 2.814824743206384, -0.024150971974198573, 1.380109413945535]","[-0.009100957463689613, 1.2311754648670301, 1.7431737770163798, 1.160172685140012, -0.21552868424002042, -0.0072852465908632156]","[-0.00910095777362585, 1.231175422668457, 1.7431737184524536, 1.160172700881958, -0.2155286818742752, -0.007285246625542641]","[3.798073115003808, 3.798073115003808, 4.285440390025987, 2.6302640264026405, 2.6302640264026405, 2.6302640264026405]",0.0,0.0,0.0,0.0,0.0,0.0,0.0,0.0,0.0,0.0,0.0,0.0,0.0,0.0,0.0,0.5701321336204968,0.029014643525573487,0.017168530563157258,1.0,0.0,0.0,0.0,0.0,11.0,0.0,0.0,0.0,0.0,0.0,0.0,0.0,0.0,0.0
28691,1730.552,1778805741.5360656,1730.552,"[0.43813806772232056, -1.6194093863116663, -1.245086971913473, -1.764062229787008, 1.5410906076431274, 2.014801263809204]","[0.5701320919321654, 0.02360294428326669, 0.014577449739812953, 2.8148246117503724, -0.024151267317450445, 1.3801101362138555]","[-0.00891284047508868, 1.2305015594676072, 1.7449308111975363, 1.161444199808403, -0.21286937173404893, -0.007214790659689723]","[-0.008912840858101845, 1.2305015325546265, 1.7449308633804321, 1.1614441871643066, -0.21286937594413757, -0.007214790675789118]","[3.798073115003808, 3.798073115003808, 4.285440390025987, 2.6302640264026405, 2.6302640264026405, 2.6302640264026405]",0.0,0.0,0.0,0.0,0.0,0.0,0.0,0.0,0.0,0.0,0.0,0.0,0.0,0.0,0.0,0.5701319913568069,0.025406798982316847,0.015440903048916432,1.0,0.0,0.0,0.0,0.0,11.0,0.0,0.0,0.0,0.0,0.0,0.0,0.0,0.0,0.0
28692,1730.56,1778805741.5360656,1730.56,"[0.43272095918655396, -1.6177495161639612, -1.251115624104635, -1.7595346609698694, 1.5415446758270264, 2.0094008445739746]","[0.5701319990659274, 0.021799025639790994, 0.013713521467245748, 2.814824782006489, -0.02415114339529846, 1.3801095709447935]","[-0.008720214587702784, 1.2298801051407802, 1.7466668398909444, 1.1626999947289538, -0.21019597358932354, -0.00714312234544521]","[-0.00872021447867155, 1.2298800945281982, 1.7466667890548706, 1.1626999378204346, -0.21019597351551056, -0.007143122144043446]","[3.798073115003808, 3.798073115003808, 4.285440390025987, 2.6302640264026405, 2.6302640264026405, 2.6302640264026405]",0.0,0.0,0.0,0.0,0.0,0.0,0.0,0.0,0.0,0.0,0.0,0.0,0.0,0.0,0.0,0.5701320919321654,0.02360294428326669,0.014577449739812953,1.0,0.0,0.0,0.0,0.0,11.0,0.0,0.0,0.0,0.0,0.0,0.0,0.0,0.0,0.0
28693,1730.568,1778805741.5370858,1730.568,"[0.42728760838508606, -1.616152588521139, -1.2570679823504847, -1.755021874104635, 1.5420008897781372, 2.0039844512939453]","[0.5701320677299868, 0.019995127826317023, 0.01284988835159151, 2.8148246958368217, -0.024151257820619984, 1.380109816660944]","[-0.008523179288670921, 1.2293115816679634, 1.7483816537063808, 1.163939974660711, -0.20750865376611394, -0.00707026097871065]","[-0.008523179218173027, 1.2293115854263306, 1.7483816146850586, 1.1639399528503418, -0.2075086534023285, -0.007070261053740978]","[3.798073115003808, 3.798073115003808, 4.285440390025987, 2.6302640264026405, 2.6302640264026405, 2.6302640264026405]",0.0,0.0,0.0,0.0,0.0,0.0,0.0,0.0,0.0,0.0,0.0,0.0,0.0,0.0,0.0,0.5701319990659274,0.021799025639790994,0.013713521467245748,1.0,0.0,0.0,0.0,0.0,11.0,0.0,0.0,0.0,0.0,0.0,0.0,0.0,0.0,0.0
28694,1730.576,1778805741.5380847,1730.576,"[0.42183834314346313, -1.6146186033831995, -1.2629450003253382, -1.7505233923541468, 1.54245924949646, 1.9985522031784058]","[0.5701321839662556, 0.0181912660848639, 0.011986311852051845, 2.8148245758410884, -0.024151191690987485, 1.3801102667482923]","[-0.008321835764561128, 1.2287964427294233, 1.7500750499993514, 1.1651640384073916, -0.20480758132484947, -0.006996226924618612]","[-0.008321835659444332, 1.2287964820861816, 1.750075101852417, 1.1651639938354492, -0.2048075795173645, -0.006996226962655783]","[3.798073115003808, 3.798073115003808, 4.285440390025987, 2.6302640264026405, 2.6302640264026405, 2.6302640264026405]",0.0,0.0,0.0,0.0,0.0,0.0,0.0,0.0,0.0,0.0,0.0,0.0,0.0,0.0,0.0,0.5701320677299868,0.019995127826317023,0.01284988835159151,1.0,0.0,0.0,0.0,0.0,11.0,0.0,0.0,0.0,0.0,0.0,0.0,0.0,0.0,0.0
28695,1730.5839999999998,1778805741.5380847,1730.5839999999998,"[0.41637343168258667, -1.6131470839129847, -1.268747631703512, -1.7460387388812464, 1.5429198741912842, 1.9931045770645142]","[0.5701322692830051, 0.01638742516931809, 0.011122786967334153, 2.814824496178474, -0.024151336394949575, 1.380110902223843]","[-0.008116286976416236, 1.228335117207574, 1.7517468321787408, 1.166372079476753, -0.20209293038748474, -0.006921041569252279]","[-0.008116287179291248, 1.2283351421356201, 1.7517467737197876, 1.1663720607757568, -0.20209293067455292, -0.006921041756868362]","[3.798073115003808, 3.798073115003808, 4.285440390025987, 2.6302640264026405, 2.6302640264026405, 2.6302640264026405]",0.0,0.0,0.0,0.0,0.0,0.0,0.0,0.0,0.0,0.0,0.0,0.0,0.0,0.0,0.0,0.5701320677299868,0.019995127826317023,0.01284988835159151,1.0,0.0,0.0,0.0,0.0,11.0,0.0,0.0,0.0,0.0,0.0,0.0,0.0,0.0,0.0
28696,1730.5919999999999,1778805741.5390785,1730.5919999999999,"[0.4109831154346466, -1.6117613951312464, -1.2743828932391565, -1.741640869771139, 1.5433748960494995, 1.9877314567565918]","[0.5701322719106388, 0.014613040475615553, 0.010273086206976978, 2.8148244872511134, -0.02415123074159379, 1.3801105615311324]","[0.2703150654586316, 1.2107521173751958, 1.9147264225207723, 1.2284005169842105, -0.10845214668579375, -0.004251986157531464]","[0.2703150510787964, 1.2107521295547485, 1.9147263765335083, 1.228400468826294, -0.10845214873552322, -0.004251986276358366]","[3.798073115003808, 3.798073115003808, 4.285440390025987, 2.6302640264026405, 2.6302640264026405, 2.6302640264026405]",0.0,0.0,0.0,0.0,0.0,0.0,0.0,0.0,0.0,0.0,0.0,0.0,0.0,0.0,0.0,0.5701322692830051,0.01638742516931809,0.011122786967334153,1.0,0.0,0.0,0.0,0.0,11.0,0.0,0.0,0.0,0.0,0.0,0.0,0.0,0.0,0.0
28697,1730.6,1778805741.540152,1730.6,"[0.4057863652706146, -1.6104853788958948, -1.2797344366656702, -1.7374241987811487, 1.5438144207000732, 1.9825514554977417]","[0.5701322951491345, 0.012906933273376525, 0.009456331144398089, 2.8148244122968467, -0.02415137966459332, 1.3801109185821716]","[0.29805484191941195, 1.2147045980836535, 1.9291862729730578, 1.235109724437356, -0.09674169039366563, -0.0035510859501133815]","[0.29805484414100647, 1.2147046327590942, 1.929186224937439, 1.2351096868515015, -0.0967416912317276, -0.0035510859452188015]","[3.798073115003808, 3.798073115003808, 4.285440390025987, 2.6302640264026405, 2.6302640264026405, 2.6302640264026405]",0.0,0.0,0.0,0.0,0.0,0.0,0.0,0.0,0.0,0.0,0.0,0.0,0.0,0.0,0.0,0.5701322719106388,0.014613040475615553,0.010273086206976978,1.0,0.0,0.0,0.0,0.0,11.0,0.0,0.0,0.0,0.0,0.0,0.0,0.0,0.0,0.0
28698,1730.608,1778805741.5406585,1730.608,"[0.40078821778297424, -1.6093137899981897, -1.2848075071917933, -1.733389679585592, 1.5442378520965576, 1.9775694608688354]","[0.5701321607999044, 0.011270050868554059, 0.008672484337190978, 2.8148245591114773, -0.02415127212246825, 1.3801104604003627]","[0.29918324271121344, 1.2203601137038373, 1.928151736477181, 1.2359799423619329, -0.093841414495044, -0.0031093953187717126]","[0.2991832494735718, 1.2203601598739624, 1.9281517267227173, 1.2359799146652222, -0.09384141117334366, -0.003109395271167159]","[3.798073115003808, 3.798073115003808, 4.285440390025987, 2.6302640264026405, 2.6302640264026405, 2.6302640264026405]",0.0,0.0,0.0,0.0,0.0,0.0,0.0,0.0,0.0,0.0,0.0,0.0,0.0,0.0,0.0,0.5701322951491345,0.012906933273376525,0.009456331144398089,1.0,0.0,0.0,0.0,0.0,11.0,0.0,0.0,0.0,0.0,0.0,0.0,0.0,0.0,0.0
28699,1730.616,1778805741.5406585,1730.616,"[0.39599043130874634, -1.6082399527179163, -1.2896102110492151, -1.7295354048358362, 1.544644832611084, 1.9727873802185059]","[0.5701319872445025, 0.009702348938572608, 0.007921633265184358, 2.8148246698993282, -0.024151174893657406, 1.3801095738117801]","[0.3001026742274924, 1.2258169142713284, 1.9270871438459782, 1.2367564576016035, -0.09109720073518897, -0.002698470801402057]","[0.30010268092155457, 1.2258169651031494, 1.9270871877670288, 1.236756443977356, -0.09109719842672348, -0.002698470838367939]","[3.798073115003808, 3.798073115003808, 4.285440390025987, 2.6302640264026405, 2.6302640264026405, 2.6302640264026405]",0.0,0.0,0.0,0.0,0.0,0.0,0.0,0.0,0.0,0.0,0.0,0.0,0.0,0.0,0.0,0.5701321607999044,0.011270050868554059,0.008672484337190978,1.0,0.0,0.0,0.0,0.0,11.0,0.0,0.0,0.0,0.0,0.0,0.0,0.0,0.0,0.0
28700,1730.624,1778805741.5416644,1730.624,"[0.391394704580307, -1.6072571913348597, -1.2941492239581507, -1.7258594671832483, 1.5450353622436523, 1.9682066440582275]","[0.5701322882490003, 0.008204224272166508, 0.007204556278511354, 2.8148245146824826, -0.024151309642207328, 1.3801107392370313]","[0.3009508152360148, 1.2310638501043298, 1.9260687052245629, 1.2374723665649234, -0.08846617697805254, -0.0023158346492927087]","[0.300950825214386, 1.2310638427734375, 1.926068663597107, 1.237472414970398, -0.08846617490053177, -0.002315834630280733]","[3.798073115003808, 3.798073115003808, 4.285440390025987, 2.6302640264026405, 2.6302640264026405, 2.6302640264026405]",0.0,0.0,0.0,0.0,0.0,0.0,0.0,0.0,0.0,0.0,0.0,0.0,0.0,0.0,0.0,0.5701321607999044,0.011270050868554059,0.008672484337190978,1.0,0.0,0.0,0.0,0.0,11.0,0.0,0.0,0.0,0.0,0.0,0.0,0.0,0.0,0.0
28701,1730.6319999999998,1778805741.5416644,1730.6319999999998,"[0.38700249791145325, -1.6063597838031214, -1.2984331289874476, -1.7223618666278284, 1.5454089641571045, 1.9638289213180542]","[0.5701320161307745, 0.006775036271786114, 0.006519961483038905, 2.8148247203749373, -0.02415103484060979, 1.3801095322856651]","[0.3017319545577557, 1.2360981445778696, 1.9250953659799015, 1.238131635428271, -0.08594925804947784, -0.0019602271578838745]","[0.3017319440841675, 1.2360981702804565, 1.9250953197479248, 1.2381316423416138, -0.08594925701618195, -0.0019602272659540176]","[3.798073115003808, 3.798073115003808, 4.285440390025987, 2.6302640264026405, 2.6302640264026405, 2.6302640264026405]",0.0,0.0,0.0,0.0,0.0,0.0,0.0,0.0,0.0,0.0,0.0,0.0,0.0,0.0,0.0,0.5701322882490003,0.008204224272166508,0.007204556278511354,1.0,0.0,0.0,0.0,0.0,11.0,0.0,0.0,0.0,0.0,0.0,0.0,0.0,0.0,0.0
28702,1730.6399999999999,1778805741.5426679,1730.6399999999999,"[0.38281527161598206, -1.6055415312396448, -1.302467171345846, -1.7190402189837855, 1.54576575756073, 1.9596556425094604]","[0.5701321934199426, 0.0054153809610574125, 0.005869225139378542, 2.814824596766463, -0.02415134741336785, 1.3801104678852885]","[0.3024494634796311, 1.240916983711417, 1.9241659334201928, 1.2387377338396217, -0.08354757945823638, -0.0016304147616364667]","[0.30244946479797363, 1.2409169673919678, 1.924165964126587, 1.23873770236969, -0.08354757726192474, -0.001630414742976427]","[3.798073115003808, 3.798073115003808, 4.285440390025987, 2.6302640264026405, 2.6302640264026405, 2.6302640264026405]",0.0,0.0,0.0,0.0,0.0,0.0,0.0,0.0,0.0,0.0,0.0,0.0,0.0,0.0,0.0,0.5701320161307745,0.006775036271786114,0.006519961483038905,1.0,0.0,0.0,0.0,0.0,11.0,0.0,0.0,0.0,0.0,0.0,0.0,0.0,0.0,0.0
28703,1730.648,1778805741.5426679,1730.648,"[0.3788343369960785, -1.604797665272848, -1.3062589804278772, -1.715893570576803, 1.5461052656173706, 1.9556879997253418]","[0.5701322555848674, 0.004124899704089741, 0.00525131510269472, 2.8148245574839694, -0.0241513824514603, 1.3801105774354303]","[0.3031066901741708, 1.2455175167399237, 1.9232795498454076, 1.2392938537765672, -0.08126219634478216, -0.001325187860703644]","[0.3031066954135895, 1.2455174922943115, 1.9232795238494873, 1.2392938137054443, -0.08126219362020493, -0.001325187855400145]","[3.798073115003808, 3.798073115003808, 4.285440390025987, 2.6302640264026405, 2.6302640264026405, 2.6302640264026405]",0.0,0.0,0.0,0.0,0.0,0.0,0.0,0.0,0.0,0.0,0.0,0.0,0.0,0.0,0.0,0.5701321934199426,0.0054153809610574125,0.005869225139378542,1.0,0.0,0.0,0.0,0.0,11.0,0.0,0.0,0.0,0.0,0.0,0.0,0.0,0.0,0.0
28704,1730.656,1778805741.543681,1730.656,"[0.37506091594696045, -1.6041224638568323, -1.3098142782794397, -1.712921444569723, 1.5464273691177368, 1.9519271850585938]","[0.5701321408156608, 0.002903600819488989, 0.004666503059199245, 2.814824566342773, -0.024151227665397797, 1.380110286197678]","[0.30370694162059386, 1.2498968994293782, 1.9224356426736828, 1.2398029300627251, -0.0790940841757674, -0.0010433668190452008]","[0.30370694398880005, 1.2498968839645386, 1.9224356412887573, 1.2398029565811157, -0.07909408211708069, -0.0010433668503537774]","[3.798073115003808, 3.798073115003808, 4.285440390025987, 2.6302640264026405, 2.6302640264026405, 2.6302640264026405]",0.0,0.0,0.0,0.0,0.0,0.0,0.0,0.0,0.0,0.0,0.0,0.0,0.0,0.0,0.0,0.5701322555848674,0.004124899704089741,0.00525131510269472,1.0,0.0,0.0,0.0,0.0,11.0,0.0,0.0,0.0,0.0,0.0,0.0,0.0,0.0,0.0
28705,1730.664,1778805741.543681,1730.664,"[0.3714961111545563, -1.6035116354571741, -1.3131378332721155, -1.7101224104510706, 1.5467320680618286, 1.9483743906021118]","[0.5701322531141673, 0.0017516948279800754, 0.004115079600657323, 2.8148244853831077, -0.024151319679979473, 1.3801106878513505]","[0.3042534614200499, 1.254052330430563, 1.9216338770196095, 1.240267657605876, -0.07704414157473512, -0.0007838075312732784]","[0.3042534589767456, 1.2540522813796997, 1.9216338396072388, 1.2402676343917847, -0.07704414427280426, -0.0007838075398467481]","[3.798073115003808, 3.798073115003808, 4.285440390025987, 2.6302640264026405, 2.6302640264026405, 2.6302640264026405]",0.0,0.0,0.0,0.0,0.0,0.0,0.0,0.0,0.0,0.0,0.0,0.0,0.0,0.0,0.0,0.5701322555848674,0.004124899704089741,0.00525131510269472,1.0,0.0,0.0,0.0,0.0,11.0,0.0,0.0,0.0,0.0,0.0,0.0,0.0,0.0,0.0
28706,1730.672,1778805741.543681,1730.672,"[0.36814096570014954, -1.6029604117022913, -1.3162358442889612, -1.7074959913836878, 1.547019124031067, 1.9450305700302124]","[0.5701321348624031, 0.0006689767147153346, 0.0035965522001641936, 2.814824627559269, -0.024151210337841802, 1.380110185173147]","[0.30474940963793634, 1.257981081242062, 1.9208741137972047, 1.2406905069357266, -0.07511319318214311, -0.000545406524767246]","[0.30474939942359924, 1.2579810619354248, 1.9208741188049316, 1.2406904697418213, -0.0751131922006607, -0.0005454065394587815]","[3.798073115003808, 3.798073115003808, 4.285440390025987, 2.6302640264026405, 2.6302640264026405, 2.6302640264026405]",0.0,0.0,0.0,0.0,0.0,0.0,0.0,0.0,0.0,0.0,0.0,0.0,0.0,0.0,0.0,0.5701322531141673,0.0017516948279800754,0.004115079600657323,1.0,0.0,0.0,0.0,0.0,11.0,0.0,0.0,0.0,0.0,0.0,0.0,0.0,0.0,0.0
28707,1730.6799999999998,1778805741.5446918,1730.6799999999998,"[0.36499640345573425, -1.60246450105776, -1.3191130797015589, -1.7050407568561, 1.547288417816162, 1.941896677017212]","[0.5701320969175823, -0.00034444060509419405, 0.0031112057630979795, 2.814824720203129, -0.024151173894027125, 1.3801099255440574]","[0.30519784467486816, 1.2616805209443138, 1.9201563724462147, 1.2410737382240058, -0.07330199248183264, -0.0003271055947341146]","[0.3051978349685669, 1.2616804838180542, 1.9201563596725464, 1.241073727607727, -0.07330199331045151, -0.0003271056048106402]","[3.798073115003808, 3.798073115003808, 4.285440390025987, 2.6302640264026405, 2.6302640264026405, 2.6302640264026405]",0.0,0.0,0.0,0.0,0.0,0.0,0.0,0.0,0.0,0.0,0.0,0.0,0.0,0.0,0.0,0.5701321348624031,0.0006689767147153346,0.0035965522001641936,1.0,0.0,0.0,0.0,0.0,11.0,0.0,0.0,0.0,0.0,0.0,0.0,0.0,0.0,0.0
28708,1730.6879999999999,1778805741.5446918,1730.6879999999999,"[0.36206331849098206, -1.6020196119891565, -1.3217738310443323, -1.7027562300311487, 1.5475397109985352, 1.9389735460281372]","[0.5701321983446951, -0.0012885712703433463, 0.0026592783251470076, 2.814824545678231, -0.024151162432200765, 1.3801104098450119]","[0.3056017069490113, 1.2651481362200632, 1.919480798035484, 1.241419413956868, -0.07161122458758333, -0.00012789601333533849]","[0.30560171604156494, 1.2651481628417969, 1.919480800628662, 1.2414194345474243, -0.07161122560501099, -0.00012789601169060916]","[3.798073115003808, 3.798073115003808, 4.285440390025987, 2.6302640264026405, 2.6302640264026405, 2.6302640264026405]",0.0,0.0,0.0,0.0,0.0,0.0,0.0,0.0,0.0,0.0,0.0,0.0,0.0,0.0,0.0,0.5701320969175823,-0.00034444060509419405,0.0031112057630979795,1.0,0.0,0.0,0.0,0.0,11.0,0.0,0.0,0.0,0.0,0.0,0.0,0.0,0.0,0.0
28709,1730.696,1778805741.545675,1730.696,"[0.35934245586395264, -1.6016224066363733, -1.3242223898517054, -1.7006424109088343, 1.5477731227874756, 1.9362620115280151]","[0.5701320566342645, -0.002163479972726439, 0.002240310262137002, 2.814824691711902, -0.024151165554703095, 1.3801099990923114]","[0.30596380432206194, 1.2683815476445939, 1.9188476319415406, 1.2417294103746532, -0.07004150894667836, 5.317768584038341e-05]","[0.30596381425857544, 1.2683815956115723, 1.918847680091858, 1.2417293787002563, -0.07004150748252869, 5.3177685913397e-05]","[3.798073115003808, 3.798073115003808, 4.285440390025987, 2.6302640264026405, 2.6302640264026405, 2.6302640264026405]",0.0,0.0,0.0,0.0,0.0,0.0,0.0,0.0,0.0,0.0,0.0,0.0,0.0,0.0,0.0,0.5701321983446951,-0.0012885712703433463,0.0026592783251470076,1.0,0.0,0.0,0.0,0.0,11.0,0.0,0.0,0.0,0.0,0.0,0.0,0.0,0.0,0.0
28710,1730.704,1778805741.5461955,1730.704,"[0.3568345606327057, -1.601269547139303, -1.3264625708209437, -1.6986973921405237, 1.5479882955551147, 1.933762788772583]","[0.5701322666640384, -0.0029690526789271894, 0.0018547350494099724, 2.8148244449381408, -0.024151346699208584, 1.380110618583568]","[0.30628679912408446, 1.2713785225752685, 1.9182571859907487, 1.2420054277993589, -0.06859340195223161, 0.0002170143077571762]","[0.3062868118286133, 1.271378517150879, 1.918257236480713, 1.242005467414856, -0.06859340518712997, 0.00021701431251130998]","[3.798073115003808, 3.798073115003808, 4.285440390025987, 2.6302640264026405, 2.6302640264026405, 2.6302640264026405]",0.0,0.0,0.0,0.0,0.0,0.0,0.0,0.0,0.0,0.0,0.0,0.0,0.0,0.0,0.0,0.5701321983446951,-0.0012885712703433463,0.0026592783251470076,1.0,0.0,0.0,0.0,0.0,11.0,0.0,0.0,0.0,0.0,0.0,0.0,0.0,0.0,0.0
28711,1730.712,1778805741.5461955,1730.712,"[0.35454025864601135, -1.6009576956378382, -1.3284981886493128, -1.6969221274005335, 1.5481853485107422, 1.931476354598999]","[0.5701321185222255, -0.0037054262082259126, 0.0015020319363423518, 2.814824622509232, -0.024151225580946293, 1.3801100076559294]","[0.3065731966613757, 1.2741369853961215, 1.9177098194562034, 1.2422489999296862, -0.06726739943428471, 0.00036445296934364005]","[0.30657318234443665, 1.274137020111084, 1.9177098274230957, 1.2422490119934082, -0.06726740300655365, 0.0003644529788289219]","[3.798073115003808, 3.798073115003808, 4.285440390025987, 2.6302640264026405, 2.6302640264026405, 2.6302640264026405]",0.0,0.0,0.0,0.0,0.0,0.0,0.0,0.0,0.0,0.0,0.0,0.0,0.0,0.0,0.0,0.5701322666640384,-0.0029690526789271894,0.0018547350494099724,1.0,0.0,0.0,0.0,0.0,11.0,0.0,0.0,0.0,0.0,0.0,0.0,0.0,0.0,0.0
28712,1730.72,1778805741.5461955,1730.72,"[0.352460116147995, -1.6006835142718714, -1.3303325811969202, -1.6953147093402308, 1.5483641624450684, 1.929403305053711]","[0.5701322351691689, -0.0043723968879586985, 0.0011828563149212101, 2.814824529702446, -0.02415128211645307, 1.3801107758020388]","[0.3068253350670853, 1.2766550254148756, 1.917205918780447, 1.242461502185891, -0.0660639390205044, 0.0004962704125177484]","[0.30682533979415894, 1.2766550779342651, 1.9172059297561646, 1.2424614429473877, -0.06606394052505493, 0.0004962704260833561]","[3.798073115003808, 3.798073115003808, 4.285440390025987, 2.6302640264026405, 2.6302640264026405, 2.6302640264026405]",0.0,0.0,0.0,0.0,0.0,0.0,0.0,0.0,0.0,0.0,0.0,0.0,0.0,0.0,0.0,0.5701321185222255,-0.0037054262082259126,0.0015020319363423518,1.0,0.0,0.0,0.0,0.0,11.0,0.0,0.0,0.0,0.0,0.0,0.0,0.0,0.0,0.0
28713,1730.7279999999998,1778805741.547703,1730.7279999999998,"[0.3505946397781372, -1.600445572529928, -1.3319686094867151, -1.6938756147967737, 1.5485244989395142, 1.927544355392456]","[0.5701321266875294, -0.004970272378069669, 0.0008963467810472747, 2.8148246549910234, -0.024151249612145452, 1.3801099772295593]","[0.3070453764340419, 1.2789309028562397, 1.9167458796996286, 1.242644159165056, -0.06498340234263629, 0.0006131786412701654]","[0.3070453703403473, 1.278930902481079, 1.916745901107788, 1.242644190788269, -0.06498340517282486, 0.0006131786503829062]","[3.798073115003808, 3.798073115003808, 4.285440390025987, 2.6302640264026405, 2.6302640264026405, 2.6302640264026405]",0.0,0.0,0.0,0.0,0.0,0.0,0.0,0.0,0.0,0.0,0.0,0.0,0.0,0.0,0.0,0.5701322351691689,-0.0043723968879586985,0.0011828563149212101,1.0,0.0,0.0,0.0,0.0,11.0,0.0,0.0,0.0,0.0,0.0,0.0,0.0,0.0,0.0
28714,1730.7359999999999,1778805741.547703,1730.7359999999999,"[0.3489443063735962, -1.6002400557147425, -1.3334086577044886, -1.6926043669330042, 1.5486664772033691, 1.9258997440338135]","[0.5701321025566999, -0.005498789170295303, 0.0006434349509700787, 2.8148246073950594, -0.024151333448033174, 1.3801102738864628]","[0.3072352990601713, 1.2809630533793435, 1.916330091461691, 1.2427980512543415, -0.06402611707983778, 0.0007158228556771132]","[0.3072353005409241, 1.2809630632400513, 1.916330099105835, 1.242798089981079, -0.0640261173248291, 0.0007158228545449674]","[3.798073115003808, 3.798073115003808, 4.285440390025987, 2.6302640264026405, 2.6302640264026405, 2.6302640264026405]",0.0,0.0,0.0,0.0,0.0,0.0,0.0,0.0,0.0,0.0,0.0,0.0,0.0,0.0,0.0,0.5701321266875294,-0.004970272378069669,0.0008963467810472747,1.0,0.0,0.0,0.0,0.0,11.0,0.0,0.0,0.0,0.0,0.0,0.0,0.0,0.0,0.0
28715,1730.744,1778805741.547703,1730.744,"[0.3475094735622406, -1.6000660101519983, -1.3346551100360315, -1.6915000120746058, 1.5487898588180542, 1.9244698286056519]","[0.5701322617279473, -0.005958014443917829, 0.00042370630416938004, 2.8148243994164996, -0.024151306031900136, 1.3801108691137711]","[0.3073968907717935, 1.2827500912369767, 1.9159589231249012, 1.2429241204546908, -0.06319235882491543, 0.0008047796614765682]","[0.30739688873291016, 1.282750129699707, 1.9159588813781738, 1.2429240942001343, -0.06319236010313034, 0.0008047796436585486]","[3.798073115003808, 3.798073115003808, 4.285440390025987, 2.6302640264026405, 2.6302640264026405, 2.6302640264026405]",0.0,0.0,0.0,0.0,0.0,0.0,0.0,0.0,0.0,0.0,0.0,0.0,0.0,0.0,0.0,0.5701321266875294,-0.004970272378069669,0.0008963467810472747,1.0,0.0,0.0,0.0,0.0,11.0,0.0,0.0,0.0,0.0,0.0,0.0,0.0,0.0,0.0
28716,1730.752,1778805741.547703,1730.752,"[0.3462904989719391, -1.5999215284930628, -1.335710350667135, -1.6905630270587366, 1.5488948822021484, 1.9232550859451294]","[0.5701321195560954, -0.0063479988500560625, 0.00023675623041213845, 2.8148246644610135, -0.024151254138202665, 1.3801102173846713]","[0.3075317431848852, 1.2842908115054692, 1.9156327115863183, 1.2430231754408998, -0.06248235276257751, 0.0008805555369214015]","[0.3075317442417145, 1.2842907905578613, 1.915632724761963, 1.243023157119751, -0.062482353299856186, 0.0008805555407889187]","[3.798073115003808, 3.798073115003808, 4.285440390025987, 2.6302640264026405, 2.6302640264026405, 2.6302640264026405]",0.0,0.0,0.0,0.0,0.0,0.0,0.0,0.0,0.0,0.0,0.0,0.0,0.0,0.0,0.0,0.5701322617279473,-0.005958014443917829,0.00042370630416938004,1.0,0.0,0.0,0.0,0.0,11.0,0.0,0.0,0.0,0.0,0.0,0.0,0.0,0.0,0.0
28717,1730.76,1778805741.5492258,1730.76,"[0.34528765082359314, -1.599804703389303, -1.3365753332721155, -1.6897929350482386, 1.5489811897277832, 1.9222557544708252]","[0.5701321526142435, -0.006668725165616559, 8.32883301205567e-05, 2.814824583455338, -0.024151303135275307, 1.3801103493561668]","[0.3076412468563219, 1.2855841915144168, 1.9153517512932576, 1.243095895893156, -0.061896275149461624, 0.0009435855394285356]","[0.30764123797416687, 1.2855842113494873, 1.9153517484664917, 1.243095874786377, -0.061896275728940964, 0.0009435855317860842]","[3.798073115003808, 3.798073115003808, 4.285440390025987, 2.6302640264026405, 2.6302640264026405, 2.6302640264026405]",0.0,0.0,0.0,0.0,0.0,0.0,0.0,0.0,0.0,0.0,0.0,0.0,0.0,0.0,0.0,0.5701321195560954,-0.0063479988500560625,0.00023675623041213845,1.0,0.0,0.0,0.0,0.0,11.0,0.0,0.0,0.0,0.0,0.0,0.0,0.0,0.0,0.0
28718,1730.768,1778805741.5492258,1730.768,"[0.34450116753578186, -1.5997145811664026, -1.337252442036764, -1.6891892592059534, 1.549048900604248, 1.9214719533920288]","[0.57013204345247, -0.006920204696310824, -3.7299523158118575e-05, 2.8148247221788245, -0.02415112310945527, 1.380109806671402]","[0.30772658722307217, 1.2866293916450147, 1.9151162855256678, 1.2431428361215417, -0.061434254593448416, 0.0009942322287883319]","[0.30772659182548523, 1.2866294384002686, 1.915116310119629, 1.24314284324646, -0.06143425405025482, 0.0009942322503775358]","[3.798073115003808, 3.798073115003808, 4.285440390025987, 2.6302640264026405, 2.6302640264026405, 2.6302640264026405]",0.0,0.0,0.0,0.0,0.0,0.0,0.0,0.0,0.0,0.0,0.0,0.0,0.0,0.0,0.0,0.5701321526142435,-0.006668725165616559,8.32883301205567e-05,1.0,0.0,0.0,0.0,0.0,11.0,0.0,0.0,0.0,0.0,0.0,0.0,0.0,0.0,0.0
28719,1730.7759999999998,1778805741.5492258,1730.7759999999998,"[0.3439312279224396, -1.599649731312887, -1.3377421537982386, -1.6887519995318812, 1.549098014831543, 1.9209040403366089]","[0.5701320165402397, -0.00710238066118643, -0.00012449237183170814, 2.814824710330558, -0.024151212673290047, 1.3801098858138572]","[0.30778874130339134, 1.2874257557245299, 1.9149264990726338, 1.2431644280005059, -0.06109637311685577, 0.0010327848048748008]","[0.3077887296676636, 1.2874257564544678, 1.914926528930664, 1.2431644201278687, -0.061096373945474625, 0.0010327848140150309]","[3.798073115003808, 3.798073115003808, 4.285440390025987, 2.6302640264026405, 2.6302640264026405, 2.6302640264026405]",0.0,0.0,0.0,0.0,0.0,0.0,0.0,0.0,0.0,0.0,0.0,0.0,0.0,0.0,0.0,0.57013204345247,-0.006920204696310824,-3.7299523158118575e-05,1.0,0.0,0.0,0.0,0.0,11.0,0.0,0.0,0.0,0.0,0.0,0.0,0.0,0.0,0.0
28720,1730.7839999999999,1778805741.5492258,1730.7839999999999,"[0.34357795119285583, -1.5996101538287562, -1.3380449453936976, -1.6884806791888636, 1.5491284132003784, 1.9205520153045654]","[0.5701322540236712, -0.007215216417292111, -0.00017837740001241942, 2.8148244932751463, -0.024151339339129142, 1.3801105749796778]","[0.3078284750487478, 1.287972811058281, 1.91478251230716, 1.243160983229871, -0.060882667010123376, 0.0010594584344191236]","[0.30782848596572876, 1.2879728078842163, 1.9147825241088867, 1.2431609630584717, -0.06088266521692276, 0.0010594584746286273]","[3.798073115003808, 3.798073115003808, 4.285440390025987, 2.6302640264026405, 2.6302640264026405, 2.6302640264026405]",0.0,0.0,0.0,0.0,0.0,0.0,0.0,0.0,0.0,0.0,0.0,0.0,0.0,0.0,0.0,0.57013204345247,-0.006920204696310824,-3.7299523158118575e-05,1.0,0.0,0.0,0.0,0.0,11.0,0.0,0.0,0.0,0.0,0.0,0.0,0.0,0.0,0.0
28721,1730.792,1778805741.5502367,1730.792,"[0.3434413969516754, -1.5995948950396937, -1.3381622473346155, -1.688376251851217, 1.549140214920044, 1.9204158782958984]","[0.5701320373035784, -0.00725889935287345, -0.00019951222257397205, 2.8148247603249112, -0.02415113909164869, 1.3801097609014825]","[0.3078463413739218, 1.2882702682481368, 1.9146843765356285, 1.243132694930087, -0.0607931274613769, 0.0010743937688645667]","[0.307846337556839, 1.2882702350616455, 1.9146844148635864, 1.2431327104568481, -0.06079312786459923, 0.0010743937455117702]","[3.798073115003808, 3.798073115003808, 4.285440390025987, 2.6302640264026405, 2.6302640264026405, 2.6302640264026405]",0.0,0.0,0.0,0.0,0.0,0.0,0.0,0.0,0.0,0.0,0.0,0.0,0.0,0.0,0.0,0.5701322540236712,-0.007215216417292111,-0.00017837740001241942,1.0,0.0,0.0,0.0,0.0,11.0,0.0,0.0,0.0,0.0,0.0,0.0,0.0,0.0,0.0
28722,1730.8,1778805741.5502367,1730.8,"[0.3435216546058655, -1.5996039549456995, -1.338093105946676, -1.6884377638446253, 1.54913330078125, 1.920495867729187]","[0.5701321670081161, -0.007233209110799138, -0.0001870799697752945, 2.81482464445344, -0.024151227934816596, 1.380110198326966]","[0.30791003911817444, 1.2883203968734565, 1.9146685722559658, 1.2430927679726478, -0.060804777855910076, 0.0010785919260124887]","[0.3079100251197815, 1.2883204221725464, 1.9146685600280762, 1.2430927753448486, -0.06080477684736252, 0.0010785919148474932]","[3.798073115003808, 3.798073115003808, 4.285440390025987, 2.6302640264026405, 2.6302640264026405, 2.6302640264026405]",0.0,0.0,0.0,0.0,0.0,0.0,0.0,0.0,0.0,0.0,0.0,0.0,0.0,0.0,0.0,0.5701320373035784,-0.00725889935287345,-0.00019951222257397205,1.0,0.0,0.0,0.0,0.0,11.0,0.0,0.0,0.0,0.0,0.0,0.0,0.0,0.0,0.0
28723,1730.808,1778805741.5502367,1730.808,"[0.34381869435310364, -1.5996373335467737, -1.3378384749041956, -1.6886656920062464, 1.5491076707839966, 1.9207918643951416]","[0.5701320711792691, -0.007138337426858482, -0.00014173544887696732, 2.8148247010344756, -0.02415113106979477, 1.3801098251108042]","[0.30781488954612046, 1.2881159789496157, 1.914624031432825, 1.2430012238087265, -0.06098726126089946, 0.0010691971758362841]","[0.30781489610671997, 1.2881159782409668, 1.9146239757537842, 1.2430012226104736, -0.060987260192632675, 0.0010691971983760595]","[3.798073115003808, 3.798073115003808, 4.285440390025987, 2.6302640264026405, 2.6302640264026405, 2.6302640264026405]",0.0,0.0,0.0,0.0,0.0,0.0,0.0,0.0,0.0,0.0,0.0,0.0,0.0,0.0,0.0,0.5701321670081161,-0.007233209110799138,-0.0001870799697752945,1.0,0.0,0.0,0.0,0.0,11.0,0.0,0.0,0.0,0.0,0.0,0.0,0.0,0.0,0.0
28724,1730.816,1778805741.5512438,1730.816,"[0.34433242678642273, -1.5996950308429163, -1.3373974005328577, -1.6890595594989222, 1.5490634441375732, 1.9213038682937622]","[0.5701322085834402, -0.006974092731830134, -6.28351647541936e-05, 2.8148244746072177, -0.024151381151702875, 1.3801107202634963]","[0.3077684285230966, 1.2876646881022669, 1.9146630896903571, 1.2428984046057259, -0.061269710141201465, 0.0010490120537110816]","[0.30776843428611755, 1.2876646518707275, 1.9146630764007568, 1.2428984642028809, -0.06126971170306206, 0.0010490120621398091]","[3.798073115003808, 3.798073115003808, 4.285440390025987, 2.6302640264026405, 2.6302640264026405, 2.6302640264026405]",0.0,0.0,0.0,0.0,0.0,0.0,0.0,0.0,0.0,0.0,0.0,0.0,0.0,0.0,0.0,0.5701320711792691,-0.007138337426858482,-0.00014173544887696732,1.0,0.0,0.0,0.0,0.0,11.0,0.0,0.0,0.0,0.0,0.0,0.0,0.0,0.0,0.0
28725,1730.8239999999998,1778805741.5512438,1730.8239999999998,"[0.3450627028942108, -1.59977895418276, -1.3367694059955042, -1.6896198431598108, 1.5490005016326904, 1.9220315217971802]","[0.5701321764269256, -0.0067406555264339025, 4.8710647346295044e-05, 2.8148245894322232, -0.024151145399960352, 1.3801101933314983]","[0.30770015800491557, 1.2869644699017717, 1.914747459919653, 1.2427703366114207, -0.061675844561858185, 0.0010169026759194583]","[0.30770015716552734, 1.2869644165039062, 1.9147474765777588, 1.2427703142166138, -0.061675842851400375, 0.0010169026209041476]","[3.798073115003808, 3.798073115003808, 4.285440390025987, 2.6302640264026405, 2.6302640264026405, 2.6302640264026405]",0.0,0.0,0.0,0.0,0.0,0.0,0.0,0.0,0.0,0.0,0.0,0.0,0.0,0.0,0.0,0.5701320711792691,-0.007138337426858482,-0.00014173544887696732,1.0,0.0,0.0,0.0,0.0,11.0,0.0,0.0,0.0,0.0,0.0,0.0,0.0,0.0,0.0
28726,1730.8319999999999,1778805741.5512438,1730.8319999999999,"[0.34600940346717834, -1.5998886267291468, -1.3359530607806605, -1.6903470198260706, 1.5489190816879272, 1.922974944114685]","[0.5701321566497188, -0.006437887326214567, 0.00019373555813506638, 2.8148246467665685, -0.024151237062160845, 1.380110320086051]","[0.3076095564197958, 1.2860159441126167, 1.9148768212103175, 1.242616620955881, -0.06220543192376143, 0.0009726359993262582]","[0.30760955810546875, 1.2860159873962402, 1.9148768186569214, 1.2426166534423828, -0.06220543012022972, 0.0009726359858177602]","[3.798073115003808, 3.798073115003808, 4.285440390025987, 2.6302640264026405, 2.6302640264026405, 2.6302640264026405]",0.0,0.0,0.0,0.0,0.0,0.0,0.0,0.0,0.0,0.0,0.0,0.0,0.0,0.0,0.0,0.5701321764269256,-0.0067406555264339025,4.8710647346295044e-05,1.0,0.0,0.0,0.0,0.0,11.0,0.0,0.0,0.0,0.0,0.0,0.0,0.0,0.0,0.0
28728,1730.848,1778805741.5512438,1730.848,"[0.34855109453201294, -1.600191895161764, -1.3337505499469202, -1.6923015753375452, 1.5487003326416016, 1.92550790309906]","[0.5701322321482918, -0.005624611853252822, 0.0005833496518254377, 2.8148244861032796, -0.024151456109931205, 1.3801108457336444]","[0.3073582116892561, 1.283377346579235, 1.9152688795508936, 1.2422300337178316, -0.06363380445742046, 0.0008463307581622002]","[0.3073582053184509, 1.2833772897720337, 1.915268898010254, 1.2422300577163696, -0.06363380700349808, 0.0008463307749480009]","[3.798073115003808, 3.798073115003808, 4.285440390025987, 2.6302640264026405, 2.6302640264026405, 2.6302640264026405]",0.0,0.0,0.0,0.0,0.0,0.0,0.0,0.0,0.0,0.0,0.0,0.0,0.0,0.0,0.0,0.5701322257589756,-0.006065877144367091,0.0003718929082910938,1.0,0.0,0.0,0.0,0.0,11.0,0.0,0.0,0.0,0.0,0.0,0.0,0.0,0.0,0.0
28729,1730.856,1778805741.5522432,1730.856,"[0.35014551877975464, -1.6003888289081019, -1.3323610464679163, -1.6935294310199183, 1.5485631227493286, 1.9270967245101929]","[0.5701322357370722, -0.005114081686903102, 0.0008277436091743695, 2.814824481934332, -0.024151287659866544, 1.3801107623940925]","[0.307195370165009, 1.2816894086397588, 1.9155305937685714, 1.2419957369604568, -0.06453189092242692, 0.0007634608081645641]","[0.30719536542892456, 1.2816894054412842, 1.9155305624008179, 1.2419956922531128, -0.06453189253807068, 0.0007634608191438019]","[3.798073115003808, 3.798073115003808, 4.285440390025987, 2.6302640264026405, 2.6302640264026405, 2.6302640264026405]",0.0,0.0,0.0,0.0,0.0,0.0,0.0,0.0,0.0,0.0,0.0,0.0,0.0,0.0,0.0,0.5701322321482918,-0.005624611853252822,0.0005833496518254377,1.0,0.0,0.0,0.0,0.0,11.0,0.0,0.0,0.0,0.0,0.0,0.0,0.0,0.0,0.0
28730,1730.864,1778805741.5522432,1730.864,"[0.3519551753997803, -1.6006186644183558, -1.3307765165912073, -1.6949251333819788, 1.5484075546264648, 1.928900122642517]","[0.5701320158306539, -0.0045343355922581605, 0.0011049806434740295, 2.8148247981386194, -0.02415110664012919, 1.3801096307671583]","[0.3070060069061799, 1.279757427553127, 1.9158353450460994, 1.241732933851169, -0.06555203052198985, 0.0006667729580259536]","[0.30700600147247314, 1.2797573804855347, 1.9158353805541992, 1.2417329549789429, -0.06555203348398209, 0.0006667729467153549]","[3.798073115003808, 3.798073115003808, 4.285440390025987, 2.6302640264026405, 2.6302640264026405, 2.6302640264026405]",0.0,0.0,0.0,0.0,0.0,0.0,0.0,0.0,0.0,0.0,0.0,0.0,0.0,0.0,0.0,0.5701322321482918,-0.005624611853252822,0.0005833496518254377,1.0,0.0,0.0,0.0,0.0,11.0,0.0,0.0,0.0,0.0,0.0,0.0,0.0,0.0,0.0
28731,1730.8719999999998,1778805741.5522432,1730.8719999999998,"[0.35397961735725403, -1.6008828322040003, -1.3289936224566858, -1.6964886824237269, 1.5482335090637207, 1.9309176206588745]","[0.57013216592298, -0.003885243756201296, 0.0014160560504462572, 2.8148245325687236, -0.024151252643003246, 1.3801103850170706]","[0.3067885634919079, 1.2775829076253185, 1.9161825065702904, 1.241440573006689, -0.06669374998036195, 0.0005556754082069807]","[0.3067885637283325, 1.2775828838348389, 1.916182518005371, 1.2414405345916748, -0.0666937530040741, 0.0005556754185818136]","[3.798073115003808, 3.798073115003808, 4.285440390025987, 2.6302640264026405, 2.6302640264026405, 2.6302640264026405]",0.0,0.0,0.0,0.0,0.0,0.0,0.0,0.0,0.0,0.0,0.0,0.0,0.0,0.0,0.0,0.5701320158306539,-0.0045343355922581605,0.0011049806434740295,1.0,0.0,0.0,0.0,0.0,11.0,0.0,0.0,0.0,0.0,0.0,0.0,0.0,0.0,0.0
28732,1730.8799999999999,1778805741.5522432,1730.8799999999999,"[0.3562183678150177, -1.6011846701251429, -1.327010456715719, -1.6982205549823206, 1.5480412244796753, 1.9331486225128174]","[0.5701321740899766, -0.0031668796519376315, 0.0017600090135732605, 2.8148245544534127, -0.024151187924146778, 1.3801103986734025]","[0.306541285891009, 1.2751675232723374, 1.9165714129925546, 1.2411174573152903, -0.06795652364111801, 0.0004295086962877699]","[0.3065412938594818, 1.275167465209961, 1.9165713787078857, 1.2411174774169922, -0.06795652210712433, 0.0004295086837373674]","[3.798073115003808, 3.798073115003808, 4.285440390025987, 2.6302640264026405, 2.6302640264026405, 2.6302640264026405]",0.0,0.0,0.0,0.0,0.0,0.0,0.0,0.0,0.0,0.0,0.0,0.0,0.0,0.0,0.0,0.57013216592298,-0.003885243756201296,0.0014160560504462572,1.0,0.0,0.0,0.0,0.0,11.0,0.0,0.0,0.0,0.0,0.0,0.0,0.0,0.0,0.0
28733,1730.888,1778805741.5522432,1730.888,"[0.3586708605289459, -1.6015265623675745, -1.3248236815081995, -1.7001212278949183, 1.5478307008743286, 1.935592770576477]","[0.5701321720017679, -0.00237928005606938, 0.0021371580242151023, 2.8148245016448983, -0.024151306697897, 1.380110499974573]","[0.30626223028012756, 1.2725131149975306, 1.9170013716447933, 1.2407622369723683, -0.06933977163228083, 0.0002875476596960255]","[0.30626222491264343, 1.2725131511688232, 1.9170013666152954, 1.2407622337341309, -0.06933977454900742, 0.0002875476493500173]","[3.798073115003808, 3.798073115003808, 4.285440390025987, 2.6302640264026405, 2.6302640264026405, 2.6302640264026405]",0.0,0.0,0.0,0.0,0.0,0.0,0.0,0.0,0.0,0.0,0.0,0.0,0.0,0.0,0.0,0.5701321740899766,-0.0031668796519376315,0.0017600090135732605,1.0,0.0,0.0,0.0,0.0,11.0,0.0,0.0,0.0,0.0,0.0,0.0,0.0,0.0,0.0
28734,1730.896,1778805741.553243,1730.896,"[0.36133646965026855, -1.6019118467914026, -1.3224294821368616, -1.702191177998678, 1.5476020574569702, 1.9382492303848267]","[0.5701322611487161, -0.0015223488224955896, 0.0025475503843018776, 2.814824432562297, -0.0241513375528395, 1.3801108978143228]","[0.3059492698031495, 1.2696216841739048, 1.9174716756053516, 1.240373401616757, -0.07084285787742764, 0.00012900369075261937]","[0.30594927072525024, 1.269621729850769, 1.9174716472625732, 1.2403733730316162, -0.07084285467863083, 0.0001290036889258772]","[3.798073115003808, 3.798073115003808, 4.285440390025987, 2.6302640264026405, 2.6302640264026405, 2.6302640264026405]",0.0,0.0,0.0,0.0,0.0,0.0,0.0,0.0,0.0,0.0,0.0,0.0,0.0,0.0,0.0,0.5701321720017679,-0.00237928005606938,0.0021371580242151023,1.0,0.0,0.0,0.0,0.0,11.0,0.0,0.0,0.0,0.0,0.0,0.0,0.0,0.0,0.0
28735,1730.904,1778805741.553243,1730.904,"[0.3642145097255707, -1.6023438612567347, -1.319824520741598, -1.7044313589679163, 1.5473554134368896, 1.9411174058914185]","[0.5701321144332363, -0.0005962143191773285, 0.002990827041573385, 2.8148246323893185, -0.024151200291038507, 1.3801103765556828]","[0.3056001023778259, 1.2664953863630086, 1.917981618756248, 1.2399492715070952, -0.07246508795830828, -4.6972680492495534e-05]","[0.305600106716156, 1.2664953470230103, 1.9179816246032715, 1.2399492263793945, -0.07246508449316025, -4.697268013842404e-05]","[3.798073115003808, 3.798073115003808, 4.285440390025987, 2.6302640264026405, 2.6302640264026405, 2.6302640264026405]",0.0,0.0,0.0,0.0,0.0,0.0,0.0,0.0,0.0,0.0,0.0,0.0,0.0,0.0,0.0,0.5701321720017679,-0.00237928005606938,0.0021371580242151023,1.0,0.0,0.0,0.0,0.0,11.0,0.0,0.0,0.0,0.0,0.0,0.0,0.0,0.0,0.0
28736,1730.912,1778805741.553243,1730.912,"[0.3673042356967926, -1.6028264204608362, -1.3170040289508265, -1.706841770802633, 1.547090768814087, 1.9441967010498047]","[0.5701322176507587, 0.0003992318590100067, 0.003467434194357244, 2.814824558872072, -0.024151315583230384, 1.3801105143567436]","[0.3052122596411984, 1.2631365228188456, 1.9185305130703776, 1.2394879876680651, -0.07420570684688868, -0.00024128885743229513]","[0.30521225929260254, 1.2631365060806274, 1.9185304641723633, 1.2394880056381226, -0.07420570403337479, -0.0002412888570688665]","[3.798073115003808, 3.798073115003808, 4.285440390025987, 2.6302640264026405, 2.6302640264026405, 2.6302640264026405]",0.0,0.0,0.0,0.0,0.0,0.0,0.0,0.0,0.0,0.0,0.0,0.0,0.0,0.0,0.0,0.5701321144332363,-0.0005962143191773285,0.002990827041573385,1.0,0.0,0.0,0.0,0.0,11.0,0.0,0.0,0.0,0.0,0.0,0.0,0.0,0.0,0.0
28737,1730.9199999999998,1778805741.553243,1730.9199999999998,"[0.3706047534942627, -1.6033628622638147, -1.3139637152301233, -1.709423844014303, 1.5468083620071411, 1.9474860429763794]","[0.5701322692909628, 0.0014639539054911756, 0.003977341764506259, 2.814824509284893, -0.024151383184403033, 1.380110847900778]","[0.30478311713105927, 1.259547529814791, 1.9191177083251238, 1.238987500918436, -0.07606389651808015, -0.00045490686978009683]","[0.3047831058502197, 1.259547472000122, 1.9191176891326904, 1.2389874458312988, -0.07606389373540878, -0.0004549068689811975]","[3.798073115003808, 3.798073115003808, 4.285440390025987, 2.6302640264026405, 2.6302640264026405, 2.6302640264026405]",0.0,0.0,0.0,0.0,0.0,0.0,0.0,0.0,0.0,0.0,0.0,0.0,0.0,0.0,0.0,0.5701322176507587,0.0003992318590100067,0.003467434194357244,1.0,0.0,0.0,0.0,0.0,11.0,0.0,0.0,0.0,0.0,0.0,0.0,0.0,0.0,0.0
28738,1730.9279999999999,1778805741.5542452,1730.9279999999999,"[0.3741151988506317, -1.6039579550372522, -1.3106992880450647, -1.7121780554400843, 1.5465081930160522, 1.9509845972061157]","[0.5701321417139336, 0.0025978531652032563, 0.004520075390188616, 2.8148246208098717, -0.024151156903846564, 1.3801102332394986]","[0.3043099058180589, 1.255730965339062, 1.9197426145402772, 1.23844555968275, -0.07803877345962479, -0.0006888396628162746]","[0.3043099045753479, 1.2557309865951538, 1.9197425842285156, 1.238445520401001, -0.0780387744307518, -0.0006888396455906332]","[3.798073115003808, 3.798073115003808, 4.285440390025987, 2.6302640264026405, 2.6302640264026405, 2.6302640264026405]",0.0,0.0,0.0,0.0,0.0,0.0,0.0,0.0,0.0,0.0,0.0,0.0,0.0,0.0,0.0,0.5701322692909628,0.0014639539054911756,0.003977341764506259,1.0,0.0,0.0,0.0,0.0,11.0,0.0,0.0,0.0,0.0,0.0,0.0,0.0,0.0,0.0
28739,1730.936,1778805741.5542452,1730.936,"[0.3778345286846161, -1.6046159903155726, -1.307204548512594, -1.7151053587542933, 1.5461905002593994, 1.9546915292739868]","[0.570132178122251, 0.003801057790768948, 0.005096232918702259, 2.8148245415887034, -0.02415125834079642, 1.3801102445343532]","[0.3037897250802657, 1.2516894926314228, 1.9204047274686016, 1.2378596964669275, -0.08012938609647365, -0.000944146955221372]","[0.30378973484039307, 1.2516894340515137, 1.9204046726226807, 1.2378597259521484, -0.08012938499450684, -0.0009441469446755946]","[3.798073115003808, 3.798073115003808, 4.285440390025987, 2.6302640264026405, 2.6302640264026405, 2.6302640264026405]",0.0,0.0,0.0,0.0,0.0,0.0,0.0,0.0,0.0,0.0,0.0,0.0,0.0,0.0,0.0,0.5701321417139336,0.0025978531652032563,0.004520075390188616,1.0,0.0,0.0,0.0,0.0,11.0,0.0,0.0,0.0,0.0,0.0,0.0,0.0,0.0,0.0
28740,1730.944,1778805741.5542452,1730.944,"[0.38176167011260986, -1.6053412596331995, -1.3034752050982874, -1.7182062307940882, 1.5458555221557617, 1.9586055278778076]","[0.570132166893526, 0.005073587510686, 0.00570555542064749, 2.8148245500421165, -0.024151286203062262, 1.380110467607472]","[0.30321955726315986, 1.2474258600585006, 1.9211036574191533, 1.2372272128523385, -0.08233471214016568, -0.001221930630697883]","[0.3032195568084717, 1.24742591381073, 1.9211037158966064, 1.237227201461792, -0.08233471214771271, -0.0012219306081533432]","[3.798073115003808, 3.798073115003808, 4.285440390025987, 2.6302640264026405, 2.6302640264026405, 2.6302640264026405]",0.0,0.0,0.0,0.0,0.0,0.0,0.0,0.0,0.0,0.0,0.0,0.0,0.0,0.0,0.0,0.5701321417139336,0.0025978531652032563,0.004520075390188616,1.0,0.0,0.0,0.0,0.0,11.0,0.0,0.0,0.0,0.0,0.0,0.0,0.0,0.0,0.0
28741,1730.952,1778805741.5542452,1730.952,"[0.38589540123939514, -1.6061399618731897, -1.2995041052447718, -1.7214821020709437, 1.5455032587051392, 1.9627255201339722]","[0.570132266375986, 0.006415383449694346, 0.006347978149362443, 2.814824528104877, -0.02415126803084117, 1.380110467952896]","[0.30259628391337495, 1.2429428764951438, 1.9218391620066453, 1.2365451628461168, -0.08465365588893256, -0.0015233296457399113]","[0.3025962710380554, 1.2429429292678833, 1.9218391180038452, 1.236545205116272, -0.08465365320444107, -0.0015233296435326338]","[3.798073115003808, 3.798073115003808, 4.285440390025987, 2.6302640264026405, 2.6302640264026405, 2.6302640264026405]",0.0,0.0,0.0,0.0,0.0,0.0,0.0,0.0,0.0,0.0,0.0,0.0,0.0,0.0,0.0,0.570132166893526,0.005073587510686,0.00570555542064749,1.0,0.0,0.0,0.0,0.0,11.0,0.0,0.0,0.0,0.0,0.0,0.0,0.0,0.0,0.0
28742,1730.9599999999998,1778805741.5542452,1730.9599999999998,"[0.39023447036743164, -1.6070159117328089, -1.295286003743307, -1.7249344030963343, 1.5451339483261108, 1.9670501947402954]","[0.570132172767659, 0.007826380839746978, 0.007023671734190606, 2.8148245027704992, -0.024151174396720636, 1.3801105170500272]","[0.3019167038121666, 1.2382433816391754, 1.9226111831087929, 1.2358103343765992, -0.08708504548750017, -0.0018495144166850797]","[0.3019167184829712, 1.2382433414459229, 1.9226112365722656, 1.2358102798461914, -0.0870850458741188, -0.0018495144322514534]","[3.798073115003808, 3.798073115003808, 4.285440390025987, 2.6302640264026405, 2.6302640264026405, 2.6302640264026405]",0.0,0.0,0.0,0.0,0.0,0.0,0.0,0.0,0.0,0.0,0.0,0.0,0.0,0.0,0.0,0.570132266375986,0.006415383449694346,0.006347978149362443,1.0,0.0,0.0,0.0,0.0,11.0,0.0,0.0,0.0,0.0,0.0,0.0,0.0,0.0,0.0
28743,1730.9679999999998,1778805741.5542452,1730.9679999999998,"[0.39477744698524475, -1.60797626176943, -1.2908137480365198, -1.7285636107074183, 1.5447478294372559, 1.9715783596038818]","[0.5701321494058138, 0.009306649646433046, 0.007732317417812273, 2.814824538694518, -0.02415127154275488, 1.3801101501663757]","[0.3011775529324544, 1.2333302101536874, 1.9234198888302048, 1.235019228704194, -0.08962763017055993, -0.0022016806695763077]","[0.3011775612831116, 1.233330249786377, 1.9234198331832886, 1.2350192070007324, -0.08962763100862503, -0.0022016805596649647]","[3.798073115003808, 3.798073115003808, 4.285440390025987, 2.6302640264026405, 2.6302640264026405, 2.6302640264026405]",0.0,0.0,0.0,0.0,0.0,0.0,0.0,0.0,0.0,0.0,0.0,0.0,0.0,0.0,0.0,0.570132172767659,0.007826380839746978,0.007023671734190606,1.0,0.0,0.0,0.0,0.0,11.0,0.0,0.0,0.0,0.0,0.0,0.0,0.0,0.0,0.0
28744,1730.9759999999999,1778805741.5542452,1730.9759999999999,"[0.3995228707790375, -1.609025780354635, -1.2860806624041956, -1.7323711554156702, 1.5443451404571533, 1.9763082265853882]","[0.5701321646853775, 0.01085627977409575, 0.008474297482376159, 2.814824570026997, -0.024151255411940437, 1.3801103943677764]","[0.3003755264240045, 1.2282061487868665, 1.9242657209565899, 1.2341680374504072, -0.0922800775000461, -0.0025810427203855806]","[0.3003755211830139, 1.2282061576843262, 1.924265742301941, 1.2341680526733398, -0.0922800749540329, -0.00258104270324111]","[3.798073115003808, 3.798073115003808, 4.285440390025987, 2.6302640264026405, 2.6302640264026405, 2.6302640264026405]",0.0,0.0,0.0,0.0,0.0,0.0,0.0,0.0,0.0,0.0,0.0,0.0,0.0,0.0,0.0,0.5701321494058138,0.009306649646433046,0.007732317417812273,1.0,0.0,0.0,0.0,0.0,11.0,0.0,0.0,0.0,0.0,0.0,0.0,0.0,0.0,0.0
28745,1730.984,1778805741.5558457,1730.984,"[0.4044691026210785, -1.6101716200457972, -1.2810786406146448, -1.736358944569723, 1.5439260005950928, 1.9812383651733398]","[0.5701321481115104, 0.01247514239961824, 0.00924931941027507, 2.814824667951412, -0.02415114098302493, 1.3801101391184736]","[0.2995073027506065, 1.2228738851507175, 1.925149448823549, 1.2332526169064828, -0.09504097061713523, -0.0029888261725874114]","[0.2995072901248932, 1.2228739261627197, 1.9251494407653809, 1.2332526445388794, -0.09504096955060959, -0.0029888262506574392]","[3.798073115003808, 3.798073115003808, 4.285440390025987, 2.6302640264026405, 2.6302640264026405, 2.6302640264026405]",0.0,0.0,0.0,0.0,0.0,0.0,0.0,0.0,0.0,0.0,0.0,0.0,0.0,0.0,0.0,0.5701321494058138,0.009306649646433046,0.007732317417812273,1.0,0.0,0.0,0.0,0.0,11.0,0.0,0.0,0.0,0.0,0.0,0.0,0.0,0.0,0.0
28746,1730.992,1778805741.5558457,1730.992,"[0.4096144139766693, -1.6114195028888147, -1.2758000532733362, -1.740528408681051, 1.5434906482696533, 1.9863672256469727]","[0.5701321617664072, 0.014163234112706405, 0.01005771778584219, 2.8148245714736, -0.024151349347277577, 1.380110339147187]","[0.29856957005516305, 1.2173359467725255, 1.926072230530989, 1.2322684592065885, -0.09790880552678596, -0.003426260017379153]","[0.29856956005096436, 1.2173359394073486, 1.9260722398757935, 1.2322684526443481, -0.09790880233049393, -0.003426260082051158]","[3.798073115003808, 3.798073115003808, 4.285440390025987, 2.6302640264026405, 2.6302640264026405, 2.6302640264026405]",0.0,0.0,0.0,0.0,0.0,0.0,0.0,0.0,0.0,0.0,0.0,0.0,0.0,0.0,0.0,0.5701321481115104,0.01247514239961824,0.00924931941027507,1.0,0.0,0.0,0.0,0.0,11.0,0.0,0.0,0.0,0.0,0.0,0.0,0.0,0.0,0.0
28748,1731.0079999999998,1778805741.5563717,1731.0079999999998,"[0.420419842004776, -1.614229981099264, -1.2644599119769495, -1.7493565718280237, 1.5425786972045898, 1.9971381425857544]","[0.5701323235150202, 0.01772260136421871, 0.011762122375075401, 2.814824402241593, -0.024151290427488967, 1.3801110734290276]","[0.044349697922041784, 1.2250923988913094, 1.7803409743944822, 1.1765867656413922, -0.18680850228850873, -0.006491388181145015]","[0.04434969648718834, 1.2250924110412598, 1.7803410291671753, 1.1765867471694946, -0.1868084967136383, -0.006491388194262981]","[3.798073115003808, 3.798073115003808, 4.285440390025987, 2.6302640264026405, 2.6302640264026405, 2.6302640264026405]",0.0,0.0,0.0,0.0,0.0,0.0,0.0,0.0,0.0,0.0,0.0,0.0,0.0,0.0,0.0,0.5701321317601,0.015920585389800804,0.010899044628241483,1.0,0.0,0.0,0.0,0.0,11.0,0.0,0.0,0.0,0.0,0.0,0.0,0.0,0.0,0.0
28749,1731.0159999999998,1778805741.5563717,1731.0159999999998,"[0.4258732497692108, -1.6157477537738245, -1.2586024443255823, -1.7538517157184046, 1.5421197414398193, 2.0025744438171387]","[0.5701320358656158, 0.019526396606623236, 0.012625491948061562, 2.8148246615400425, -0.024151131057563387, 1.3801098705756842]","[-0.007903270893693486, 1.229088267935084, 1.7484352839294053, 1.164235711258361, -0.20656660059560694, -0.0070364103623095624]","[-0.007903271354734898, 1.229088306427002, 1.7484352588653564, 1.1642357110977173, -0.20656660199165344, -0.0070364102721214294]","[3.798073115003808, 3.798073115003808, 4.285440390025987, 2.6302640264026405, 2.6302640264026405, 2.6302640264026405]",0.0,0.0,0.0,0.0,0.0,0.0,0.0,0.0,0.0,0.0,0.0,0.0,0.0,0.0,0.0,0.5701323235150202,0.01772260136421871,0.011762122375075401,1.0,0.0,0.0,0.0,0.0,11.0,0.0,0.0,0.0,0.0,0.0,0.0,0.0,0.0,0.0
28750,1731.024,1778805741.5563717,1731.024,"[0.43131083250045776, -1.6173284689532679, -1.2526691595660608, -1.7583606878863733, 1.5416629314422607, 2.007995128631592]","[0.5701321575662279, 0.02133036972361415, 0.013489338584394273, 2.814824568891766, -0.024151295479347402, 1.380110233310781]","[-0.008283818508380052, 1.2296570862207423, 1.746603953975288, 1.162958262292315, -0.209315263173153, -0.007110942746524738]","[-0.008283818140625954, 1.2296570539474487, 1.7466039657592773, 1.1629582643508911, -0.20931527018547058, -0.007110942620784044]","[3.798073115003808, 3.798073115003808, 4.285440390025987, 2.6302640264026405, 2.6302640264026405, 2.6302640264026405]",0.0,0.0,0.0,0.0,0.0,0.0,0.0,0.0,0.0,0.0,0.0,0.0,0.0,0.0,0.0,0.5701323235150202,0.01772260136421871,0.011762122375075401,1.0,0.0,0.0,0.0,0.0,11.0,0.0,0.0,0.0,0.0,0.0,0.0,0.0,0.0,0.0
28751,1731.032,1778805741.5563717,1731.032,"[0.4367322325706482, -1.618972126637594, -1.2466605345355433, -1.7628844420062464, 1.5412083864212036, 2.013399600982666]","[0.5701320967006872, 0.023134325028527036, 0.014353004258693736, 2.814824715364039, -0.0241510471473634, 1.3801100687064167]","[-0.00848650451466423, 1.2302663897573265, 1.7448521192643311, 1.1617022144141922, -0.21199328753816105, -0.00718276698030766]","[-0.008486504666507244, 1.2302663326263428, 1.744852066040039, 1.1617021560668945, -0.2119932919740677, -0.007182767149060965]","[3.798073115003808, 3.798073115003808, 4.285440390025987, 2.6302640264026405, 2.6302640264026405, 2.6302640264026405]",0.0,0.0,0.0,0.0,0.0,0.0,0.0,0.0,0.0,0.0,0.0,0.0,0.0,0.0,0.0,0.5701321575662279,0.02133036972361415,0.013489338584394273,1.0,0.0,0.0,0.0,0.0,11.0,0.0,0.0,0.0,0.0,0.0,0.0,0.0,0.0,0.0
28752,1731.04,1778805741.5563717,1731.04,"[0.4421371817588806, -1.6206792036639612, -1.240575138722555, -1.7674229780780237, 1.5407559871673584, 2.0187880992889404]","[0.570132281074397, 0.02493829103357456, 0.015216878818071822, 2.8148245248358377, -0.024151323014851418, 1.3801106458646175]","[-0.008683734850071002, 1.2309287064567371, 1.743079319835894, 1.1604305273343103, -0.21465686510874282, -0.007253344078384402]","[-0.008683734573423862, 1.230928659439087, 1.7430793046951294, 1.1604305505752563, -0.21465685963630676, -0.0072533441707491875]","[3.798073115003808, 3.798073115003808, 4.285440390025987, 2.6302640264026405, 2.6302640264026405, 2.6302640264026405]",0.0,0.0,0.0,0.0,0.0,0.0,0.0,0.0,0.0,0.0,0.0,0.0,0.0,0.0,0.0,0.5701320967006872,0.023134325028527036,0.014353004258693736,1.0,0.0,0.0,0.0,0.0,11.0,0.0,0.0,0.0,0.0,0.0,0.0,0.0,0.0,0.0
28753,1731.048,1778805741.5563717,1731.048,"[0.44752538204193115, -1.6224497000323694, -1.234412972127096, -1.77197772661318, 1.5403058528900146, 2.0241599082946777]","[0.570132097497984, 0.02674210684935883, 0.01608039735460992, 2.814824627265411, -0.024151113558676624, 1.3801099091692406]","[-0.008876608072567986, 1.2316436591943558, 1.7412850358996226, 1.1591430266384462, -0.2173062219651805, -0.007322662965083139]","[-0.00887660775333643, 1.2316436767578125, 1.7412850856781006, 1.1591429710388184, -0.2173062264919281, -0.007322662975639105]","[3.798073115003808, 3.798073115003808, 4.285440390025987, 2.6302640264026405, 2.6302640264026405, 2.6302640264026405]",0.0,0.0,0.0,0.0,0.0,0.0,0.0,0.0,0.0,0.0,0.0,0.0,0.0,0.0,0.0,0.570132281074397,0.02493829103357456,0.015216878818071822,1.0,0.0,0.0,0.0,0.0,11.0,0.0,0.0,0.0,0.0,0.0,0.0,0.0,0.0,0.0
28754,1731.0559999999998,1778805741.5579147,1731.0559999999998,"[0.4528965651988983, -1.6242836157428187, -1.2281726042376917, -1.776548210774557, 1.539858102798462, 2.029515027999878]","[0.570132172695318, 0.028546068063618604, 0.016944312418454954, 2.814824528371082, -0.024151425146609305, 1.380110479119505]","[-0.009065035750412266, 1.2324107443037273, 1.7394694508008175, 1.1578397880368054, -0.2199412019055433, -0.00739070385605237]","[-0.009065035730600357, 1.2324107885360718, 1.7394694089889526, 1.1578397750854492, -0.21994119882583618, -0.00739070400595665]","[3.798073115003808, 3.798073115003808, 4.285440390025987, 2.6302640264026405, 2.6302640264026405, 2.6302640264026405]",0.0,0.0,0.0,0.0,0.0,0.0,0.0,0.0,0.0,0.0,0.0,0.0,0.0,0.0,0.0,0.570132097497984,0.02674210684935883,0.01608039735460992,1.0,0.0,0.0,0.0,0.0,11.0,0.0,0.0,0.0,0.0,0.0,0.0,0.0,0.0,0.0
28755,1731.0639999999999,1778805741.5579147,1731.0639999999999,"[0.4582504332065582, -1.6261819044696253, -1.2218535582171839, -1.781135384236471, 1.5394126176834106, 2.0348527431488037]","[0.570132173538194, 0.030350018722483774, 0.01780796787731015, 2.8148245988930576, -0.02415112170636526, 1.3801103586145924]","[-0.009248922971366612, 1.2332294285446843, 1.737632759345671, 1.156520880764443, -0.22256165105041145, -0.007457447865200222]","[-0.00924892257899046, 1.233229398727417, 1.7376327514648438, 1.1565208435058594, -0.22256165742874146, -0.007457447703927755]","[3.798073115003808, 3.798073115003808, 4.285440390025987, 2.6302640264026405, 2.6302640264026405, 2.6302640264026405]",0.0,0.0,0.0,0.0,0.0,0.0,0.0,0.0,0.0,0.0,0.0,0.0,0.0,0.0,0.0,0.570132097497984,0.02674210684935883,0.01608039735460992,1.0,0.0,0.0,0.0,0.0,11.0,0.0,0.0,0.0,0.0,0.0,0.0,0.0,0.0,0.0
28756,1731.072,1778805741.5579147,1731.072,"[0.463586688041687, -1.6281445662127894, -1.2154548803912562, -1.7857397238360804, 1.5389695167541504, 2.040173292160034]","[0.5701321818271372, 0.03215392663167956, 0.018671567334168082, 2.8148246407842965, -0.02415116408709589, 1.3801100626071725]","[-0.009428176421625188, 1.2340991482341994, 1.7357751637945986, 1.1551863649395973, -0.22516742051250788, -0.007522877064973863]","[-0.00942817609757185, 1.2340991497039795, 1.735775113105774, 1.155186414718628, -0.2251674234867096, -0.007522876840084791]","[3.798073115003808, 3.798073115003808, 4.285440390025987, 2.6302640264026405, 2.6302640264026405, 2.6302640264026405]",0.0,0.0,0.0,0.0,0.0,0.0,0.0,0.0,0.0,0.0,0.0,0.0,0.0,0.0,0.0,0.570132173538194,0.030350018722483774,0.01780796787731015,1.0,0.0,0.0,0.0,0.0,11.0,0.0,0.0,0.0,0.0,0.0,0.0,0.0,0.0,0.0
28758,1731.088,1778805741.5589314,1731.088,"[0.4742054343223572, -1.6322625319110315, -1.2024152914630335, -1.7950027624713343, 1.538090467453003, 2.0507612228393555]","[0.570132155449206, 0.035761736829484005, 0.02039915976906731, 2.814824587344958, -0.02415140552901802, 1.3801102608841653]","[-0.009772416560853823, 1.2359892758020334, 1.7319981127590858, 1.1524706969269136, -0.23033434996571558, -0.007649724148312872]","[-0.009772416204214096, 1.2359893321990967, 1.731998085975647, 1.1524707078933716, -0.2303343564271927, -0.007649724371731281]","[3.798073115003808, 3.798073115003808, 4.285440390025987, 2.6302640264026405, 2.6302640264026405, 2.6302640264026405]",0.0,0.0,0.0,0.0,0.0,0.0,0.0,0.0,0.0,0.0,0.0,0.0,0.0,0.0,0.0,0.5701321702564457,0.033957842763318404,0.019535427672373873,1.0,0.0,0.0,0.0,0.0,11.0,0.0,0.0,0.0,0.0,0.0,0.0,0.0,0.0,0.0
28759,1731.096,1778805741.5589314,1731.096,"[0.4794873595237732, -1.634418789540426, -1.195772949849264, -1.7996624151812952, 1.5376545190811157, 2.056027889251709]","[0.57013205380134, 0.03756559138652359, 0.021262821931241238, 2.8148246200609273, -0.02415118118291334, 1.3801100076653103]","[-0.009937224046599323, 1.2370083868345894, 1.7300791084598928, 1.1510896107938515, -0.23289523731241943, -0.007711110989121517]","[-0.009937223978340626, 1.2370083332061768, 1.7300790548324585, 1.1510896682739258, -0.23289524018764496, -0.007711111102253199]","[3.798073115003808, 3.798073115003808, 4.285440390025987, 2.6302640264026405, 2.6302640264026405, 2.6302640264026405]",0.0,0.0,0.0,0.0,0.0,0.0,0.0,0.0,0.0,0.0,0.0,0.0,0.0,0.0,0.0,0.570132155449206,0.035761736829484005,0.02039915976906731,1.0,0.0,0.0,0.0,0.0,11.0,0.0,0.0,0.0,0.0,0.0,0.0,0.0,0.0,0.0
28760,1731.1039999999998,1778805741.5599282,1731.1039999999998,"[0.4847506880760193, -1.6366408506976526, -1.1890471617328089, -1.8043411413775843, 1.537221074104309, 2.0612761974334717]","[0.5701321685236751, 0.03936958830992197, 0.022126485790572248, 2.8148246420181007, -0.024151112637770533, 1.3801100813727756]","[-0.010097039083666631, 1.2380759350548995, 1.7281401050757794, 1.1496930460441523, -0.23544089968346904, -0.007771120928931253]","[-0.010097038932144642, 1.2380759716033936, 1.728140115737915, 1.1496930122375488, -0.23544089496135712, -0.007771120872348547]","[3.798073115003808, 3.798073115003808, 4.285440390025987, 2.6302640264026405, 2.6302640264026405, 2.6302640264026405]",0.0,0.0,0.0,0.0,0.0,0.0,0.0,0.0,0.0,0.0,0.0,0.0,0.0,0.0,0.0,0.570132155449206,0.035761736829484005,0.02039915976906731,1.0,0.0,0.0,0.0,0.0,11.0,0.0,0.0,0.0,0.0,0.0,0.0,0.0,0.0,0.0
28762,1731.12,1778805741.560944,1731.12,"[0.49522048234939575, -1.6412809530841272, -1.1753419081317347, -1.813761059437887, 1.536361575126648, 2.071716785430908]","[0.5701321581266054, 0.042977378224155545, 0.023854086014681586, 2.8148245394533116, -0.02415130326204121, 1.3801103534168204]","[-0.010401345758874372, 1.24035331151296, 1.7242031436114793, 1.1468534625767592, -0.24048605939876797, -0.007886958488651591]","[-0.010401345789432526, 1.2403533458709717, 1.724203109741211, 1.1468534469604492, -0.2404860556125641, -0.007886958308517933]","[3.798073115003808, 3.798073115003808, 4.285440390025987, 2.6302640264026405, 2.6302640264026405, 2.6302640264026405]",0.0,0.0,0.0,0.0,0.0,0.0,0.0,0.0,0.0,0.0,0.0,0.0,0.0,0.0,0.0,0.5701319919002505,0.04117341757767459,0.02299016520116265,1.0,0.0,0.0,0.0,0.0,11.0,0.0,0.0,0.0,0.0,0.0,0.0,0.0,0.0,0.0
28766,1731.1519999999998,1778805741.560944,1731.1519999999998,"[0.5159261226654053, -1.6513598600970667, -1.146886173878805, -1.8328664938556116, 1.5346729755401611, 2.0923662185668945]","[0.5701321480184492, 0.05019303435679124, 0.027308806675360286, 2.8148246252139706, -0.024151096379487466, 1.3801100308106675]","[-0.010946277970545216, 1.2454533011053688, 1.716101677344913, 1.140987390489082, -0.25038856658418873, -0.00810159487975618]","[-0.010946277529001236, 1.2454533576965332, 1.7161016464233398, 1.1409873962402344, -0.25038856267929077, -0.008101594634354115]","[3.798073115003808, 3.798073115003808, 4.285440390025987, 2.6302640264026405, 2.6302640264026405, 2.6302640264026405]",0.0,0.0,0.0,0.0,0.0,0.0,0.0,0.0,0.0,0.0,0.0,0.0,0.0,0.0,0.0,0.570132257364091,0.04838917939573729,0.026445171350915897,1.0,0.0,0.0,0.0,0.0,11.0,0.0,0.0,0.0,0.0,0.0,0.0,0.0,0.0,0.0
28767,1731.1599999999999,1778805741.5619662,1731.1599999999999,"[0.5210524797439575, -1.6540477911578577, -1.1395471731769007, -1.837703053151266, 1.5342572927474976, 2.0974791049957275]","[0.5701321633923354, 0.051996954692000406, 0.02817265884629433, 2.8148246090609814, -0.024151251411644273, 1.3801103298409745]","[-0.011068748904377845, 1.2468362826776822, 1.7140308818892438, 1.1394814727846434, -0.2528244665827723, -0.008151650271008769]","[-0.011068749241530895, 1.2468363046646118, 1.7140308618545532, 1.1394814252853394, -0.25282445549964905, -0.008151650428771973]","[3.798073115003808, 3.798073115003808, 4.285440390025987, 2.6302640264026405, 2.6302640264026405, 2.6302640264026405]",0.0,0.0,0.0,0.0,0.0,0.0,0.0,0.0,0.0,0.0,0.0,0.0,0.0,0.0,0.0,0.5701321480184492,0.05019303435679124,0.027308806675360286,1.0,0.0,0.0,0.0,0.0,11.0,0.0,0.0,0.0,0.0,0.0,0.0,0.0,0.0,0.0
28768,1731.168,1778805741.562934,1731.168,"[0.5261584520339966, -1.65680438676943, -1.132115666066305, -1.8425653616534632, 1.5338441133499146, 2.102571725845337]","[0.5701321145041632, 0.05380081961061499, 0.02903625461826692, 2.8148246175666003, -0.024151042097066637, 1.3801099289881757]","[-0.011185543894585, 1.2482602884298206, 1.7119426986540427, 1.1379595435575673, -0.2552442898387193, -0.008200249139109684]","[-0.011185543611645699, 1.248260259628296, 1.7119426727294922, 1.137959599494934, -0.25524428486824036, -0.008200248703360558]","[3.798073115003808, 3.798073115003808, 4.285440390025987, 2.6302640264026405, 2.6302640264026405, 2.6302640264026405]",0.0,0.0,0.0,0.0,0.0,0.0,0.0,0.0,0.0,0.0,0.0,0.0,0.0,0.0,0.0,0.5701321633923354,0.051996954692000406,0.02817265884629433,1.0,0.0,0.0,0.0,0.0,11.0,0.0,0.0,0.0,0.0,0.0,0.0,0.0,0.0,0.0
28769,1731.176,1778805741.562934,1731.176,"[0.5312437415122986, -1.6596296469317835, -1.1245902220355433, -1.8474538961993616, 1.5334336757659912, 2.1076440811157227]","[0.5701321738729557, 0.055604748394367375, 0.02989994625133674, 2.8148246108252035, -0.02415132890431879, 1.380109988137611]","[-0.011296575764608333, 1.2497241096480645, 1.7098375765023506, 1.1364214293548087, -0.25764795169708216, -0.008247385405816402]","[-0.011296575888991356, 1.2497241497039795, 1.709837555885315, 1.1364214420318604, -0.25764796137809753, -0.00824738573282957]","[3.798073115003808, 3.798073115003808, 4.285440390025987, 2.6302640264026405, 2.6302640264026405, 2.6302640264026405]",0.0,0.0,0.0,0.0,0.0,0.0,0.0,0.0,0.0,0.0,0.0,0.0,0.0,0.0,0.0,0.5701321145041632,0.05380081961061499,0.02903625461826692,1.0,0.0,0.0,0.0,0.0,11.0,0.0,0.0,0.0,0.0,0.0,0.0,0.0,0.0,0.0
28770,1731.184,1778805741.562934,1731.184,"[0.536308228969574, -1.6625235716449183, -1.116969410573141, -1.852370564137594, 1.533025860786438, 2.1126954555511475]","[0.570132041289275, 0.057408645222363344, 0.030763698553927743, 2.814824742187723, -0.02415099892139248, 1.3801099353147948]","[-0.011401755770682734, 1.2512264572814384, 1.7077160032580707, 1.1348669255654555, -0.26003537218995637, -0.008293053774015955]","[-0.01140175573527813, 1.2512264251708984, 1.7077159881591797, 1.1348669528961182, -0.26003536581993103, -0.008293054066598415]","[3.798073115003808, 3.798073115003808, 4.285440390025987, 2.6302640264026405, 2.6302640264026405, 2.6302640264026405]",0.0,0.0,0.0,0.0,0.0,0.0,0.0,0.0,0.0,0.0,0.0,0.0,0.0,0.0,0.0,0.5701321145041632,0.05380081961061499,0.02903625461826692,1.0,0.0,0.0,0.0,0.0,11.0,0.0,0.0,0.0,0.0,0.0,0.0,0.0,0.0,0.0
28771,1731.192,1778805741.562934,1731.192,"[0.5413516759872437, -1.665488068257467, -1.1092513243304651, -1.8573153654681605, 1.5326205492019653, 2.1177263259887695]","[0.5701320852539008, 0.059212489664805565, 0.03162728206732257, 2.8148246357393, -0.024151015305553657, 1.3801096433096496]","[-0.01150099315346551, 1.2527659550651915, 1.7055785104099705, 1.1332957935957721, -0.26240647597116273, -0.008337249694042448]","[-0.011500992812216282, 1.2527660131454468, 1.7055785655975342, 1.1332957744598389, -0.26240646839141846, -0.008337249979376793]","[3.798073115003808, 3.798073115003808, 4.285440390025987, 2.6302640264026405, 2.6302640264026405, 2.6302640264026405]",0.0,0.0,0.0,0.0,0.0,0.0,0.0,0.0,0.0,0.0,0.0,0.0,0.0,0.0,0.0,0.570132041289275,0.057408645222363344,0.030763698553927743,1.0,0.0,0.0,0.0,0.0,11.0,0.0,0.0,0.0,0.0,0.0,0.0,0.0,0.0,0.0
28773,1731.2079999999999,1778805741.5639288,1731.2079999999999,"[0.5513748526573181, -1.6716278235064905, -1.0935176054583948, -1.8672950903521937, 1.531818151473999, 2.1277248859405518]","[0.5701320230342464, 0.06282024594548909, 0.033354645712306674, 2.8148246435341004, -0.024151140173779014, 1.380109413256318]","[-0.01168126387793721, 1.255950413175177, 1.7012581426011422, 1.1301025018607478, -0.2670994546923685, -0.008421209516395673]","[-0.011681264266371727, 1.2559504508972168, 1.7012581825256348, 1.130102515220642, -0.26709944009780884, -0.008421209640800953]","[3.798073115003808, 3.798073115003808, 4.285440390025987, 2.6302640264026405, 2.6302640264026405, 2.6302640264026405]",0.0,0.0,0.0,0.0,0.0,0.0,0.0,0.0,0.0,0.0,0.0,0.0,0.0,0.0,0.0,0.5701321674499329,0.06101648535484865,0.03249122215934075,1.0,0.0,0.0,0.0,0.0,11.0,0.0,0.0,0.0,0.0,0.0,0.0,0.0,0.0,0.0
