shh444/ur-rtde/backend/recordings/rtde_20260515_141810_qweqe.csv
frame_index,robot_timestamp_s,received_wall_time_s,timestamp,actual_q,actual_TCP_pose,target_current,actual_current,actual_current_window,urTimestamp,timer,wcrIn,weldCurrent,weldVoltage,xOffset,zOffset,BotRight_Plus,TopLeft_Minus,StandardCurrent,allIntegral,xUp,xUi,zUp,zUi,x,y,z,weldingOnOff,touchOnOff,ratioT_19,tri_count,tri_2,output_double_register_23,peak_value,Arc_percent,ARC_T_Plus,output_double_register_27,output_double_register_28,output_double_register_29,BotRight_Plus_VA,TopLeft_Minus_VA,output_double_register_32
18492,17609.8,1778822290.0927289,17609.8,"[0.46221646666526794, -1.7037628332721155, -1.5137203375445765, -1.4118121306048792, 1.5390832424163818, 2.0388071537017822]","[0.594455028368104, 0.04380810175569349, -0.06185360021638209, 2.8148245383697077, -0.024151397225692043, 1.380110723330618]","[8.518120541175212e-18, 1.4207598833075037, 1.75780550459302, 1.1598998737824695, -0.22517107990205337, -0.0031981919955436497]","[8.518120659613867e-18, 1.420759916305542, 1.7578054666519165, 1.1598998308181763, -0.2251710742712021, -0.0031981919892132282]","[3.798073115003808, 3.798073115003808, 4.285440390025987, 2.6302640264026405, 2.6302640264026405, 2.6302640264026405]",0.0,0.0,0.0,0.0,0.0,0.0,0.0,0.0,0.0,0.0,0.0,0.0,0.0,0.0,0.0,0.5944838375780308,0.043868994938803196,-0.06192762201088026,1.0,0.0,0.0,0.0,0.0,11.0,0.0,0.0,0.0,0.0,0.0,0.0,0.0,0.0,0.0
18493,17609.808,1778822290.1003466,17609.808,"[0.46221646666526794, -1.7037628332721155, -1.5137203375445765, -1.4118121306048792, 1.5390832424163818, 2.0388071537017822]","[0.594455028368104, 0.04380810175569349, -0.06185360021638209, 2.8148245383697077, -0.024151397225692043, 1.380110723330618]","[8.518120541175212e-18, 1.4207598833075037, 1.75780550459302, 1.1598998737824695, -0.22517107990205337, -0.0031981919955436497]","[8.518120659613867e-18, 1.420759916305542, 1.7578054666519165, 1.1598998308181763, -0.2251710742712021, -0.0031981919892132282]","[3.798073115003808, 3.798073115003808, 4.285440390025987, 2.6302640264026405, 2.6302640264026405, 2.6302640264026405]",0.0,0.0,0.0,0.0,0.0,0.0,0.0,0.0,0.0,0.0,0.0,0.0,0.0,0.0,0.0,0.5944838375780308,0.043868994938803196,-0.06192762201088026,1.0,0.0,0.0,0.0,0.0,11.0,0.0,0.0,0.0,0.0,0.0,0.0,0.0,0.0,0.0
18494,17609.816,1778822290.1977658,17609.816,"[0.46221646666526794, -1.7037628332721155, -1.5137203375445765, -1.4118121306048792, 1.5390832424163818, 2.0388071537017822]","[0.594455028368104, 0.04380810175569349, -0.06185360021638209, 2.8148245383697077, -0.024151397225692043, 1.380110723330618]","[8.518120541175212e-18, 1.4207598833075037, 1.75780550459302, 1.1598998737824695, -0.22517107990205337, -0.0031981919955436497]","[8.518120659613867e-18, 1.420759916305542, 1.7578054666519165, 1.1598998308181763, -0.2251710742712021, -0.0031981919892132282]","[3.798073115003808, 3.798073115003808, 4.285440390025987, 2.6302640264026405, 2.6302640264026405, 2.6302640264026405]",0.0,0.0,0.0,0.0,0.0,0.0,0.0,0.0,0.0,0.0,0.0,0.0,0.0,0.0,0.0,0.5944838375780308,0.043868994938803196,-0.06192762201088026,1.0,0.0,0.0,0.0,0.0,11.0,0.0,0.0,0.0,0.0,0.0,0.0,0.0,0.0,0.0
18495,17609.824,1778822290.261515,17609.824,"[0.46221646666526794, -1.7037628332721155, -1.5137203375445765, -1.4118121306048792, 1.5390832424163818, 2.0388071537017822]","[0.594455028368104, 0.04380810175569349, -0.06185360021638209, 2.8148245383697077, -0.024151397225692043, 1.380110723330618]","[8.518120541175212e-18, 1.4207598833075037, 1.75780550459302, 1.1598998737824695, -0.22517107990205337, -0.0031981919955436497]","[8.518120659613867e-18, 1.420759916305542, 1.7578054666519165, 1.1598998308181763, -0.2251710742712021, -0.0031981919892132282]","[3.798073115003808, 3.798073115003808, 4.285440390025987, 2.6302640264026405, 2.6302640264026405, 2.6302640264026405]",0.0,0.0,0.0,0.0,0.0,0.0,0.0,0.0,0.0,0.0,0.0,0.0,0.0,0.0,0.0,0.5944838375780308,0.043868994938803196,-0.06192762201088026,1.0,0.0,0.0,0.0,0.0,11.0,0.0,0.0,0.0,0.0,0.0,0.0,0.0,0.0,0.0
18496,17609.832,1778822290.261515,17609.832,"[0.46221646666526794, -1.7037628332721155, -1.5137203375445765, -1.4118121306048792, 1.5390832424163818, 2.0388071537017822]","[0.594455028368104, 0.04380810175569349, -0.06185360021638209, 2.8148245383697077, -0.024151397225692043, 1.380110723330618]","[8.518120541175212e-18, 1.4207598833075037, 1.75780550459302, 1.1598998737824695, -0.22517107990205337, -0.0031981919955436497]","[8.518120659613867e-18, 1.420759916305542, 1.7578054666519165, 1.1598998308181763, -0.2251710742712021, -0.0031981919892132282]","[3.798073115003808, 3.798073115003808, 4.285440390025987, 2.6302640264026405, 2.6302640264026405, 2.6302640264026405]",0.0,0.0,0.0,0.0,0.0,0.0,0.0,0.0,0.0,0.0,0.0,0.0,0.0,0.0,0.0,0.5944838375780308,0.043868994938803196,-0.06192762201088026,1.0,0.0,0.0,0.0,0.0,11.0,0.0,0.0,0.0,0.0,0.0,0.0,0.0,0.0,0.0
18497,17609.84,1778822290.2763164,17609.84,"[0.46221646666526794, -1.7037628332721155, -1.5137203375445765, -1.4118121306048792, 1.5390832424163818, 2.0388071537017822]","[0.594455028368104, 0.04380810175569349, -0.06185360021638209, 2.8148245383697077, -0.024151397225692043, 1.380110723330618]","[8.518120541175212e-18, 1.4207598833075037, 1.75780550459302, 1.1598998737824695, -0.22517107990205337, -0.0031981919955436497]","[8.518120659613867e-18, 1.420759916305542, 1.7578054666519165, 1.1598998308181763, -0.2251710742712021, -0.0031981919892132282]","[3.798073115003808, 3.798073115003808, 4.285440390025987, 2.6302640264026405, 2.6302640264026405, 2.6302640264026405]",0.0,0.0,0.0,0.0,0.0,0.0,0.0,0.0,0.0,0.0,0.0,0.0,0.0,0.0,0.0,0.5944838375780308,0.043868994938803196,-0.06192762201088026,1.0,0.0,0.0,0.0,0.0,11.0,0.0,0.0,0.0,0.0,0.0,0.0,0.0,0.0,0.0
18499,17609.856,1778822290.3529222,17609.856,"[0.46221646666526794, -1.7037628332721155, -1.5137203375445765, -1.4118121306048792, 1.5390832424163818, 2.0388071537017822]","[0.594455028368104, 0.04380810175569349, -0.06185360021638209, 2.8148245383697077, -0.024151397225692043, 1.380110723330618]","[8.518120541175212e-18, 1.4207598833075037, 1.75780550459302, 1.1598998737824695, -0.22517107990205337, -0.0031981919955436497]","[8.518120659613867e-18, 1.420759916305542, 1.7578054666519165, 1.1598998308181763, -0.2251710742712021, -0.0031981919892132282]","[3.798073115003808, 3.798073115003808, 4.285440390025987, 2.6302640264026405, 2.6302640264026405, 2.6302640264026405]",0.0,0.0,0.0,0.0,0.0,0.0,0.0,0.0,0.0,0.0,0.0,0.0,0.0,0.0,0.0,0.5944838375780308,0.043868994938803196,-0.06192762201088026,1.0,0.0,0.0,0.0,0.0,11.0,0.0,0.0,0.0,0.0,0.0,0.0,0.0,0.0,0.0
18500,17609.863999999998,1778822290.3529222,17609.863999999998,"[0.46221646666526794, -1.7037628332721155, -1.5137203375445765, -1.4118121306048792, 1.5390832424163818, 2.0388071537017822]","[0.594455028368104, 0.04380810175569349, -0.06185360021638209, 2.8148245383697077, -0.024151397225692043, 1.380110723330618]","[8.518120541175212e-18, 1.4207598833075037, 1.75780550459302, 1.1598998737824695, -0.22517107990205337, -0.0031981919955436497]","[8.518120659613867e-18, 1.420759916305542, 1.7578054666519165, 1.1598998308181763, -0.2251710742712021, -0.0031981919892132282]","[3.798073115003808, 3.798073115003808, 4.285440390025987, 2.6302640264026405, 2.6302640264026405, 2.6302640264026405]",0.0,0.0,0.0,0.0,0.0,0.0,0.0,0.0,0.0,0.0,0.0,0.0,0.0,0.0,0.0,0.5944838375780308,0.043868994938803196,-0.06192762201088026,1.0,0.0,0.0,0.0,0.0,11.0,0.0,0.0,0.0,0.0,0.0,0.0,0.0,0.0,0.0
18504,17609.896,1778822290.4463358,17609.896,"[0.46221646666526794, -1.7037628332721155, -1.5137203375445765, -1.4118121306048792, 1.5390832424163818, 2.0388071537017822]","[0.594455028368104, 0.04380810175569349, -0.06185360021638209, 2.8148245383697077, -0.024151397225692043, 1.380110723330618]","[8.518120541175212e-18, 1.4207598833075037, 1.75780550459302, 1.1598998737824695, -0.22517107990205337, -0.0031981919955436497]","[8.518120659613867e-18, 1.420759916305542, 1.7578054666519165, 1.1598998308181763, -0.2251710742712021, -0.0031981919892132282]","[3.798073115003808, 3.798073115003808, 4.285440390025987, 2.6302640264026405, 2.6302640264026405, 2.6302640264026405]",0.0,0.0,0.0,0.0,0.0,0.0,0.0,0.0,0.0,0.0,0.0,0.0,0.0,0.0,0.0,0.5944838375780308,0.043868994938803196,-0.06192762201088026,1.0,0.0,0.0,0.0,0.0,11.0,0.0,0.0,0.0,0.0,0.0,0.0,0.0,0.0,0.0
18505,17609.904,1778822290.5638883,17609.904,"[0.46221646666526794, -1.7037628332721155, -1.5137203375445765, -1.4118121306048792, 1.5390832424163818, 2.0388071537017822]","[0.594455028368104, 0.04380810175569349, -0.06185360021638209, 2.8148245383697077, -0.024151397225692043, 1.380110723330618]","[8.518120541175212e-18, 1.4207598833075037, 1.75780550459302, 1.1598998737824695, -0.22517107990205337, -0.0031981919955436497]","[8.518120659613867e-18, 1.420759916305542, 1.7578054666519165, 1.1598998308181763, -0.2251710742712021, -0.0031981919892132282]","[3.798073115003808, 3.798073115003808, 4.285440390025987, 2.6302640264026405, 2.6302640264026405, 2.6302640264026405]",0.0,0.0,0.0,0.0,0.0,0.0,0.0,0.0,0.0,0.0,0.0,0.0,0.0,0.0,0.0,0.5944838375780308,0.043868994938803196,-0.06192762201088026,1.0,0.0,0.0,0.0,0.0,11.0,0.0,0.0,0.0,0.0,0.0,0.0,0.0,0.0,0.0
18506,17609.912,1778822290.5674145,17609.912,"[0.46221646666526794, -1.7037628332721155, -1.5137203375445765, -1.4118121306048792, 1.5390832424163818, 2.0388071537017822]","[0.594455028368104, 0.04380810175569349, -0.06185360021638209, 2.8148245383697077, -0.024151397225692043, 1.380110723330618]","[8.518120541175212e-18, 1.4207598833075037, 1.75780550459302, 1.1598998737824695, -0.22517107990205337, -0.0031981919955436497]","[8.518120659613867e-18, 1.420759916305542, 1.7578054666519165, 1.1598998308181763, -0.2251710742712021, -0.0031981919892132282]","[3.798073115003808, 3.798073115003808, 4.285440390025987, 2.6302640264026405, 2.6302640264026405, 2.6302640264026405]",0.0,0.0,0.0,0.0,0.0,0.0,0.0,0.0,0.0,0.0,0.0,0.0,0.0,0.0,0.0,0.5944838375780308,0.043868994938803196,-0.06192762201088026,1.0,0.0,0.0,0.0,0.0,11.0,0.0,0.0,0.0,0.0,0.0,0.0,0.0,0.0,0.0
18507,17609.92,1778822290.5674145,17609.92,"[0.46221646666526794, -1.7037628332721155, -1.5137203375445765, -1.4118121306048792, 1.5390832424163818, 2.0388071537017822]","[0.594455028368104, 0.04380810175569349, -0.06185360021638209, 2.8148245383697077, -0.024151397225692043, 1.380110723330618]","[8.518120541175212e-18, 1.4207598833075037, 1.75780550459302, 1.1598998737824695, -0.22517107990205337, -0.0031981919955436497]","[8.518120659613867e-18, 1.420759916305542, 1.7578054666519165, 1.1598998308181763, -0.2251710742712021, -0.0031981919892132282]","[3.798073115003808, 3.798073115003808, 4.285440390025987, 2.6302640264026405, 2.6302640264026405, 2.6302640264026405]",0.0,0.0,0.0,0.0,0.0,0.0,0.0,0.0,0.0,0.0,0.0,0.0,0.0,0.0,0.0,0.5944838375780308,0.043868994938803196,-0.06192762201088026,1.0,0.0,0.0,0.0,0.0,11.0,0.0,0.0,0.0,0.0,0.0,0.0,0.0,0.0,0.0
18508,17609.928,1778822290.5684147,17609.928,"[0.46221646666526794, -1.7037628332721155, -1.5137203375445765, -1.4118121306048792, 1.5390832424163818, 2.0388071537017822]","[0.594455028368104, 0.04380810175569349, -0.06185360021638209, 2.8148245383697077, -0.024151397225692043, 1.380110723330618]","[8.518120541175212e-18, 1.4207598833075037, 1.75780550459302, 1.1598998737824695, -0.22517107990205337, -0.0031981919955436497]","[8.518120659613867e-18, 1.420759916305542, 1.7578054666519165, 1.1598998308181763, -0.2251710742712021, -0.0031981919892132282]","[3.798073115003808, 3.798073115003808, 4.285440390025987, 2.6302640264026405, 2.6302640264026405, 2.6302640264026405]",0.0,0.0,0.0,0.0,0.0,0.0,0.0,0.0,0.0,0.0,0.0,0.0,0.0,0.0,0.0,0.5944838375780308,0.043868994938803196,-0.06192762201088026,1.0,0.0,0.0,0.0,0.0,11.0,0.0,0.0,0.0,0.0,0.0,0.0,0.0,0.0,0.0
18509,17609.935999999998,1778822290.5684147,17609.935999999998,"[0.46221646666526794, -1.7037628332721155, -1.5137203375445765, -1.4118121306048792, 1.5390832424163818, 2.0388071537017822]","[0.594455028368104, 0.04380810175569349, -0.06185360021638209, 2.8148245383697077, -0.024151397225692043, 1.380110723330618]","[8.518120541175212e-18, 1.4207598833075037, 1.75780550459302, 1.1598998737824695, -0.22517107990205337, -0.0031981919955436497]","[8.518120659613867e-18, 1.420759916305542, 1.7578054666519165, 1.1598998308181763, -0.2251710742712021, -0.0031981919892132282]","[3.798073115003808, 3.798073115003808, 4.285440390025987, 2.6302640264026405, 2.6302640264026405, 2.6302640264026405]",0.0,0.0,0.0,0.0,0.0,0.0,0.0,0.0,0.0,0.0,0.0,0.0,0.0,0.0,0.0,0.5944838375780308,0.043868994938803196,-0.06192762201088026,1.0,0.0,0.0,0.0,0.0,11.0,0.0,0.0,0.0,0.0,0.0,0.0,0.0,0.0,0.0
18510,17609.944,1778822290.5694153,17609.944,"[0.46221646666526794, -1.7037628332721155, -1.5137203375445765, -1.4118121306048792, 1.5390832424163818, 2.0388071537017822]","[0.594455028368104, 0.04380810175569349, -0.06185360021638209, 2.8148245383697077, -0.024151397225692043, 1.380110723330618]","[8.518120541175212e-18, 1.4207598833075037, 1.75780550459302, 1.1598998737824695, -0.22517107990205337, -0.0031981919955436497]","[8.518120659613867e-18, 1.420759916305542, 1.7578054666519165, 1.1598998308181763, -0.2251710742712021, -0.0031981919892132282]","[3.798073115003808, 3.798073115003808, 4.285440390025987, 2.6302640264026405, 2.6302640264026405, 2.6302640264026405]",0.0,0.0,0.0,0.0,0.0,0.0,0.0,0.0,0.0,0.0,0.0,0.0,0.0,0.0,0.0,0.5944838375780308,0.043868994938803196,-0.06192762201088026,1.0,0.0,0.0,0.0,0.0,11.0,0.0,0.0,0.0,0.0,0.0,0.0,0.0,0.0,0.0
18511,17609.951999999997,1778822290.5694153,17609.951999999997,"[0.46221646666526794, -1.7037628332721155, -1.5137203375445765, -1.4118121306048792, 1.5390832424163818, 2.0388071537017822]","[0.594455028368104, 0.04380810175569349, -0.06185360021638209, 2.8148245383697077, -0.024151397225692043, 1.380110723330618]","[8.518120541175212e-18, 1.4207598833075037, 1.75780550459302, 1.1598998737824695, -0.22517107990205337, -0.0031981919955436497]","[8.518120659613867e-18, 1.420759916305542, 1.7578054666519165, 1.1598998308181763, -0.2251710742712021, -0.0031981919892132282]","[3.798073115003808, 3.798073115003808, 4.285440390025987, 2.6302640264026405, 2.6302640264026405, 2.6302640264026405]",0.0,0.0,0.0,0.0,0.0,0.0,0.0,0.0,0.0,0.0,0.0,0.0,0.0,0.0,0.0,0.5944838375780308,0.043868994938803196,-0.06192762201088026,1.0,0.0,0.0,0.0,0.0,11.0,0.0,0.0,0.0,0.0,0.0,0.0,0.0,0.0,0.0
18512,17609.96,1778822290.5709348,17609.96,"[0.46221646666526794, -1.7037628332721155, -1.5137203375445765, -1.4118121306048792, 1.5390832424163818, 2.0388071537017822]","[0.594455028368104, 0.04380810175569349, -0.06185360021638209, 2.8148245383697077, -0.024151397225692043, 1.380110723330618]","[8.518120541175212e-18, 1.4207598833075037, 1.75780550459302, 1.1598998737824695, -0.22517107990205337, -0.0031981919955436497]","[8.518120659613867e-18, 1.420759916305542, 1.7578054666519165, 1.1598998308181763, -0.2251710742712021, -0.0031981919892132282]","[3.798073115003808, 3.798073115003808, 4.285440390025987, 2.6302640264026405, 2.6302640264026405, 2.6302640264026405]",0.0,0.0,0.0,0.0,0.0,0.0,0.0,0.0,0.0,0.0,0.0,0.0,0.0,0.0,0.0,0.5944838375780308,0.043868994938803196,-0.06192762201088026,1.0,0.0,0.0,0.0,0.0,11.0,0.0,0.0,0.0,0.0,0.0,0.0,0.0,0.0,0.0
18513,17609.968,1778822290.5709348,17609.968,"[0.46221646666526794, -1.7037628332721155, -1.5137203375445765, -1.4118121306048792, 1.5390832424163818, 2.0388071537017822]","[0.594455028368104, 0.04380810175569349, -0.06185360021638209, 2.8148245383697077, -0.024151397225692043, 1.380110723330618]","[8.518120541175212e-18, 1.4207598833075037, 1.75780550459302, 1.1598998737824695, -0.22517107990205337, -0.0031981919955436497]","[8.518120659613867e-18, 1.420759916305542, 1.7578054666519165, 1.1598998308181763, -0.2251710742712021, -0.0031981919892132282]","[3.798073115003808, 3.798073115003808, 4.285440390025987, 2.6302640264026405, 2.6302640264026405, 2.6302640264026405]",0.0,0.0,0.0,0.0,0.0,0.0,0.0,0.0,0.0,0.0,0.0,0.0,0.0,0.0,0.0,0.5944838375780308,0.043868994938803196,-0.06192762201088026,1.0,0.0,0.0,0.0,0.0,11.0,0.0,0.0,0.0,0.0,0.0,0.0,0.0,0.0,0.0
18514,17609.976,1778822290.5719454,17609.976,"[0.46221646666526794, -1.7037628332721155, -1.5137203375445765, -1.4118121306048792, 1.5390832424163818, 2.0388071537017822]","[0.594455028368104, 0.04380810175569349, -0.06185360021638209, 2.8148245383697077, -0.024151397225692043, 1.380110723330618]","[8.518120541175212e-18, 1.4207598833075037, 1.75780550459302, 1.1598998737824695, -0.22517107990205337, -0.0031981919955436497]","[8.518120659613867e-18, 1.420759916305542, 1.7578054666519165, 1.1598998308181763, -0.2251710742712021, -0.0031981919892132282]","[3.798073115003808, 3.798073115003808, 4.285440390025987, 2.6302640264026405, 2.6302640264026405, 2.6302640264026405]",0.0,0.0,0.0,0.0,0.0,0.0,0.0,0.0,0.0,0.0,0.0,0.0,0.0,0.0,0.0,0.5944838375780308,0.043868994938803196,-0.06192762201088026,1.0,0.0,0.0,0.0,0.0,11.0,0.0,0.0,0.0,0.0,0.0,0.0,0.0,0.0,0.0
18515,17609.984,1778822290.5719454,17609.984,"[0.46221646666526794, -1.7037628332721155, -1.5137203375445765, -1.4118121306048792, 1.5390832424163818, 2.0388071537017822]","[0.594455028368104, 0.04380810175569349, -0.06185360021638209, 2.8148245383697077, -0.024151397225692043, 1.380110723330618]","[8.518120541175212e-18, 1.4207598833075037, 1.75780550459302, 1.1598998737824695, -0.22517107990205337, -0.0031981919955436497]","[8.518120659613867e-18, 1.420759916305542, 1.7578054666519165, 1.1598998308181763, -0.2251710742712021, -0.0031981919892132282]","[3.798073115003808, 3.798073115003808, 4.285440390025987, 2.6302640264026405, 2.6302640264026405, 2.6302640264026405]",0.0,0.0,0.0,0.0,0.0,0.0,0.0,0.0,0.0,0.0,0.0,0.0,0.0,0.0,0.0,0.5944838375780308,0.043868994938803196,-0.06192762201088026,1.0,0.0,0.0,0.0,0.0,11.0,0.0,0.0,0.0,0.0,0.0,0.0,0.0,0.0,0.0
18517,17610.0,1778822290.5729494,17610.0,"[0.46221646666526794, -1.7037628332721155, -1.5137203375445765, -1.4118121306048792, 1.5390832424163818, 2.0388071537017822]","[0.594455028368104, 0.04380810175569349, -0.06185360021638209, 2.8148245383697077, -0.024151397225692043, 1.380110723330618]","[8.518120541175212e-18, 1.4207598833075037, 1.75780550459302, 1.1598998737824695, -0.22517107990205337, -0.0031981919955436497]","[8.518120659613867e-18, 1.420759916305542, 1.7578054666519165, 1.1598998308181763, -0.2251710742712021, -0.0031981919892132282]","[3.798073115003808, 3.798073115003808, 4.285440390025987, 2.6302640264026405, 2.6302640264026405, 2.6302640264026405]",0.0,0.0,0.0,0.0,0.0,0.0,0.0,0.0,0.0,0.0,0.0,0.0,0.0,0.0,0.0,0.5944838375780308,0.043868994938803196,-0.06192762201088026,1.0,0.0,0.0,0.0,0.0,11.0,0.0,0.0,0.0,0.0,0.0,0.0,0.0,0.0,0.0
18518,17610.007999999998,1778822290.5739927,17610.007999999998,"[0.46221646666526794, -1.7037628332721155, -1.5137203375445765, -1.4118121306048792, 1.5390832424163818, 2.0388071537017822]","[0.594455028368104, 0.04380810175569349, -0.06185360021638209, 2.8148245383697077, -0.024151397225692043, 1.380110723330618]","[8.518120541175212e-18, 1.4207598833075037, 1.75780550459302, 1.1598998737824695, -0.22517107990205337, -0.0031981919955436497]","[8.518120659613867e-18, 1.420759916305542, 1.7578054666519165, 1.1598998308181763, -0.2251710742712021, -0.0031981919892132282]","[3.798073115003808, 3.798073115003808, 4.285440390025987, 2.6302640264026405, 2.6302640264026405, 2.6302640264026405]",0.0,0.0,0.0,0.0,0.0,0.0,0.0,0.0,0.0,0.0,0.0,0.0,0.0,0.0,0.0,0.5944838375780308,0.043868994938803196,-0.06192762201088026,1.0,0.0,0.0,0.0,0.0,11.0,0.0,0.0,0.0,0.0,0.0,0.0,0.0,0.0,0.0
18519,17610.016,1778822290.5739927,17610.016,"[0.46221646666526794, -1.7037628332721155, -1.5137203375445765, -1.4118121306048792, 1.5390832424163818, 2.0388071537017822]","[0.594455028368104, 0.04380810175569349, -0.06185360021638209, 2.8148245383697077, -0.024151397225692043, 1.380110723330618]","[8.518120541175212e-18, 1.4207598833075037, 1.75780550459302, 1.1598998737824695, -0.22517107990205337, -0.0031981919955436497]","[8.518120659613867e-18, 1.420759916305542, 1.7578054666519165, 1.1598998308181763, -0.2251710742712021, -0.0031981919892132282]","[3.798073115003808, 3.798073115003808, 4.285440390025987, 2.6302640264026405, 2.6302640264026405, 2.6302640264026405]",0.0,0.0,0.0,0.0,0.0,0.0,0.0,0.0,0.0,0.0,0.0,0.0,0.0,0.0,0.0,0.5944838375780308,0.043868994938803196,-0.06192762201088026,1.0,0.0,0.0,0.0,0.0,11.0,0.0,0.0,0.0,0.0,0.0,0.0,0.0,0.0,0.0
18520,17610.023999999998,1778822290.575007,17610.023999999998,"[0.46221646666526794, -1.7037628332721155, -1.5137203375445765, -1.4118121306048792, 1.5390832424163818, 2.0388071537017822]","[0.594455028368104, 0.04380810175569349, -0.06185360021638209, 2.8148245383697077, -0.024151397225692043, 1.380110723330618]","[8.518120541175212e-18, 1.4207598833075037, 1.75780550459302, 1.1598998737824695, -0.22517107990205337, -0.0031981919955436497]","[8.518120659613867e-18, 1.420759916305542, 1.7578054666519165, 1.1598998308181763, -0.2251710742712021, -0.0031981919892132282]","[3.798073115003808, 3.798073115003808, 4.285440390025987, 2.6302640264026405, 2.6302640264026405, 2.6302640264026405]",0.0,0.0,0.0,0.0,0.0,0.0,0.0,0.0,0.0,0.0,0.0,0.0,0.0,0.0,0.0,0.5944838375780308,0.043868994938803196,-0.06192762201088026,1.0,0.0,0.0,0.0,0.0,11.0,0.0,0.0,0.0,0.0,0.0,0.0,0.0,0.0,0.0
18521,17610.032,1778822290.575007,17610.032,"[0.46221646666526794, -1.7037628332721155, -1.5137203375445765, -1.4118121306048792, 1.5390832424163818, 2.0388071537017822]","[0.594455028368104, 0.04380810175569349, -0.06185360021638209, 2.8148245383697077, -0.024151397225692043, 1.380110723330618]","[8.518120541175212e-18, 1.4207598833075037, 1.75780550459302, 1.1598998737824695, -0.22517107990205337, -0.0031981919955436497]","[8.518120659613867e-18, 1.420759916305542, 1.7578054666519165, 1.1598998308181763, -0.2251710742712021, -0.0031981919892132282]","[3.798073115003808, 3.798073115003808, 4.285440390025987, 2.6302640264026405, 2.6302640264026405, 2.6302640264026405]",0.0,0.0,0.0,0.0,0.0,0.0,0.0,0.0,0.0,0.0,0.0,0.0,0.0,0.0,0.0,0.5944838375780308,0.043868994938803196,-0.06192762201088026,1.0,0.0,0.0,0.0,0.0,11.0,0.0,0.0,0.0,0.0,0.0,0.0,0.0,0.0,0.0
18523,17610.048,1778822290.575998,17610.048,"[0.46221646666526794, -1.7037628332721155, -1.5137203375445765, -1.4118121306048792, 1.5390832424163818, 2.0388071537017822]","[0.594455028368104, 0.04380810175569349, -0.06185360021638209, 2.8148245383697077, -0.024151397225692043, 1.380110723330618]","[8.518120541175212e-18, 1.4207598833075037, 1.75780550459302, 1.1598998737824695, -0.22517107990205337, -0.0031981919955436497]","[8.518120659613867e-18, 1.420759916305542, 1.7578054666519165, 1.1598998308181763, -0.2251710742712021, -0.0031981919892132282]","[3.798073115003808, 3.798073115003808, 4.285440390025987, 2.6302640264026405, 2.6302640264026405, 2.6302640264026405]",0.0,0.0,0.0,0.0,0.0,0.0,0.0,0.0,0.0,0.0,0.0,0.0,0.0,0.0,0.0,0.5944838375780308,0.043868994938803196,-0.06192762201088026,1.0,0.0,0.0,0.0,0.0,11.0,0.0,0.0,0.0,0.0,0.0,0.0,0.0,0.0,0.0
18524,17610.056,1778822290.575998,17610.056,"[0.46221646666526794, -1.7037628332721155, -1.5137203375445765, -1.4118121306048792, 1.5390832424163818, 2.0388071537017822]","[0.594455028368104, 0.04380810175569349, -0.06185360021638209, 2.8148245383697077, -0.024151397225692043, 1.380110723330618]","[8.518120541175212e-18, 1.4207598833075037, 1.75780550459302, 1.1598998737824695, -0.22517107990205337, -0.0031981919955436497]","[8.518120659613867e-18, 1.420759916305542, 1.7578054666519165, 1.1598998308181763, -0.2251710742712021, -0.0031981919892132282]","[3.798073115003808, 3.798073115003808, 4.285440390025987, 2.6302640264026405, 2.6302640264026405, 2.6302640264026405]",0.0,0.0,0.0,0.0,0.0,0.0,0.0,0.0,0.0,0.0,0.0,0.0,0.0,0.0,0.0,0.5944838375780308,0.043868994938803196,-0.06192762201088026,1.0,0.0,0.0,0.0,0.0,11.0,0.0,0.0,0.0,0.0,0.0,0.0,0.0,0.0,0.0
18525,17610.064,1778822290.575998,17610.064,"[0.46221646666526794, -1.7037628332721155, -1.5137203375445765, -1.4118121306048792, 1.5390832424163818, 2.0388071537017822]","[0.594455028368104, 0.04380810175569349, -0.06185360021638209, 2.8148245383697077, -0.024151397225692043, 1.380110723330618]","[8.518120541175212e-18, 1.4207598833075037, 1.75780550459302, 1.1598998737824695, -0.22517107990205337, -0.0031981919955436497]","[8.518120659613867e-18, 1.420759916305542, 1.7578054666519165, 1.1598998308181763, -0.2251710742712021, -0.0031981919892132282]","[3.798073115003808, 3.798073115003808, 4.285440390025987, 2.6302640264026405, 2.6302640264026405, 2.6302640264026405]",0.0,0.0,0.0,0.0,0.0,0.0,0.0,0.0,0.0,0.0,0.0,0.0,0.0,0.0,0.0,0.5944838375780308,0.043868994938803196,-0.06192762201088026,1.0,0.0,0.0,0.0,0.0,11.0,0.0,0.0,0.0,0.0,0.0,0.0,0.0,0.0,0.0
18526,17610.072,1778822290.575998,17610.072,"[0.46221646666526794, -1.7037628332721155, -1.5137203375445765, -1.4118121306048792, 1.5390832424163818, 2.0388071537017822]","[0.594455028368104, 0.04380810175569349, -0.06185360021638209, 2.8148245383697077, -0.024151397225692043, 1.380110723330618]","[8.518120541175212e-18, 1.4207598833075037, 1.75780550459302, 1.1598998737824695, -0.22517107990205337, -0.0031981919955436497]","[8.518120659613867e-18, 1.420759916305542, 1.7578054666519165, 1.1598998308181763, -0.2251710742712021, -0.0031981919892132282]","[3.798073115003808, 3.798073115003808, 4.285440390025987, 2.6302640264026405, 2.6302640264026405, 2.6302640264026405]",0.0,0.0,0.0,0.0,0.0,0.0,0.0,0.0,0.0,0.0,0.0,0.0,0.0,0.0,0.0,0.5944838375780308,0.043868994938803196,-0.06192762201088026,1.0,0.0,0.0,0.0,0.0,11.0,0.0,0.0,0.0,0.0,0.0,0.0,0.0,0.0,0.0
18527,17610.079999999998,1778822290.5769973,17610.079999999998,"[0.46221646666526794, -1.7037628332721155, -1.5137203375445765, -1.4118121306048792, 1.5390832424163818, 2.0388071537017822]","[0.594455028368104, 0.04380810175569349, -0.06185360021638209, 2.8148245383697077, -0.024151397225692043, 1.380110723330618]","[8.518120541175212e-18, 1.4207598833075037, 1.75780550459302, 1.1598998737824695, -0.22517107990205337, -0.0031981919955436497]","[8.518120659613867e-18, 1.420759916305542, 1.7578054666519165, 1.1598998308181763, -0.2251710742712021, -0.0031981919892132282]","[3.798073115003808, 3.798073115003808, 4.285440390025987, 2.6302640264026405, 2.6302640264026405, 2.6302640264026405]",0.0,0.0,0.0,0.0,0.0,0.0,0.0,0.0,0.0,0.0,0.0,0.0,0.0,0.0,0.0,0.5944838375780308,0.043868994938803196,-0.06192762201088026,1.0,0.0,0.0,0.0,0.0,11.0,0.0,0.0,0.0,0.0,0.0,0.0,0.0,0.0,0.0
18528,17610.088,1778822290.5769973,17610.088,"[0.46221646666526794, -1.7037628332721155, -1.5137203375445765, -1.4118121306048792, 1.5390832424163818, 2.0388071537017822]","[0.594455028368104, 0.04380810175569349, -0.06185360021638209, 2.8148245383697077, -0.024151397225692043, 1.380110723330618]","[8.518120541175212e-18, 1.4207598833075037, 1.75780550459302, 1.1598998737824695, -0.22517107990205337, -0.0031981919955436497]","[8.518120659613867e-18, 1.420759916305542, 1.7578054666519165, 1.1598998308181763, -0.2251710742712021, -0.0031981919892132282]","[3.798073115003808, 3.798073115003808, 4.285440390025987, 2.6302640264026405, 2.6302640264026405, 2.6302640264026405]",0.0,0.0,0.0,0.0,0.0,0.0,0.0,0.0,0.0,0.0,0.0,0.0,0.0,0.0,0.0,0.5944838375780308,0.043868994938803196,-0.06192762201088026,1.0,0.0,0.0,0.0,0.0,11.0,0.0,0.0,0.0,0.0,0.0,0.0,0.0,0.0,0.0
18529,17610.095999999998,1778822290.5779896,17610.095999999998,"[0.46221646666526794, -1.7037628332721155, -1.5137203375445765, -1.4118121306048792, 1.5390832424163818, 2.0388071537017822]","[0.594455028368104, 0.04380810175569349, -0.06185360021638209, 2.8148245383697077, -0.024151397225692043, 1.380110723330618]","[8.518120541175212e-18, 1.4207598833075037, 1.75780550459302, 1.1598998737824695, -0.22517107990205337, -0.0031981919955436497]","[8.518120659613867e-18, 1.420759916305542, 1.7578054666519165, 1.1598998308181763, -0.2251710742712021, -0.0031981919892132282]","[3.798073115003808, 3.798073115003808, 4.285440390025987, 2.6302640264026405, 2.6302640264026405, 2.6302640264026405]",0.0,0.0,0.0,0.0,0.0,0.0,0.0,0.0,0.0,0.0,0.0,0.0,0.0,0.0,0.0,0.5944838375780308,0.043868994938803196,-0.06192762201088026,1.0,0.0,0.0,0.0,0.0,11.0,0.0,0.0,0.0,0.0,0.0,0.0,0.0,0.0,0.0
18530,17610.104,1778822290.5779896,17610.104,"[0.46221646666526794, -1.7037628332721155, -1.5137203375445765, -1.4118121306048792, 1.5390832424163818, 2.0388071537017822]","[0.594455028368104, 0.04380810175569349, -0.06185360021638209, 2.8148245383697077, -0.024151397225692043, 1.380110723330618]","[8.518120541175212e-18, 1.4207598833075037, 1.75780550459302, 1.1598998737824695, -0.22517107990205337, -0.0031981919955436497]","[8.518120659613867e-18, 1.420759916305542, 1.7578054666519165, 1.1598998308181763, -0.2251710742712021, -0.0031981919892132282]","[3.798073115003808, 3.798073115003808, 4.285440390025987, 2.6302640264026405, 2.6302640264026405, 2.6302640264026405]",0.0,0.0,0.0,0.0,0.0,0.0,0.0,0.0,0.0,0.0,0.0,0.0,0.0,0.0,0.0,0.5944838375780308,0.043868994938803196,-0.06192762201088026,1.0,0.0,0.0,0.0,0.0,11.0,0.0,0.0,0.0,0.0,0.0,0.0,0.0,0.0,0.0
18531,17610.112,1778822290.579001,17610.112,"[0.46221646666526794, -1.7037628332721155, -1.5137203375445765, -1.4118121306048792, 1.5390832424163818, 2.0388071537017822]","[0.594455028368104, 0.04380810175569349, -0.06185360021638209, 2.8148245383697077, -0.024151397225692043, 1.380110723330618]","[8.518120541175212e-18, 1.4207598833075037, 1.75780550459302, 1.1598998737824695, -0.22517107990205337, -0.0031981919955436497]","[8.518120659613867e-18, 1.420759916305542, 1.7578054666519165, 1.1598998308181763, -0.2251710742712021, -0.0031981919892132282]","[3.798073115003808, 3.798073115003808, 4.285440390025987, 2.6302640264026405, 2.6302640264026405, 2.6302640264026405]",0.0,0.0,0.0,0.0,0.0,0.0,0.0,0.0,0.0,0.0,0.0,0.0,0.0,0.0,0.0,0.5944838375780308,0.043868994938803196,-0.06192762201088026,1.0,0.0,0.0,0.0,0.0,11.0,0.0,0.0,0.0,0.0,0.0,0.0,0.0,0.0,0.0
18532,17610.12,1778822290.579001,17610.12,"[0.46221646666526794, -1.7037628332721155, -1.5137203375445765, -1.4118121306048792, 1.5390832424163818, 2.0388071537017822]","[0.594455028368104, 0.04380810175569349, -0.06185360021638209, 2.8148245383697077, -0.024151397225692043, 1.380110723330618]","[8.518120541175212e-18, 1.4207598833075037, 1.75780550459302, 1.1598998737824695, -0.22517107990205337, -0.0031981919955436497]","[8.518120659613867e-18, 1.420759916305542, 1.7578054666519165, 1.1598998308181763, -0.2251710742712021, -0.0031981919892132282]","[3.798073115003808, 3.798073115003808, 4.285440390025987, 2.6302640264026405, 2.6302640264026405, 2.6302640264026405]",0.0,0.0,0.0,0.0,0.0,0.0,0.0,0.0,0.0,0.0,0.0,0.0,0.0,0.0,0.0,0.5944838375780308,0.043868994938803196,-0.06192762201088026,1.0,0.0,0.0,0.0,0.0,11.0,0.0,0.0,0.0,0.0,0.0,0.0,0.0,0.0,0.0
18536,17610.152,1778822290.5799963,17610.152,"[0.46221646666526794, -1.7037628332721155, -1.5137203375445765, -1.4118121306048792, 1.5390832424163818, 2.0388071537017822]","[0.594455028368104, 0.04380810175569349, -0.06185360021638209, 2.8148245383697077, -0.024151397225692043, 1.380110723330618]","[8.518120541175212e-18, 1.4207598833075037, 1.75780550459302, 1.1598998737824695, -0.22517107990205337, -0.0031981919955436497]","[8.518120659613867e-18, 1.420759916305542, 1.7578054666519165, 1.1598998308181763, -0.2251710742712021, -0.0031981919892132282]","[3.798073115003808, 3.798073115003808, 4.285440390025987, 2.6302640264026405, 2.6302640264026405, 2.6302640264026405]",0.0,0.0,0.0,0.0,0.0,0.0,0.0,0.0,0.0,0.0,0.0,0.0,0.0,0.0,0.0,0.5944838375780308,0.043868994938803196,-0.06192762201088026,1.0,0.0,0.0,0.0,0.0,11.0,0.0,0.0,0.0,0.0,0.0,0.0,0.0,0.0,0.0
18545,17610.224,1778822290.5820067,17610.224,"[0.46221646666526794, -1.7037628332721155, -1.5137203375445765, -1.4118121306048792, 1.5390832424163818, 2.0388071537017822]","[0.594455028368104, 0.04380810175569349, -0.06185360021638209, 2.8148245383697077, -0.024151397225692043, 1.380110723330618]","[8.518120541175212e-18, 1.4207598833075037, 1.75780550459302, 1.1598998737824695, -0.22517107990205337, -0.0031981919955436497]","[8.518120659613867e-18, 1.420759916305542, 1.7578054666519165, 1.1598998308181763, -0.2251710742712021, -0.0031981919892132282]","[3.798073115003808, 3.798073115003808, 4.285440390025987, 2.6302640264026405, 2.6302640264026405, 2.6302640264026405]",0.0,0.0,0.0,0.0,0.0,0.0,0.0,0.0,0.0,0.0,0.0,0.0,0.0,0.0,0.0,0.5944838375780308,0.043868994938803196,-0.06192762201088026,1.0,0.0,0.0,0.0,0.0,11.0,0.0,0.0,0.0,0.0,0.0,0.0,0.0,0.0,0.0
18546,17610.232,1778822290.5820067,17610.232,"[0.46221646666526794, -1.7037628332721155, -1.5137203375445765, -1.4118121306048792, 1.5390832424163818, 2.0388071537017822]","[0.594455028368104, 0.04380810175569349, -0.06185360021638209, 2.8148245383697077, -0.024151397225692043, 1.380110723330618]","[8.518120541175212e-18, 1.4207598833075037, 1.75780550459302, 1.1598998737824695, -0.22517107990205337, -0.0031981919955436497]","[8.518120659613867e-18, 1.420759916305542, 1.7578054666519165, 1.1598998308181763, -0.2251710742712021, -0.0031981919892132282]","[3.798073115003808, 3.798073115003808, 4.285440390025987, 2.6302640264026405, 2.6302640264026405, 2.6302640264026405]",0.0,0.0,0.0,0.0,0.0,0.0,0.0,0.0,0.0,0.0,0.0,0.0,0.0,0.0,0.0,0.5944838375780308,0.043868994938803196,-0.06192762201088026,1.0,0.0,0.0,0.0,0.0,11.0,0.0,0.0,0.0,0.0,0.0,0.0,0.0,0.0,0.0
18551,17610.272,1778822290.5820067,17610.272,"[0.46221646666526794, -1.7037628332721155, -1.5137203375445765, -1.4118121306048792, 1.5390832424163818, 2.0388071537017822]","[0.594455028368104, 0.04380810175569349, -0.06185360021638209, 2.8148245383697077, -0.024151397225692043, 1.380110723330618]","[8.518120541175212e-18, 1.4207598833075037, 1.75780550459302, 1.1598998737824695, -0.22517107990205337, -0.0031981919955436497]","[8.518120659613867e-18, 1.420759916305542, 1.7578054666519165, 1.1598998308181763, -0.2251710742712021, -0.0031981919892132282]","[3.798073115003808, 3.798073115003808, 4.285440390025987, 2.6302640264026405, 2.6302640264026405, 2.6302640264026405]",0.0,0.0,0.0,0.0,0.0,0.0,0.0,0.0,0.0,0.0,0.0,0.0,0.0,0.0,0.0,0.5944838375780308,0.043868994938803196,-0.06192762201088026,1.0,0.0,0.0,0.0,0.0,11.0,0.0,0.0,0.0,0.0,0.0,0.0,0.0,0.0,0.0
18552,17610.28,1778822290.5906177,17610.28,"[0.46221646666526794, -1.7037628332721155, -1.5137203375445765, -1.4118121306048792, 1.5390832424163818, 2.0388071537017822]","[0.594455028368104, 0.04380810175569349, -0.06185360021638209, 2.8148245383697077, -0.024151397225692043, 1.380110723330618]","[8.518120541175212e-18, 1.4207598833075037, 1.75780550459302, 1.1598998737824695, -0.22517107990205337, -0.0031981919955436497]","[8.518120659613867e-18, 1.420759916305542, 1.7578054666519165, 1.1598998308181763, -0.2251710742712021, -0.0031981919892132282]","[3.798073115003808, 3.798073115003808, 4.285440390025987, 2.6302640264026405, 2.6302640264026405, 2.6302640264026405]",0.0,0.0,0.0,0.0,0.0,0.0,0.0,0.0,0.0,0.0,0.0,0.0,0.0,0.0,0.0,0.5944838375780308,0.043868994938803196,-0.06192762201088026,1.0,0.0,0.0,0.0,0.0,11.0,0.0,0.0,0.0,0.0,0.0,0.0,0.0,0.0,0.0
18553,17610.288,1778822290.598699,17610.288,"[0.46221646666526794, -1.7037628332721155, -1.5137203375445765, -1.4118121306048792, 1.5390832424163818, 2.0388071537017822]","[0.594455028368104, 0.04380810175569349, -0.06185360021638209, 2.8148245383697077, -0.024151397225692043, 1.380110723330618]","[8.518120541175212e-18, 1.4207598833075037, 1.75780550459302, 1.1598998737824695, -0.22517107990205337, -0.0031981919955436497]","[8.518120659613867e-18, 1.420759916305542, 1.7578054666519165, 1.1598998308181763, -0.2251710742712021, -0.0031981919892132282]","[3.798073115003808, 3.798073115003808, 4.285440390025987, 2.6302640264026405, 2.6302640264026405, 2.6302640264026405]",0.0,0.0,0.0,0.0,0.0,0.0,0.0,0.0,0.0,0.0,0.0,0.0,0.0,0.0,0.0,0.5944838375780308,0.043868994938803196,-0.06192762201088026,1.0,0.0,0.0,0.0,0.0,11.0,0.0,0.0,0.0,0.0,0.0,0.0,0.0,0.0,0.0
18554,17610.296,1778822290.6072278,17610.296,"[0.46221646666526794, -1.7037628332721155, -1.5137203375445765, -1.4118121306048792, 1.5390832424163818, 2.0388071537017822]","[0.594455028368104, 0.04380810175569349, -0.06185360021638209, 2.8148245383697077, -0.024151397225692043, 1.380110723330618]","[8.518120541175212e-18, 1.4207598833075037, 1.75780550459302, 1.1598998737824695, -0.22517107990205337, -0.0031981919955436497]","[8.518120659613867e-18, 1.420759916305542, 1.7578054666519165, 1.1598998308181763, -0.2251710742712021, -0.0031981919892132282]","[3.798073115003808, 3.798073115003808, 4.285440390025987, 2.6302640264026405, 2.6302640264026405, 2.6302640264026405]",0.0,0.0,0.0,0.0,0.0,0.0,0.0,0.0,0.0,0.0,0.0,0.0,0.0,0.0,0.0,0.5944838375780308,0.043868994938803196,-0.06192762201088026,1.0,0.0,0.0,0.0,0.0,11.0,0.0,0.0,0.0,0.0,0.0,0.0,0.0,0.0,0.0
18555,17610.304,1778822290.6158295,17610.304,"[0.46221646666526794, -1.7037628332721155, -1.5137203375445765, -1.4118121306048792, 1.5390832424163818, 2.0388071537017822]","[0.594455028368104, 0.04380810175569349, -0.06185360021638209, 2.8148245383697077, -0.024151397225692043, 1.380110723330618]","[8.518120541175212e-18, 1.4207598833075037, 1.75780550459302, 1.1598998737824695, -0.22517107990205337, -0.0031981919955436497]","[8.518120659613867e-18, 1.420759916305542, 1.7578054666519165, 1.1598998308181763, -0.2251710742712021, -0.0031981919892132282]","[3.798073115003808, 3.798073115003808, 4.285440390025987, 2.6302640264026405, 2.6302640264026405, 2.6302640264026405]",0.0,0.0,0.0,0.0,0.0,0.0,0.0,0.0,0.0,0.0,0.0,0.0,0.0,0.0,0.0,0.5944838375780308,0.043868994938803196,-0.06192762201088026,1.0,0.0,0.0,0.0,0.0,11.0,0.0,0.0,0.0,0.0,0.0,0.0,0.0,0.0,0.0
18556,17610.311999999998,1778822290.6264377,17610.311999999998,"[0.46221646666526794, -1.7037628332721155, -1.5137203375445765, -1.4118121306048792, 1.5390832424163818, 2.0388071537017822]","[0.594455028368104, 0.04380810175569349, -0.06185360021638209, 2.8148245383697077, -0.024151397225692043, 1.380110723330618]","[8.518120541175212e-18, 1.4207598833075037, 1.75780550459302, 1.1598998737824695, -0.22517107990205337, -0.0031981919955436497]","[8.518120659613867e-18, 1.420759916305542, 1.7578054666519165, 1.1598998308181763, -0.2251710742712021, -0.0031981919892132282]","[3.798073115003808, 3.798073115003808, 4.285440390025987, 2.6302640264026405, 2.6302640264026405, 2.6302640264026405]",0.0,0.0,0.0,0.0,0.0,0.0,0.0,0.0,0.0,0.0,0.0,0.0,0.0,0.0,0.0,0.5944838375780308,0.043868994938803196,-0.06192762201088026,1.0,0.0,0.0,0.0,0.0,11.0,0.0,0.0,0.0,0.0,0.0,0.0,0.0,0.0,0.0
18557,17610.32,1778822290.7250235,17610.32,"[0.46221646666526794, -1.7037628332721155, -1.5137203375445765, -1.4118121306048792, 1.5390832424163818, 2.0388071537017822]","[0.594455028368104, 0.04380810175569349, -0.06185360021638209, 2.8148245383697077, -0.024151397225692043, 1.380110723330618]","[8.518120541175212e-18, 1.4207598833075037, 1.75780550459302, 1.1598998737824695, -0.22517107990205337, -0.0031981919955436497]","[8.518120659613867e-18, 1.420759916305542, 1.7578054666519165, 1.1598998308181763, -0.2251710742712021, -0.0031981919892132282]","[3.798073115003808, 3.798073115003808, 4.285440390025987, 2.6302640264026405, 2.6302640264026405, 2.6302640264026405]",0.0,0.0,0.0,0.0,0.0,0.0,0.0,0.0,0.0,0.0,0.0,0.0,0.0,0.0,0.0,0.5944838375780308,0.043868994938803196,-0.06192762201088026,1.0,0.0,0.0,0.0,0.0,11.0,0.0,0.0,0.0,0.0,0.0,0.0,0.0,0.0,0.0
18558,17610.327999999998,1778822290.80235,17610.327999999998,"[0.46221646666526794, -1.7037628332721155, -1.5137203375445765, -1.4118121306048792, 1.5390832424163818, 2.0388071537017822]","[0.594455028368104, 0.04380810175569349, -0.06185360021638209, 2.8148245383697077, -0.024151397225692043, 1.380110723330618]","[8.518120541175212e-18, 1.4207598833075037, 1.75780550459302, 1.1598998737824695, -0.22517107990205337, -0.0031981919955436497]","[8.518120659613867e-18, 1.420759916305542, 1.7578054666519165, 1.1598998308181763, -0.2251710742712021, -0.0031981919892132282]","[3.798073115003808, 3.798073115003808, 4.285440390025987, 2.6302640264026405, 2.6302640264026405, 2.6302640264026405]",0.0,0.0,0.0,0.0,0.0,0.0,0.0,0.0,0.0,0.0,0.0,0.0,0.0,0.0,0.0,0.5944838375780308,0.043868994938803196,-0.06192762201088026,1.0,0.0,0.0,0.0,0.0,11.0,0.0,0.0,0.0,0.0,0.0,0.0,0.0,0.0,0.0
18559,17610.336,1778822290.8181393,17610.336,"[0.46221646666526794, -1.7037628332721155, -1.5137203375445765, -1.4118121306048792, 1.5390832424163818, 2.0388071537017822]","[0.594455028368104, 0.04380810175569349, -0.06185360021638209, 2.8148245383697077, -0.024151397225692043, 1.380110723330618]","[8.518120541175212e-18, 1.4207598833075037, 1.75780550459302, 1.1598998737824695, -0.22517107990205337, -0.0031981919955436497]","[8.518120659613867e-18, 1.420759916305542, 1.7578054666519165, 1.1598998308181763, -0.2251710742712021, -0.0031981919892132282]","[3.798073115003808, 3.798073115003808, 4.285440390025987, 2.6302640264026405, 2.6302640264026405, 2.6302640264026405]",0.0,0.0,0.0,0.0,0.0,0.0,0.0,0.0,0.0,0.0,0.0,0.0,0.0,0.0,0.0,0.5944838375780308,0.043868994938803196,-0.06192762201088026,1.0,0.0,0.0,0.0,0.0,11.0,0.0,0.0,0.0,0.0,0.0,0.0,0.0,0.0,0.0
18560,17610.344,1778822290.9115686,17610.344,"[0.46221646666526794, -1.7037628332721155, -1.5137203375445765, -1.4118121306048792, 1.5390832424163818, 2.0388071537017822]","[0.594455028368104, 0.04380810175569349, -0.06185360021638209, 2.8148245383697077, -0.024151397225692043, 1.380110723330618]","[8.518120541175212e-18, 1.4207598833075037, 1.75780550459302, 1.1598998737824695, -0.22517107990205337, -0.0031981919955436497]","[8.518120659613867e-18, 1.420759916305542, 1.7578054666519165, 1.1598998308181763, -0.2251710742712021, -0.0031981919892132282]","[3.798073115003808, 3.798073115003808, 4.285440390025987, 2.6302640264026405, 2.6302640264026405, 2.6302640264026405]",0.0,0.0,0.0,0.0,0.0,0.0,0.0,0.0,0.0,0.0,0.0,0.0,0.0,0.0,0.0,0.5944838375780308,0.043868994938803196,-0.06192762201088026,1.0,0.0,0.0,0.0,0.0,11.0,0.0,0.0,0.0,0.0,0.0,0.0,0.0,0.0,0.0
18562,17610.36,1778822291.0147548,17610.36,"[0.46221646666526794, -1.7037628332721155, -1.5137203375445765, -1.4118121306048792, 1.5390832424163818, 2.0388071537017822]","[0.594455028368104, 0.04380810175569349, -0.06185360021638209, 2.8148245383697077, -0.024151397225692043, 1.380110723330618]","[8.518120541175212e-18, 1.4207598833075037, 1.75780550459302, 1.1598998737824695, -0.22517107990205337, -0.0031981919955436497]","[8.518120659613867e-18, 1.420759916305542, 1.7578054666519165, 1.1598998308181763, -0.2251710742712021, -0.0031981919892132282]","[3.798073115003808, 3.798073115003808, 4.285440390025987, 2.6302640264026405, 2.6302640264026405, 2.6302640264026405]",0.0,0.0,0.0,0.0,0.0,0.0,0.0,0.0,0.0,0.0,0.0,0.0,0.0,0.0,0.0,0.5944838375780308,0.043868994938803196,-0.06192762201088026,1.0,0.0,0.0,0.0,0.0,11.0,0.0,0.0,0.0,0.0,0.0,0.0,0.0,0.0,0.0
18600,17610.664,1778822291.176864,17610.664,"[0.46221646666526794, -1.7037628332721155, -1.5137203375445765, -1.4118121306048792, 1.5390832424163818, 2.0388071537017822]","[0.594455028368104, 0.04380810175569349, -0.06185360021638209, 2.8148245383697077, -0.024151397225692043, 1.380110723330618]","[8.518120541175212e-18, 1.4207598833075037, 1.75780550459302, 1.1598998737824695, -0.22517107990205337, -0.0031981919955436497]","[8.518120659613867e-18, 1.420759916305542, 1.7578054666519165, 1.1598998308181763, -0.2251710742712021, -0.0031981919892132282]","[3.798073115003808, 3.798073115003808, 4.285440390025987, 2.6302640264026405, 2.6302640264026405, 2.6302640264026405]",0.0,0.0,0.0,0.0,0.0,0.0,0.0,0.0,0.0,0.0,0.0,0.0,0.0,0.0,0.0,0.5944838375780308,0.043868994938803196,-0.06192762201088026,1.0,0.0,0.0,0.0,0.0,11.0,0.0,0.0,0.0,0.0,0.0,0.0,0.0,0.0,0.0
18602,17610.68,1778822291.176864,17610.68,"[0.46221646666526794, -1.7037628332721155, -1.5137203375445765, -1.4118121306048792, 1.5390832424163818, 2.0388071537017822]","[0.594455028368104, 0.04380810175569349, -0.06185360021638209, 2.8148245383697077, -0.024151397225692043, 1.380110723330618]","[8.518120541175212e-18, 1.4207598833075037, 1.75780550459302, 1.1598998737824695, -0.22517107990205337, -0.0031981919955436497]","[8.518120659613867e-18, 1.420759916305542, 1.7578054666519165, 1.1598998308181763, -0.2251710742712021, -0.0031981919892132282]","[3.798073115003808, 3.798073115003808, 4.285440390025987, 2.6302640264026405, 2.6302640264026405, 2.6302640264026405]",0.0,0.0,0.0,0.0,0.0,0.0,0.0,0.0,0.0,0.0,0.0,0.0,0.0,0.0,0.0,0.5944838375780308,0.043868994938803196,-0.06192762201088026,1.0,0.0,0.0,0.0,0.0,11.0,0.0,0.0,0.0,0.0,0.0,0.0,0.0,0.0,0.0
18603,17610.688,1778822291.176864,17610.688,"[0.46221646666526794, -1.7037628332721155, -1.5137203375445765, -1.4118121306048792, 1.5390832424163818, 2.0388071537017822]","[0.594455028368104, 0.04380810175569349, -0.06185360021638209, 2.8148245383697077, -0.024151397225692043, 1.380110723330618]","[8.518120541175212e-18, 1.4207598833075037, 1.75780550459302, 1.1598998737824695, -0.22517107990205337, -0.0031981919955436497]","[8.518120659613867e-18, 1.420759916305542, 1.7578054666519165, 1.1598998308181763, -0.2251710742712021, -0.0031981919892132282]","[3.798073115003808, 3.798073115003808, 4.285440390025987, 2.6302640264026405, 2.6302640264026405, 2.6302640264026405]",0.0,0.0,0.0,0.0,0.0,0.0,0.0,0.0,0.0,0.0,0.0,0.0,0.0,0.0,0.0,0.5944838375780308,0.043868994938803196,-0.06192762201088026,1.0,0.0,0.0,0.0,0.0,11.0,0.0,0.0,0.0,0.0,0.0,0.0,0.0,0.0,0.0
18604,17610.696,1778822291.17837,17610.696,"[0.46221646666526794, -1.7037628332721155, -1.5137203375445765, -1.4118121306048792, 1.5390832424163818, 2.0388071537017822]","[0.594455028368104, 0.04380810175569349, -0.06185360021638209, 2.8148245383697077, -0.024151397225692043, 1.380110723330618]","[8.518120541175212e-18, 1.4207598833075037, 1.75780550459302, 1.1598998737824695, -0.22517107990205337, -0.0031981919955436497]","[8.518120659613867e-18, 1.420759916305542, 1.7578054666519165, 1.1598998308181763, -0.2251710742712021, -0.0031981919892132282]","[3.798073115003808, 3.798073115003808, 4.285440390025987, 2.6302640264026405, 2.6302640264026405, 2.6302640264026405]",0.0,0.0,0.0,0.0,0.0,0.0,0.0,0.0,0.0,0.0,0.0,0.0,0.0,0.0,0.0,0.5944838375780308,0.043868994938803196,-0.06192762201088026,1.0,0.0,0.0,0.0,0.0,11.0,0.0,0.0,0.0,0.0,0.0,0.0,0.0,0.0,0.0
18606,17610.712,1778822291.1793764,17610.712,"[0.46221646666526794, -1.7037628332721155, -1.5137203375445765, -1.4118121306048792, 1.5390832424163818, 2.0388071537017822]","[0.594455028368104, 0.04380810175569349, -0.06185360021638209, 2.8148245383697077, -0.024151397225692043, 1.380110723330618]","[8.518120541175212e-18, 1.4207598833075037, 1.75780550459302, 1.1598998737824695, -0.22517107990205337, -0.0031981919955436497]","[8.518120659613867e-18, 1.420759916305542, 1.7578054666519165, 1.1598998308181763, -0.2251710742712021, -0.0031981919892132282]","[3.798073115003808, 3.798073115003808, 4.285440390025987, 2.6302640264026405, 2.6302640264026405, 2.6302640264026405]",0.0,0.0,0.0,0.0,0.0,0.0,0.0,0.0,0.0,0.0,0.0,0.0,0.0,0.0,0.0,0.5944838375780308,0.043868994938803196,-0.06192762201088026,1.0,0.0,0.0,0.0,0.0,11.0,0.0,0.0,0.0,0.0,0.0,0.0,0.0,0.0,0.0
18607,17610.719999999998,1778822291.1793764,17610.719999999998,"[0.46221646666526794, -1.7037628332721155, -1.5137203375445765, -1.4118121306048792, 1.5390832424163818, 2.0388071537017822]","[0.594455028368104, 0.04380810175569349, -0.06185360021638209, 2.8148245383697077, -0.024151397225692043, 1.380110723330618]","[8.518120541175212e-18, 1.4207598833075037, 1.75780550459302, 1.1598998737824695, -0.22517107990205337, -0.0031981919955436497]","[8.518120659613867e-18, 1.420759916305542, 1.7578054666519165, 1.1598998308181763, -0.2251710742712021, -0.0031981919892132282]","[3.798073115003808, 3.798073115003808, 4.285440390025987, 2.6302640264026405, 2.6302640264026405, 2.6302640264026405]",0.0,0.0,0.0,0.0,0.0,0.0,0.0,0.0,0.0,0.0,0.0,0.0,0.0,0.0,0.0,0.5944838375780308,0.043868994938803196,-0.06192762201088026,1.0,0.0,0.0,0.0,0.0,11.0,0.0,0.0,0.0,0.0,0.0,0.0,0.0,0.0,0.0
18608,17610.728,1778822291.1793764,17610.728,"[0.46221646666526794, -1.7037628332721155, -1.5137203375445765, -1.4118121306048792, 1.5390832424163818, 2.0388071537017822]","[0.594455028368104, 0.04380810175569349, -0.06185360021638209, 2.8148245383697077, -0.024151397225692043, 1.380110723330618]","[8.518120541175212e-18, 1.4207598833075037, 1.75780550459302, 1.1598998737824695, -0.22517107990205337, -0.0031981919955436497]","[8.518120659613867e-18, 1.420759916305542, 1.7578054666519165, 1.1598998308181763, -0.2251710742712021, -0.0031981919892132282]","[3.798073115003808, 3.798073115003808, 4.285440390025987, 2.6302640264026405, 2.6302640264026405, 2.6302640264026405]",0.0,0.0,0.0,0.0,0.0,0.0,0.0,0.0,0.0,0.0,0.0,0.0,0.0,0.0,0.0,0.5944838375780308,0.043868994938803196,-0.06192762201088026,1.0,0.0,0.0,0.0,0.0,11.0,0.0,0.0,0.0,0.0,0.0,0.0,0.0,0.0,0.0
18609,17610.736,1778822291.1803758,17610.736,"[0.46221646666526794, -1.7037628332721155, -1.5137203375445765, -1.4118121306048792, 1.5390832424163818, 2.0388071537017822]","[0.594455028368104, 0.04380810175569349, -0.06185360021638209, 2.8148245383697077, -0.024151397225692043, 1.380110723330618]","[8.518120541175212e-18, 1.4207598833075037, 1.75780550459302, 1.1598998737824695, -0.22517107990205337, -0.0031981919955436497]","[8.518120659613867e-18, 1.420759916305542, 1.7578054666519165, 1.1598998308181763, -0.2251710742712021, -0.0031981919892132282]","[3.798073115003808, 3.798073115003808, 4.285440390025987, 2.6302640264026405, 2.6302640264026405, 2.6302640264026405]",0.0,0.0,0.0,0.0,0.0,0.0,0.0,0.0,0.0,0.0,0.0,0.0,0.0,0.0,0.0,0.5944838375780308,0.043868994938803196,-0.06192762201088026,1.0,0.0,0.0,0.0,0.0,11.0,0.0,0.0,0.0,0.0,0.0,0.0,0.0,0.0,0.0
18611,17610.752,1778822291.1803758,17610.752,"[0.46221646666526794, -1.7037628332721155, -1.5137203375445765, -1.4118121306048792, 1.5390832424163818, 2.0388071537017822]","[0.594455028368104, 0.04380810175569349, -0.06185360021638209, 2.8148245383697077, -0.024151397225692043, 1.380110723330618]","[8.518120541175212e-18, 1.4207598833075037, 1.75780550459302, 1.1598998737824695, -0.22517107990205337, -0.0031981919955436497]","[8.518120659613867e-18, 1.420759916305542, 1.7578054666519165, 1.1598998308181763, -0.2251710742712021, -0.0031981919892132282]","[3.798073115003808, 3.798073115003808, 4.285440390025987, 2.6302640264026405, 2.6302640264026405, 2.6302640264026405]",0.0,0.0,0.0,0.0,0.0,0.0,0.0,0.0,0.0,0.0,0.0,0.0,0.0,0.0,0.0,0.5944838375780308,0.043868994938803196,-0.06192762201088026,1.0,0.0,0.0,0.0,0.0,11.0,0.0,0.0,0.0,0.0,0.0,0.0,0.0,0.0,0.0
18612,17610.76,1778822291.181377,17610.76,"[0.46221646666526794, -1.7037628332721155, -1.5137203375445765, -1.4118121306048792, 1.5390832424163818, 2.0388071537017822]","[0.594455028368104, 0.04380810175569349, -0.06185360021638209, 2.8148245383697077, -0.024151397225692043, 1.380110723330618]","[8.518120541175212e-18, 1.4207598833075037, 1.75780550459302, 1.1598998737824695, -0.22517107990205337, -0.0031981919955436497]","[8.518120659613867e-18, 1.420759916305542, 1.7578054666519165, 1.1598998308181763, -0.2251710742712021, -0.0031981919892132282]","[3.798073115003808, 3.798073115003808, 4.285440390025987, 2.6302640264026405, 2.6302640264026405, 2.6302640264026405]",0.0,0.0,0.0,0.0,0.0,0.0,0.0,0.0,0.0,0.0,0.0,0.0,0.0,0.0,0.0,0.5944838375780308,0.043868994938803196,-0.06192762201088026,1.0,0.0,0.0,0.0,0.0,11.0,0.0,0.0,0.0,0.0,0.0,0.0,0.0,0.0,0.0
18613,17610.768,1778822291.181377,17610.768,"[0.46221646666526794, -1.7037628332721155, -1.5137203375445765, -1.4118121306048792, 1.5390832424163818, 2.0388071537017822]","[0.594455028368104, 0.04380810175569349, -0.06185360021638209, 2.8148245383697077, -0.024151397225692043, 1.380110723330618]","[8.518120541175212e-18, 1.4207598833075037, 1.75780550459302, 1.1598998737824695, -0.22517107990205337, -0.0031981919955436497]","[8.518120659613867e-18, 1.420759916305542, 1.7578054666519165, 1.1598998308181763, -0.2251710742712021, -0.0031981919892132282]","[3.798073115003808, 3.798073115003808, 4.285440390025987, 2.6302640264026405, 2.6302640264026405, 2.6302640264026405]",0.0,0.0,0.0,0.0,0.0,0.0,0.0,0.0,0.0,0.0,0.0,0.0,0.0,0.0,0.0,0.5944838375780308,0.043868994938803196,-0.06192762201088026,1.0,0.0,0.0,0.0,0.0,11.0,0.0,0.0,0.0,0.0,0.0,0.0,0.0,0.0,0.0
18614,17610.775999999998,1778822291.181377,17610.775999999998,"[0.46221646666526794, -1.7037628332721155, -1.5137203375445765, -1.4118121306048792, 1.5390832424163818, 2.0388071537017822]","[0.594455028368104, 0.04380810175569349, -0.06185360021638209, 2.8148245383697077, -0.024151397225692043, 1.380110723330618]","[8.518120541175212e-18, 1.4207598833075037, 1.75780550459302, 1.1598998737824695, -0.22517107990205337, -0.0031981919955436497]","[8.518120659613867e-18, 1.420759916305542, 1.7578054666519165, 1.1598998308181763, -0.2251710742712021, -0.0031981919892132282]","[3.798073115003808, 3.798073115003808, 4.285440390025987, 2.6302640264026405, 2.6302640264026405, 2.6302640264026405]",0.0,0.0,0.0,0.0,0.0,0.0,0.0,0.0,0.0,0.0,0.0,0.0,0.0,0.0,0.0,0.5944838375780308,0.043868994938803196,-0.06192762201088026,1.0,0.0,0.0,0.0,0.0,11.0,0.0,0.0,0.0,0.0,0.0,0.0,0.0,0.0,0.0
18615,17610.784,1778822291.1823761,17610.784,"[0.46221646666526794, -1.7037628332721155, -1.5137203375445765, -1.4118121306048792, 1.5390832424163818, 2.0388071537017822]","[0.594455028368104, 0.04380810175569349, -0.06185360021638209, 2.8148245383697077, -0.024151397225692043, 1.380110723330618]","[8.518120541175212e-18, 1.4207598833075037, 1.75780550459302, 1.1598998737824695, -0.22517107990205337, -0.0031981919955436497]","[8.518120659613867e-18, 1.420759916305542, 1.7578054666519165, 1.1598998308181763, -0.2251710742712021, -0.0031981919892132282]","[3.798073115003808, 3.798073115003808, 4.285440390025987, 2.6302640264026405, 2.6302640264026405, 2.6302640264026405]",0.0,0.0,0.0,0.0,0.0,0.0,0.0,0.0,0.0,0.0,0.0,0.0,0.0,0.0,0.0,0.5944838375780308,0.043868994938803196,-0.06192762201088026,1.0,0.0,0.0,0.0,0.0,11.0,0.0,0.0,0.0,0.0,0.0,0.0,0.0,0.0,0.0
18616,17610.791999999998,1778822291.1823761,17610.791999999998,"[0.46221646666526794, -1.7037628332721155, -1.5137203375445765, -1.4118121306048792, 1.5390832424163818, 2.0388071537017822]","[0.594455028368104, 0.04380810175569349, -0.06185360021638209, 2.8148245383697077, -0.024151397225692043, 1.380110723330618]","[8.518120541175212e-18, 1.4207598833075037, 1.75780550459302, 1.1598998737824695, -0.22517107990205337, -0.0031981919955436497]","[8.518120659613867e-18, 1.420759916305542, 1.7578054666519165, 1.1598998308181763, -0.2251710742712021, -0.0031981919892132282]","[3.798073115003808, 3.798073115003808, 4.285440390025987, 2.6302640264026405, 2.6302640264026405, 2.6302640264026405]",0.0,0.0,0.0,0.0,0.0,0.0,0.0,0.0,0.0,0.0,0.0,0.0,0.0,0.0,0.0,0.5944838375780308,0.043868994938803196,-0.06192762201088026,1.0,0.0,0.0,0.0,0.0,11.0,0.0,0.0,0.0,0.0,0.0,0.0,0.0,0.0,0.0
18618,17610.808,1778822291.1823761,17610.808,"[0.46221646666526794, -1.7037628332721155, -1.5137203375445765, -1.4118121306048792, 1.5390832424163818, 2.0388071537017822]","[0.594455028368104, 0.04380810175569349, -0.06185360021638209, 2.8148245383697077, -0.024151397225692043, 1.380110723330618]","[8.518120541175212e-18, 1.4207598833075037, 1.75780550459302, 1.1598998737824695, -0.22517107990205337, -0.0031981919955436497]","[8.518120659613867e-18, 1.420759916305542, 1.7578054666519165, 1.1598998308181763, -0.2251710742712021, -0.0031981919892132282]","[3.798073115003808, 3.798073115003808, 4.285440390025987, 2.6302640264026405, 2.6302640264026405, 2.6302640264026405]",0.0,0.0,0.0,0.0,0.0,0.0,0.0,0.0,0.0,0.0,0.0,0.0,0.0,0.0,0.0,0.5944838375780308,0.043868994938803196,-0.06192762201088026,1.0,0.0,0.0,0.0,0.0,11.0,0.0,0.0,0.0,0.0,0.0,0.0,0.0,0.0,0.0
18619,17610.816,1778822291.1823761,17610.816,"[0.46221646666526794, -1.7037628332721155, -1.5137203375445765, -1.4118121306048792, 1.5390832424163818, 2.0388071537017822]","[0.594455028368104, 0.04380810175569349, -0.06185360021638209, 2.8148245383697077, -0.024151397225692043, 1.380110723330618]","[8.518120541175212e-18, 1.4207598833075037, 1.75780550459302, 1.1598998737824695, -0.22517107990205337, -0.0031981919955436497]","[8.518120659613867e-18, 1.420759916305542, 1.7578054666519165, 1.1598998308181763, -0.2251710742712021, -0.0031981919892132282]","[3.798073115003808, 3.798073115003808, 4.285440390025987, 2.6302640264026405, 2.6302640264026405, 2.6302640264026405]",0.0,0.0,0.0,0.0,0.0,0.0,0.0,0.0,0.0,0.0,0.0,0.0,0.0,0.0,0.0,0.5944838375780308,0.043868994938803196,-0.06192762201088026,1.0,0.0,0.0,0.0,0.0,11.0,0.0,0.0,0.0,0.0,0.0,0.0,0.0,0.0,0.0
18620,17610.824,1778822291.1833756,17610.824,"[0.46221646666526794, -1.7037628332721155, -1.5137203375445765, -1.4118121306048792, 1.5390832424163818, 2.0388071537017822]","[0.594455028368104, 0.04380810175569349, -0.06185360021638209, 2.8148245383697077, -0.024151397225692043, 1.380110723330618]","[8.518120541175212e-18, 1.4207598833075037, 1.75780550459302, 1.1598998737824695, -0.22517107990205337, -0.0031981919955436497]","[8.518120659613867e-18, 1.420759916305542, 1.7578054666519165, 1.1598998308181763, -0.2251710742712021, -0.0031981919892132282]","[3.798073115003808, 3.798073115003808, 4.285440390025987, 2.6302640264026405, 2.6302640264026405, 2.6302640264026405]",0.0,0.0,0.0,0.0,0.0,0.0,0.0,0.0,0.0,0.0,0.0,0.0,0.0,0.0,0.0,0.5944838375780308,0.043868994938803196,-0.06192762201088026,1.0,0.0,0.0,0.0,0.0,11.0,0.0,0.0,0.0,0.0,0.0,0.0,0.0,0.0,0.0
18621,17610.832,1778822291.1833756,17610.832,"[0.46221646666526794, -1.7037628332721155, -1.5137203375445765, -1.4118121306048792, 1.5390832424163818, 2.0388071537017822]","[0.594455028368104, 0.04380810175569349, -0.06185360021638209, 2.8148245383697077, -0.024151397225692043, 1.380110723330618]","[8.518120541175212e-18, 1.4207598833075037, 1.75780550459302, 1.1598998737824695, -0.22517107990205337, -0.0031981919955436497]","[8.518120659613867e-18, 1.420759916305542, 1.7578054666519165, 1.1598998308181763, -0.2251710742712021, -0.0031981919892132282]","[3.798073115003808, 3.798073115003808, 4.285440390025987, 2.6302640264026405, 2.6302640264026405, 2.6302640264026405]",0.0,0.0,0.0,0.0,0.0,0.0,0.0,0.0,0.0,0.0,0.0,0.0,0.0,0.0,0.0,0.5944838375780308,0.043868994938803196,-0.06192762201088026,1.0,0.0,0.0,0.0,0.0,11.0,0.0,0.0,0.0,0.0,0.0,0.0,0.0,0.0,0.0
18622,17610.84,1778822291.1833756,17610.84,"[0.46221646666526794, -1.7037628332721155, -1.5137203375445765, -1.4118121306048792, 1.5390832424163818, 2.0388071537017822]","[0.594455028368104, 0.04380810175569349, -0.06185360021638209, 2.8148245383697077, -0.024151397225692043, 1.380110723330618]","[8.518120541175212e-18, 1.4207598833075037, 1.75780550459302, 1.1598998737824695, -0.22517107990205337, -0.0031981919955436497]","[8.518120659613867e-18, 1.420759916305542, 1.7578054666519165, 1.1598998308181763, -0.2251710742712021, -0.0031981919892132282]","[3.798073115003808, 3.798073115003808, 4.285440390025987, 2.6302640264026405, 2.6302640264026405, 2.6302640264026405]",0.0,0.0,0.0,0.0,0.0,0.0,0.0,0.0,0.0,0.0,0.0,0.0,0.0,0.0,0.0,0.5944838375780308,0.043868994938803196,-0.06192762201088026,1.0,0.0,0.0,0.0,0.0,11.0,0.0,0.0,0.0,0.0,0.0,0.0,0.0,0.0,0.0
18623,17610.847999999998,1778822291.1843748,17610.847999999998,"[0.46221646666526794, -1.7037628332721155, -1.5137203375445765, -1.4118121306048792, 1.5390832424163818, 2.0388071537017822]","[0.594455028368104, 0.04380810175569349, -0.06185360021638209, 2.8148245383697077, -0.024151397225692043, 1.380110723330618]","[8.518120541175212e-18, 1.4207598833075037, 1.75780550459302, 1.1598998737824695, -0.22517107990205337, -0.0031981919955436497]","[8.518120659613867e-18, 1.420759916305542, 1.7578054666519165, 1.1598998308181763, -0.2251710742712021, -0.0031981919892132282]","[3.798073115003808, 3.798073115003808, 4.285440390025987, 2.6302640264026405, 2.6302640264026405, 2.6302640264026405]",0.0,0.0,0.0,0.0,0.0,0.0,0.0,0.0,0.0,0.0,0.0,0.0,0.0,0.0,0.0,0.5944838375780308,0.043868994938803196,-0.06192762201088026,1.0,0.0,0.0,0.0,0.0,11.0,0.0,0.0,0.0,0.0,0.0,0.0,0.0,0.0,0.0
18624,17610.856,1778822291.1904514,17610.856,"[0.46221646666526794, -1.7037628332721155, -1.5137203375445765, -1.4118121306048792, 1.5390832424163818, 2.0388071537017822]","[0.594455028368104, 0.04380810175569349, -0.06185360021638209, 2.8148245383697077, -0.024151397225692043, 1.380110723330618]","[8.518120541175212e-18, 1.4207598833075037, 1.75780550459302, 1.1598998737824695, -0.22517107990205337, -0.0031981919955436497]","[8.518120659613867e-18, 1.420759916305542, 1.7578054666519165, 1.1598998308181763, -0.2251710742712021, -0.0031981919892132282]","[3.798073115003808, 3.798073115003808, 4.285440390025987, 2.6302640264026405, 2.6302640264026405, 2.6302640264026405]",0.0,0.0,0.0,0.0,0.0,0.0,0.0,0.0,0.0,0.0,0.0,0.0,0.0,0.0,0.0,0.5944838375780308,0.043868994938803196,-0.06192762201088026,1.0,0.0,0.0,0.0,0.0,11.0,0.0,0.0,0.0,0.0,0.0,0.0,0.0,0.0,0.0
18625,17610.863999999998,1778822291.1980338,17610.863999999998,"[0.46221646666526794, -1.7037628332721155, -1.5137203375445765, -1.4118121306048792, 1.5390832424163818, 2.0388071537017822]","[0.594455028368104, 0.04380810175569349, -0.06185360021638209, 2.8148245383697077, -0.024151397225692043, 1.380110723330618]","[8.518120541175212e-18, 1.4207598833075037, 1.75780550459302, 1.1598998737824695, -0.22517107990205337, -0.0031981919955436497]","[8.518120659613867e-18, 1.420759916305542, 1.7578054666519165, 1.1598998308181763, -0.2251710742712021, -0.0031981919892132282]","[3.798073115003808, 3.798073115003808, 4.285440390025987, 2.6302640264026405, 2.6302640264026405, 2.6302640264026405]",0.0,0.0,0.0,0.0,0.0,0.0,0.0,0.0,0.0,0.0,0.0,0.0,0.0,0.0,0.0,0.5944838375780308,0.043868994938803196,-0.06192762201088026,1.0,0.0,0.0,0.0,0.0,11.0,0.0,0.0,0.0,0.0,0.0,0.0,0.0,0.0,0.0
18626,17610.872,1778822291.2062917,17610.872,"[0.46221646666526794, -1.7037628332721155, -1.5137203375445765, -1.4118121306048792, 1.5390832424163818, 2.0388071537017822]","[0.594455028368104, 0.04380810175569349, -0.06185360021638209, 2.8148245383697077, -0.024151397225692043, 1.380110723330618]","[8.518120541175212e-18, 1.4207598833075037, 1.75780550459302, 1.1598998737824695, -0.22517107990205337, -0.0031981919955436497]","[8.518120659613867e-18, 1.420759916305542, 1.7578054666519165, 1.1598998308181763, -0.2251710742712021, -0.0031981919892132282]","[3.798073115003808, 3.798073115003808, 4.285440390025987, 2.6302640264026405, 2.6302640264026405, 2.6302640264026405]",0.0,0.0,0.0,0.0,0.0,0.0,0.0,0.0,0.0,0.0,0.0,0.0,0.0,0.0,0.0,0.5944838375780308,0.043868994938803196,-0.06192762201088026,1.0,0.0,0.0,0.0,0.0,11.0,0.0,0.0,0.0,0.0,0.0,0.0,0.0,0.0,0.0
18627,17610.88,1778822291.2148066,17610.88,"[0.46221646666526794, -1.7037628332721155, -1.5137203375445765, -1.4118121306048792, 1.5390832424163818, 2.0388071537017822]","[0.594455028368104, 0.04380810175569349, -0.06185360021638209, 2.8148245383697077, -0.024151397225692043, 1.380110723330618]","[8.518120541175212e-18, 1.4207598833075037, 1.75780550459302, 1.1598998737824695, -0.22517107990205337, -0.0031981919955436497]","[8.518120659613867e-18, 1.420759916305542, 1.7578054666519165, 1.1598998308181763, -0.2251710742712021, -0.0031981919892132282]","[3.798073115003808, 3.798073115003808, 4.285440390025987, 2.6302640264026405, 2.6302640264026405, 2.6302640264026405]",0.0,0.0,0.0,0.0,0.0,0.0,0.0,0.0,0.0,0.0,0.0,0.0,0.0,0.0,0.0,0.5944838375780308,0.043868994938803196,-0.06192762201088026,1.0,0.0,0.0,0.0,0.0,11.0,0.0,0.0,0.0,0.0,0.0,0.0,0.0,0.0,0.0
18628,17610.888,1778822291.2244904,17610.888,"[0.46221646666526794, -1.7037628332721155, -1.5137203375445765, -1.4118121306048792, 1.5390832424163818, 2.0388071537017822]","[0.594455028368104, 0.04380810175569349, -0.06185360021638209, 2.8148245383697077, -0.024151397225692043, 1.380110723330618]","[8.518120541175212e-18, 1.4207598833075037, 1.75780550459302, 1.1598998737824695, -0.22517107990205337, -0.0031981919955436497]","[8.518120659613867e-18, 1.420759916305542, 1.7578054666519165, 1.1598998308181763, -0.2251710742712021, -0.0031981919892132282]","[3.798073115003808, 3.798073115003808, 4.285440390025987, 2.6302640264026405, 2.6302640264026405, 2.6302640264026405]",0.0,0.0,0.0,0.0,0.0,0.0,0.0,0.0,0.0,0.0,0.0,0.0,0.0,0.0,0.0,0.5944838375780308,0.043868994938803196,-0.06192762201088026,1.0,0.0,0.0,0.0,0.0,11.0,0.0,0.0,0.0,0.0,0.0,0.0,0.0,0.0,0.0
18629,17610.896,1778822291.2325556,17610.896,"[0.46221646666526794, -1.7037628332721155, -1.5137203375445765, -1.4118121306048792, 1.5390832424163818, 2.0388071537017822]","[0.594455028368104, 0.04380810175569349, -0.06185360021638209, 2.8148245383697077, -0.024151397225692043, 1.380110723330618]","[8.518120541175212e-18, 1.4207598833075037, 1.75780550459302, 1.1598998737824695, -0.22517107990205337, -0.0031981919955436497]","[8.518120659613867e-18, 1.420759916305542, 1.7578054666519165, 1.1598998308181763, -0.2251710742712021, -0.0031981919892132282]","[3.798073115003808, 3.798073115003808, 4.285440390025987, 2.6302640264026405, 2.6302640264026405, 2.6302640264026405]",0.0,0.0,0.0,0.0,0.0,0.0,0.0,0.0,0.0,0.0,0.0,0.0,0.0,0.0,0.0,0.5944838375780308,0.043868994938803196,-0.06192762201088026,1.0,0.0,0.0,0.0,0.0,11.0,0.0,0.0,0.0,0.0,0.0,0.0,0.0,0.0,0.0
18630,17610.904,1778822291.2408347,17610.904,"[0.46221646666526794, -1.7037628332721155, -1.5137203375445765, -1.4118121306048792, 1.5390832424163818, 2.0388071537017822]","[0.594455028368104, 0.04380810175569349, -0.06185360021638209, 2.8148245383697077, -0.024151397225692043, 1.380110723330618]","[8.518120541175212e-18, 1.4207598833075037, 1.75780550459302, 1.1598998737824695, -0.22517107990205337, -0.0031981919955436497]","[8.518120659613867e-18, 1.420759916305542, 1.7578054666519165, 1.1598998308181763, -0.2251710742712021, -0.0031981919892132282]","[3.798073115003808, 3.798073115003808, 4.285440390025987, 2.6302640264026405, 2.6302640264026405, 2.6302640264026405]",0.0,0.0,0.0,0.0,0.0,0.0,0.0,0.0,0.0,0.0,0.0,0.0,0.0,0.0,0.0,0.5944838375780308,0.043868994938803196,-0.06192762201088026,1.0,0.0,0.0,0.0,0.0,11.0,0.0,0.0,0.0,0.0,0.0,0.0,0.0,0.0,0.0
18631,17610.912,1778822291.2488914,17610.912,"[0.46221646666526794, -1.7037628332721155, -1.5137203375445765, -1.4118121306048792, 1.5390832424163818, 2.0388071537017822]","[0.594455028368104, 0.04380810175569349, -0.06185360021638209, 2.8148245383697077, -0.024151397225692043, 1.380110723330618]","[8.518120541175212e-18, 1.4207598833075037, 1.75780550459302, 1.1598998737824695, -0.22517107990205337, -0.0031981919955436497]","[8.518120659613867e-18, 1.420759916305542, 1.7578054666519165, 1.1598998308181763, -0.2251710742712021, -0.0031981919892132282]","[3.798073115003808, 3.798073115003808, 4.285440390025987, 2.6302640264026405, 2.6302640264026405, 2.6302640264026405]",0.0,0.0,0.0,0.0,0.0,0.0,0.0,0.0,0.0,0.0,0.0,0.0,0.0,0.0,0.0,0.5944838375780308,0.043868994938803196,-0.06192762201088026,1.0,0.0,0.0,0.0,0.0,11.0,0.0,0.0,0.0,0.0,0.0,0.0,0.0,0.0,0.0
18632,17610.92,1778822291.2571213,17610.92,"[0.46221646666526794, -1.7037628332721155, -1.5137203375445765, -1.4118121306048792, 1.5390832424163818, 2.0388071537017822]","[0.594455028368104, 0.04380810175569349, -0.06185360021638209, 2.8148245383697077, -0.024151397225692043, 1.380110723330618]","[8.518120541175212e-18, 1.4207598833075037, 1.75780550459302, 1.1598998737824695, -0.22517107990205337, -0.0031981919955436497]","[8.518120659613867e-18, 1.420759916305542, 1.7578054666519165, 1.1598998308181763, -0.2251710742712021, -0.0031981919892132282]","[3.798073115003808, 3.798073115003808, 4.285440390025987, 2.6302640264026405, 2.6302640264026405, 2.6302640264026405]",0.0,0.0,0.0,0.0,0.0,0.0,0.0,0.0,0.0,0.0,0.0,0.0,0.0,0.0,0.0,0.5944838375780308,0.043868994938803196,-0.06192762201088026,1.0,0.0,0.0,0.0,0.0,11.0,0.0,0.0,0.0,0.0,0.0,0.0,0.0,0.0,0.0
18633,17610.928,1778822291.2648325,17610.928,"[0.46221646666526794, -1.7037628332721155, -1.5137203375445765, -1.4118121306048792, 1.5390832424163818, 2.0388071537017822]","[0.594455028368104, 0.04380810175569349, -0.06185360021638209, 2.8148245383697077, -0.024151397225692043, 1.380110723330618]","[8.518120541175212e-18, 1.4207598833075037, 1.75780550459302, 1.1598998737824695, -0.22517107990205337, -0.0031981919955436497]","[8.518120659613867e-18, 1.420759916305542, 1.7578054666519165, 1.1598998308181763, -0.2251710742712021, -0.0031981919892132282]","[3.798073115003808, 3.798073115003808, 4.285440390025987, 2.6302640264026405, 2.6302640264026405, 2.6302640264026405]",0.0,0.0,0.0,0.0,0.0,0.0,0.0,0.0,0.0,0.0,0.0,0.0,0.0,0.0,0.0,0.5944838375780308,0.043868994938803196,-0.06192762201088026,1.0,0.0,0.0,0.0,0.0,11.0,0.0,0.0,0.0,0.0,0.0,0.0,0.0,0.0,0.0
18634,17610.935999999998,1778822291.2736812,17610.935999999998,"[0.46221646666526794, -1.7037628332721155, -1.5137203375445765, -1.4118121306048792, 1.5390832424163818, 2.0388071537017822]","[0.594455028368104, 0.04380810175569349, -0.06185360021638209, 2.8148245383697077, -0.024151397225692043, 1.380110723330618]","[8.518120541175212e-18, 1.4207598833075037, 1.75780550459302, 1.1598998737824695, -0.22517107990205337, -0.0031981919955436497]","[8.518120659613867e-18, 1.420759916305542, 1.7578054666519165, 1.1598998308181763, -0.2251710742712021, -0.0031981919892132282]","[3.798073115003808, 3.798073115003808, 4.285440390025987, 2.6302640264026405, 2.6302640264026405, 2.6302640264026405]",0.0,0.0,0.0,0.0,0.0,0.0,0.0,0.0,0.0,0.0,0.0,0.0,0.0,0.0,0.0,0.5944838375780308,0.043868994938803196,-0.06192762201088026,1.0,0.0,0.0,0.0,0.0,11.0,0.0,0.0,0.0,0.0,0.0,0.0,0.0,0.0,0.0
18635,17610.944,1778822291.2813938,17610.944,"[0.46221646666526794, -1.7037628332721155, -1.5137203375445765, -1.4118121306048792, 1.5390832424163818, 2.0388071537017822]","[0.594455028368104, 0.04380810175569349, -0.06185360021638209, 2.8148245383697077, -0.024151397225692043, 1.380110723330618]","[8.518120541175212e-18, 1.4207598833075037, 1.75780550459302, 1.1598998737824695, -0.22517107990205337, -0.0031981919955436497]","[8.518120659613867e-18, 1.420759916305542, 1.7578054666519165, 1.1598998308181763, -0.2251710742712021, -0.0031981919892132282]","[3.798073115003808, 3.798073115003808, 4.285440390025987, 2.6302640264026405, 2.6302640264026405, 2.6302640264026405]",0.0,0.0,0.0,0.0,0.0,0.0,0.0,0.0,0.0,0.0,0.0,0.0,0.0,0.0,0.0,0.5944838375780308,0.043868994938803196,-0.06192762201088026,1.0,0.0,0.0,0.0,0.0,11.0,0.0,0.0,0.0,0.0,0.0,0.0,0.0,0.0,0.0
18636,17610.951999999997,1778822291.2899551,17610.951999999997,"[0.46221646666526794, -1.7037628332721155, -1.5137203375445765, -1.4118121306048792, 1.5390832424163818, 2.0388071537017822]","[0.594455028368104, 0.04380810175569349, -0.06185360021638209, 2.8148245383697077, -0.024151397225692043, 1.380110723330618]","[8.518120541175212e-18, 1.4207598833075037, 1.75780550459302, 1.1598998737824695, -0.22517107990205337, -0.0031981919955436497]","[8.518120659613867e-18, 1.420759916305542, 1.7578054666519165, 1.1598998308181763, -0.2251710742712021, -0.0031981919892132282]","[3.798073115003808, 3.798073115003808, 4.285440390025987, 2.6302640264026405, 2.6302640264026405, 2.6302640264026405]",0.0,0.0,0.0,0.0,0.0,0.0,0.0,0.0,0.0,0.0,0.0,0.0,0.0,0.0,0.0,0.5944838375780308,0.043868994938803196,-0.06192762201088026,1.0,0.0,0.0,0.0,0.0,11.0,0.0,0.0,0.0,0.0,0.0,0.0,0.0,0.0,0.0
18637,17610.96,1778822291.2981758,17610.96,"[0.46221646666526794, -1.7037628332721155, -1.5137203375445765, -1.4118121306048792, 1.5390832424163818, 2.0388071537017822]","[0.594455028368104, 0.04380810175569349, -0.06185360021638209, 2.8148245383697077, -0.024151397225692043, 1.380110723330618]","[8.518120541175212e-18, 1.4207598833075037, 1.75780550459302, 1.1598998737824695, -0.22517107990205337, -0.0031981919955436497]","[8.518120659613867e-18, 1.420759916305542, 1.7578054666519165, 1.1598998308181763, -0.2251710742712021, -0.0031981919892132282]","[3.798073115003808, 3.798073115003808, 4.285440390025987, 2.6302640264026405, 2.6302640264026405, 2.6302640264026405]",0.0,0.0,0.0,0.0,0.0,0.0,0.0,0.0,0.0,0.0,0.0,0.0,0.0,0.0,0.0,0.5944838375780308,0.043868994938803196,-0.06192762201088026,1.0,0.0,0.0,0.0,0.0,11.0,0.0,0.0,0.0,0.0,0.0,0.0,0.0,0.0,0.0
18638,17610.968,1778822291.306706,17610.968,"[0.46221646666526794, -1.7037628332721155, -1.5137203375445765, -1.4118121306048792, 1.5390832424163818, 2.0388071537017822]","[0.594455028368104, 0.04380810175569349, -0.06185360021638209, 2.8148245383697077, -0.024151397225692043, 1.380110723330618]","[8.518120541175212e-18, 1.4207598833075037, 1.75780550459302, 1.1598998737824695, -0.22517107990205337, -0.0031981919955436497]","[8.518120659613867e-18, 1.420759916305542, 1.7578054666519165, 1.1598998308181763, -0.2251710742712021, -0.0031981919892132282]","[3.798073115003808, 3.798073115003808, 4.285440390025987, 2.6302640264026405, 2.6302640264026405, 2.6302640264026405]",0.0,0.0,0.0,0.0,0.0,0.0,0.0,0.0,0.0,0.0,0.0,0.0,0.0,0.0,0.0,0.5944838375780308,0.043868994938803196,-0.06192762201088026,1.0,0.0,0.0,0.0,0.0,11.0,0.0,0.0,0.0,0.0,0.0,0.0,0.0,0.0,0.0
18639,17610.976,1778822291.3145332,17610.976,"[0.46221646666526794, -1.7037628332721155, -1.5137203375445765, -1.4118121306048792, 1.5390832424163818, 2.0388071537017822]","[0.594455028368104, 0.04380810175569349, -0.06185360021638209, 2.8148245383697077, -0.024151397225692043, 1.380110723330618]","[8.518120541175212e-18, 1.4207598833075037, 1.75780550459302, 1.1598998737824695, -0.22517107990205337, -0.0031981919955436497]","[8.518120659613867e-18, 1.420759916305542, 1.7578054666519165, 1.1598998308181763, -0.2251710742712021, -0.0031981919892132282]","[3.798073115003808, 3.798073115003808, 4.285440390025987, 2.6302640264026405, 2.6302640264026405, 2.6302640264026405]",0.0,0.0,0.0,0.0,0.0,0.0,0.0,0.0,0.0,0.0,0.0,0.0,0.0,0.0,0.0,0.5944838375780308,0.043868994938803196,-0.06192762201088026,1.0,0.0,0.0,0.0,0.0,11.0,0.0,0.0,0.0,0.0,0.0,0.0,0.0,0.0,0.0
18640,17610.984,1778822291.3230565,17610.984,"[0.46221646666526794, -1.7037628332721155, -1.5137203375445765, -1.4118121306048792, 1.5390832424163818, 2.0388071537017822]","[0.594455028368104, 0.04380810175569349, -0.06185360021638209, 2.8148245383697077, -0.024151397225692043, 1.380110723330618]","[8.518120541175212e-18, 1.4207598833075037, 1.75780550459302, 1.1598998737824695, -0.22517107990205337, -0.0031981919955436497]","[8.518120659613867e-18, 1.420759916305542, 1.7578054666519165, 1.1598998308181763, -0.2251710742712021, -0.0031981919892132282]","[3.798073115003808, 3.798073115003808, 4.285440390025987, 2.6302640264026405, 2.6302640264026405, 2.6302640264026405]",0.0,0.0,0.0,0.0,0.0,0.0,0.0,0.0,0.0,0.0,0.0,0.0,0.0,0.0,0.0,0.5944838375780308,0.043868994938803196,-0.06192762201088026,1.0,0.0,0.0,0.0,0.0,11.0,0.0,0.0,0.0,0.0,0.0,0.0,0.0,0.0,0.0
18641,17610.992,1778822291.3314037,17610.992,"[0.46221646666526794, -1.7037628332721155, -1.5137203375445765, -1.4118121306048792, 1.5390832424163818, 2.0388071537017822]","[0.594455028368104, 0.04380810175569349, -0.06185360021638209, 2.8148245383697077, -0.024151397225692043, 1.380110723330618]","[8.518120541175212e-18, 1.4207598833075037, 1.75780550459302, 1.1598998737824695, -0.22517107990205337, -0.0031981919955436497]","[8.518120659613867e-18, 1.420759916305542, 1.7578054666519165, 1.1598998308181763, -0.2251710742712021, -0.0031981919892132282]","[3.798073115003808, 3.798073115003808, 4.285440390025987, 2.6302640264026405, 2.6302640264026405, 2.6302640264026405]",0.0,0.0,0.0,0.0,0.0,0.0,0.0,0.0,0.0,0.0,0.0,0.0,0.0,0.0,0.0,0.5944838375780308,0.043868994938803196,-0.06192762201088026,1.0,0.0,0.0,0.0,0.0,11.0,0.0,0.0,0.0,0.0,0.0,0.0,0.0,0.0,0.0
18642,17611.0,1778822291.3394265,17611.0,"[0.46221646666526794, -1.7037628332721155, -1.5137203375445765, -1.4118121306048792, 1.5390832424163818, 2.0388071537017822]","[0.594455028368104, 0.04380810175569349, -0.06185360021638209, 2.8148245383697077, -0.024151397225692043, 1.380110723330618]","[8.518120541175212e-18, 1.4207598833075037, 1.75780550459302, 1.1598998737824695, -0.22517107990205337, -0.0031981919955436497]","[8.518120659613867e-18, 1.420759916305542, 1.7578054666519165, 1.1598998308181763, -0.2251710742712021, -0.0031981919892132282]","[3.798073115003808, 3.798073115003808, 4.285440390025987, 2.6302640264026405, 2.6302640264026405, 2.6302640264026405]",0.0,0.0,0.0,0.0,0.0,0.0,0.0,0.0,0.0,0.0,0.0,0.0,0.0,0.0,0.0,0.5944838375780308,0.043868994938803196,-0.06192762201088026,1.0,0.0,0.0,0.0,0.0,11.0,0.0,0.0,0.0,0.0,0.0,0.0,0.0,0.0,0.0
18643,17611.007999999998,1778822291.347656,17611.007999999998,"[0.46221646666526794, -1.7037628332721155, -1.5137203375445765, -1.4118121306048792, 1.5390832424163818, 2.0388071537017822]","[0.594455028368104, 0.04380810175569349, -0.06185360021638209, 2.8148245383697077, -0.024151397225692043, 1.380110723330618]","[8.518120541175212e-18, 1.4207598833075037, 1.75780550459302, 1.1598998737824695, -0.22517107990205337, -0.0031981919955436497]","[8.518120659613867e-18, 1.420759916305542, 1.7578054666519165, 1.1598998308181763, -0.2251710742712021, -0.0031981919892132282]","[3.798073115003808, 3.798073115003808, 4.285440390025987, 2.6302640264026405, 2.6302640264026405, 2.6302640264026405]",0.0,0.0,0.0,0.0,0.0,0.0,0.0,0.0,0.0,0.0,0.0,0.0,0.0,0.0,0.0,0.5944838375780308,0.043868994938803196,-0.06192762201088026,1.0,0.0,0.0,0.0,0.0,11.0,0.0,0.0,0.0,0.0,0.0,0.0,0.0,0.0,0.0
18644,17611.016,1778822291.356681,17611.016,"[0.46221646666526794, -1.7037628332721155, -1.5137203375445765, -1.4118121306048792, 1.5390832424163818, 2.0388071537017822]","[0.594455028368104, 0.04380810175569349, -0.06185360021638209, 2.8148245383697077, -0.024151397225692043, 1.380110723330618]","[8.518120541175212e-18, 1.4207598833075037, 1.75780550459302, 1.1598998737824695, -0.22517107990205337, -0.0031981919955436497]","[8.518120659613867e-18, 1.420759916305542, 1.7578054666519165, 1.1598998308181763, -0.2251710742712021, -0.0031981919892132282]","[3.798073115003808, 3.798073115003808, 4.285440390025987, 2.6302640264026405, 2.6302640264026405, 2.6302640264026405]",0.0,0.0,0.0,0.0,0.0,0.0,0.0,0.0,0.0,0.0,0.0,0.0,0.0,0.0,0.0,0.5944838375780308,0.043868994938803196,-0.06192762201088026,1.0,0.0,0.0,0.0,0.0,11.0,0.0,0.0,0.0,0.0,0.0,0.0,0.0,0.0,0.0
18645,17611.023999999998,1778822291.3648233,17611.023999999998,"[0.46221646666526794, -1.7037628332721155, -1.5137203375445765, -1.4118121306048792, 1.5390832424163818, 2.0388071537017822]","[0.594455028368104, 0.04380810175569349, -0.06185360021638209, 2.8148245383697077, -0.024151397225692043, 1.380110723330618]","[8.518120541175212e-18, 1.4207598833075037, 1.75780550459302, 1.1598998737824695, -0.22517107990205337, -0.0031981919955436497]","[8.518120659613867e-18, 1.420759916305542, 1.7578054666519165, 1.1598998308181763, -0.2251710742712021, -0.0031981919892132282]","[3.798073115003808, 3.798073115003808, 4.285440390025987, 2.6302640264026405, 2.6302640264026405, 2.6302640264026405]",0.0,0.0,0.0,0.0,0.0,0.0,0.0,0.0,0.0,0.0,0.0,0.0,0.0,0.0,0.0,0.5944838375780308,0.043868994938803196,-0.06192762201088026,1.0,0.0,0.0,0.0,0.0,11.0,0.0,0.0,0.0,0.0,0.0,0.0,0.0,0.0,0.0
18646,17611.032,1778822291.3738544,17611.032,"[0.46221646666526794, -1.7037628332721155, -1.5137203375445765, -1.4118121306048792, 1.5390832424163818, 2.0388071537017822]","[0.594455028368104, 0.04380810175569349, -0.06185360021638209, 2.8148245383697077, -0.024151397225692043, 1.380110723330618]","[8.518120541175212e-18, 1.4207598833075037, 1.75780550459302, 1.1598998737824695, -0.22517107990205337, -0.0031981919955436497]","[8.518120659613867e-18, 1.420759916305542, 1.7578054666519165, 1.1598998308181763, -0.2251710742712021, -0.0031981919892132282]","[3.798073115003808, 3.798073115003808, 4.285440390025987, 2.6302640264026405, 2.6302640264026405, 2.6302640264026405]",0.0,0.0,0.0,0.0,0.0,0.0,0.0,0.0,0.0,0.0,0.0,0.0,0.0,0.0,0.0,0.5944838375780308,0.043868994938803196,-0.06192762201088026,1.0,0.0,0.0,0.0,0.0,11.0,0.0,0.0,0.0,0.0,0.0,0.0,0.0,0.0,0.0
18647,17611.04,1778822291.3810453,17611.04,"[0.46221646666526794, -1.7037628332721155, -1.5137203375445765, -1.4118121306048792, 1.5390832424163818, 2.0388071537017822]","[0.594455028368104, 0.04380810175569349, -0.06185360021638209, 2.8148245383697077, -0.024151397225692043, 1.380110723330618]","[8.518120541175212e-18, 1.4207598833075037, 1.75780550459302, 1.1598998737824695, -0.22517107990205337, -0.0031981919955436497]","[8.518120659613867e-18, 1.420759916305542, 1.7578054666519165, 1.1598998308181763, -0.2251710742712021, -0.0031981919892132282]","[3.798073115003808, 3.798073115003808, 4.285440390025987, 2.6302640264026405, 2.6302640264026405, 2.6302640264026405]",0.0,0.0,0.0,0.0,0.0,0.0,0.0,0.0,0.0,0.0,0.0,0.0,0.0,0.0,0.0,0.5944838375780308,0.043868994938803196,-0.06192762201088026,1.0,0.0,0.0,0.0,0.0,11.0,0.0,0.0,0.0,0.0,0.0,0.0,0.0,0.0,0.0
18648,17611.048,1778822291.390787,17611.048,"[0.46221646666526794, -1.7037628332721155, -1.5137203375445765, -1.4118121306048792, 1.5390832424163818, 2.0388071537017822]","[0.594455028368104, 0.04380810175569349, -0.06185360021638209, 2.8148245383697077, -0.024151397225692043, 1.380110723330618]","[8.518120541175212e-18, 1.4207598833075037, 1.75780550459302, 1.1598998737824695, -0.22517107990205337, -0.0031981919955436497]","[8.518120659613867e-18, 1.420759916305542, 1.7578054666519165, 1.1598998308181763, -0.2251710742712021, -0.0031981919892132282]","[3.798073115003808, 3.798073115003808, 4.285440390025987, 2.6302640264026405, 2.6302640264026405, 2.6302640264026405]",0.0,0.0,0.0,0.0,0.0,0.0,0.0,0.0,0.0,0.0,0.0,0.0,0.0,0.0,0.0,0.5944838375780308,0.043868994938803196,-0.06192762201088026,1.0,0.0,0.0,0.0,0.0,11.0,0.0,0.0,0.0,0.0,0.0,0.0,0.0,0.0,0.0
18649,17611.056,1778822291.3978417,17611.056,"[0.46221646666526794, -1.7037628332721155, -1.5137203375445765, -1.4118121306048792, 1.5390832424163818, 2.0388071537017822]","[0.594455028368104, 0.04380810175569349, -0.06185360021638209, 2.8148245383697077, -0.024151397225692043, 1.380110723330618]","[8.518120541175212e-18, 1.4207598833075037, 1.75780550459302, 1.1598998737824695, -0.22517107990205337, -0.0031981919955436497]","[8.518120659613867e-18, 1.420759916305542, 1.7578054666519165, 1.1598998308181763, -0.2251710742712021, -0.0031981919892132282]","[3.798073115003808, 3.798073115003808, 4.285440390025987, 2.6302640264026405, 2.6302640264026405, 2.6302640264026405]",0.0,0.0,0.0,0.0,0.0,0.0,0.0,0.0,0.0,0.0,0.0,0.0,0.0,0.0,0.0,0.5944838375780308,0.043868994938803196,-0.06192762201088026,1.0,0.0,0.0,0.0,0.0,11.0,0.0,0.0,0.0,0.0,0.0,0.0,0.0,0.0,0.0
18650,17611.064,1778822291.4068964,17611.064,"[0.46221646666526794, -1.7037628332721155, -1.5137203375445765, -1.4118121306048792, 1.5390832424163818, 2.0388071537017822]","[0.594455028368104, 0.04380810175569349, -0.06185360021638209, 2.8148245383697077, -0.024151397225692043, 1.380110723330618]","[8.518120541175212e-18, 1.4207598833075037, 1.75780550459302, 1.1598998737824695, -0.22517107990205337, -0.0031981919955436497]","[8.518120659613867e-18, 1.420759916305542, 1.7578054666519165, 1.1598998308181763, -0.2251710742712021, -0.0031981919892132282]","[3.798073115003808, 3.798073115003808, 4.285440390025987, 2.6302640264026405, 2.6302640264026405, 2.6302640264026405]",0.0,0.0,0.0,0.0,0.0,0.0,0.0,0.0,0.0,0.0,0.0,0.0,0.0,0.0,0.0,0.5944838375780308,0.043868994938803196,-0.06192762201088026,1.0,0.0,0.0,0.0,0.0,11.0,0.0,0.0,0.0,0.0,0.0,0.0,0.0,0.0,0.0
18651,17611.072,1778822291.4144127,17611.072,"[0.46221646666526794, -1.7037628332721155, -1.5137203375445765, -1.4118121306048792, 1.5390832424163818, 2.0388071537017822]","[0.594455028368104, 0.04380810175569349, -0.06185360021638209, 2.8148245383697077, -0.024151397225692043, 1.380110723330618]","[8.518120541175212e-18, 1.4207598833075037, 1.75780550459302, 1.1598998737824695, -0.22517107990205337, -0.0031981919955436497]","[8.518120659613867e-18, 1.420759916305542, 1.7578054666519165, 1.1598998308181763, -0.2251710742712021, -0.0031981919892132282]","[3.798073115003808, 3.798073115003808, 4.285440390025987, 2.6302640264026405, 2.6302640264026405, 2.6302640264026405]",0.0,0.0,0.0,0.0,0.0,0.0,0.0,0.0,0.0,0.0,0.0,0.0,0.0,0.0,0.0,0.5944838375780308,0.043868994938803196,-0.06192762201088026,1.0,0.0,0.0,0.0,0.0,11.0,0.0,0.0,0.0,0.0,0.0,0.0,0.0,0.0,0.0
18652,17611.079999999998,1778822291.4230242,17611.079999999998,"[0.46221646666526794, -1.7037628332721155, -1.5137203375445765, -1.4118121306048792, 1.5390832424163818, 2.0388071537017822]","[0.594455028368104, 0.04380810175569349, -0.06185360021638209, 2.8148245383697077, -0.024151397225692043, 1.380110723330618]","[8.518120541175212e-18, 1.4207598833075037, 1.75780550459302, 1.1598998737824695, -0.22517107990205337, -0.0031981919955436497]","[8.518120659613867e-18, 1.420759916305542, 1.7578054666519165, 1.1598998308181763, -0.2251710742712021, -0.0031981919892132282]","[3.798073115003808, 3.798073115003808, 4.285440390025987, 2.6302640264026405, 2.6302640264026405, 2.6302640264026405]",0.0,0.0,0.0,0.0,0.0,0.0,0.0,0.0,0.0,0.0,0.0,0.0,0.0,0.0,0.0,0.5944838375780308,0.043868994938803196,-0.06192762201088026,1.0,0.0,0.0,0.0,0.0,11.0,0.0,0.0,0.0,0.0,0.0,0.0,0.0,0.0,0.0
18653,17611.088,1778822291.4305587,17611.088,"[0.46221646666526794, -1.7037628332721155, -1.5137203375445765, -1.4118121306048792, 1.5390832424163818, 2.0388071537017822]","[0.594455028368104, 0.04380810175569349, -0.06185360021638209, 2.8148245383697077, -0.024151397225692043, 1.380110723330618]","[8.518120541175212e-18, 1.4207598833075037, 1.75780550459302, 1.1598998737824695, -0.22517107990205337, -0.0031981919955436497]","[8.518120659613867e-18, 1.420759916305542, 1.7578054666519165, 1.1598998308181763, -0.2251710742712021, -0.0031981919892132282]","[3.798073115003808, 3.798073115003808, 4.285440390025987, 2.6302640264026405, 2.6302640264026405, 2.6302640264026405]",0.0,0.0,0.0,0.0,0.0,0.0,0.0,0.0,0.0,0.0,0.0,0.0,0.0,0.0,0.0,0.5944838375780308,0.043868994938803196,-0.06192762201088026,1.0,0.0,0.0,0.0,0.0,11.0,0.0,0.0,0.0,0.0,0.0,0.0,0.0,0.0,0.0
18654,17611.095999999998,1778822291.4396284,17611.095999999998,"[0.46221646666526794, -1.7037628332721155, -1.5137203375445765, -1.4118121306048792, 1.5390832424163818, 2.0388071537017822]","[0.594455028368104, 0.04380810175569349, -0.06185360021638209, 2.8148245383697077, -0.024151397225692043, 1.380110723330618]","[8.518120541175212e-18, 1.4207598833075037, 1.75780550459302, 1.1598998737824695, -0.22517107990205337, -0.0031981919955436497]","[8.518120659613867e-18, 1.420759916305542, 1.7578054666519165, 1.1598998308181763, -0.2251710742712021, -0.0031981919892132282]","[3.798073115003808, 3.798073115003808, 4.285440390025987, 2.6302640264026405, 2.6302640264026405, 2.6302640264026405]",0.0,0.0,0.0,0.0,0.0,0.0,0.0,0.0,0.0,0.0,0.0,0.0,0.0,0.0,0.0,0.5944838375780308,0.043868994938803196,-0.06192762201088026,1.0,0.0,0.0,0.0,0.0,11.0,0.0,0.0,0.0,0.0,0.0,0.0,0.0,0.0,0.0
18655,17611.104,1778822291.4476516,17611.104,"[0.46221646666526794, -1.7037628332721155, -1.5137203375445765, -1.4118121306048792, 1.5390832424163818, 2.0388071537017822]","[0.594455028368104, 0.04380810175569349, -0.06185360021638209, 2.8148245383697077, -0.024151397225692043, 1.380110723330618]","[8.518120541175212e-18, 1.4207598833075037, 1.75780550459302, 1.1598998737824695, -0.22517107990205337, -0.0031981919955436497]","[8.518120659613867e-18, 1.420759916305542, 1.7578054666519165, 1.1598998308181763, -0.2251710742712021, -0.0031981919892132282]","[3.798073115003808, 3.798073115003808, 4.285440390025987, 2.6302640264026405, 2.6302640264026405, 2.6302640264026405]",0.0,0.0,0.0,0.0,0.0,0.0,0.0,0.0,0.0,0.0,0.0,0.0,0.0,0.0,0.0,0.5944838375780308,0.043868994938803196,-0.06192762201088026,1.0,0.0,0.0,0.0,0.0,11.0,0.0,0.0,0.0,0.0,0.0,0.0,0.0,0.0,0.0
18656,17611.112,1778822291.4562607,17611.112,"[0.46221646666526794, -1.7037628332721155, -1.5137203375445765, -1.4118121306048792, 1.5390832424163818, 2.0388071537017822]","[0.594455028368104, 0.04380810175569349, -0.06185360021638209, 2.8148245383697077, -0.024151397225692043, 1.380110723330618]","[8.518120541175212e-18, 1.4207598833075037, 1.75780550459302, 1.1598998737824695, -0.22517107990205337, -0.0031981919955436497]","[8.518120659613867e-18, 1.420759916305542, 1.7578054666519165, 1.1598998308181763, -0.2251710742712021, -0.0031981919892132282]","[3.798073115003808, 3.798073115003808, 4.285440390025987, 2.6302640264026405, 2.6302640264026405, 2.6302640264026405]",0.0,0.0,0.0,0.0,0.0,0.0,0.0,0.0,0.0,0.0,0.0,0.0,0.0,0.0,0.0,0.5944838375780308,0.043868994938803196,-0.06192762201088026,1.0,0.0,0.0,0.0,0.0,11.0,0.0,0.0,0.0,0.0,0.0,0.0,0.0,0.0,0.0
18657,17611.12,1778822291.464856,17611.12,"[0.46221646666526794, -1.7037628332721155, -1.5137203375445765, -1.4118121306048792, 1.5390832424163818, 2.0388071537017822]","[0.594455028368104, 0.04380810175569349, -0.06185360021638209, 2.8148245383697077, -0.024151397225692043, 1.380110723330618]","[8.518120541175212e-18, 1.4207598833075037, 1.75780550459302, 1.1598998737824695, -0.22517107990205337, -0.0031981919955436497]","[8.518120659613867e-18, 1.420759916305542, 1.7578054666519165, 1.1598998308181763, -0.2251710742712021, -0.0031981919892132282]","[3.798073115003808, 3.798073115003808, 4.285440390025987, 2.6302640264026405, 2.6302640264026405, 2.6302640264026405]",0.0,0.0,0.0,0.0,0.0,0.0,0.0,0.0,0.0,0.0,0.0,0.0,0.0,0.0,0.0,0.5944838375780308,0.043868994938803196,-0.06192762201088026,1.0,0.0,0.0,0.0,0.0,11.0,0.0,0.0,0.0,0.0,0.0,0.0,0.0,0.0,0.0
18658,17611.128,1778822291.4734461,17611.128,"[0.46221646666526794, -1.7037628332721155, -1.5137203375445765, -1.4118121306048792, 1.5390832424163818, 2.0388071537017822]","[0.594455028368104, 0.04380810175569349, -0.06185360021638209, 2.8148245383697077, -0.024151397225692043, 1.380110723330618]","[8.518120541175212e-18, 1.4207598833075037, 1.75780550459302, 1.1598998737824695, -0.22517107990205337, -0.0031981919955436497]","[8.518120659613867e-18, 1.420759916305542, 1.7578054666519165, 1.1598998308181763, -0.2251710742712021, -0.0031981919892132282]","[3.798073115003808, 3.798073115003808, 4.285440390025987, 2.6302640264026405, 2.6302640264026405, 2.6302640264026405]",0.0,0.0,0.0,0.0,0.0,0.0,0.0,0.0,0.0,0.0,0.0,0.0,0.0,0.0,0.0,0.5944838375780308,0.043868994938803196,-0.06192762201088026,1.0,0.0,0.0,0.0,0.0,11.0,0.0,0.0,0.0,0.0,0.0,0.0,0.0,0.0,0.0
18659,17611.136,1778822291.4809768,17611.136,"[0.46221646666526794, -1.7037628332721155, -1.5137203375445765, -1.4118121306048792, 1.5390832424163818, 2.0388071537017822]","[0.594455028368104, 0.04380810175569349, -0.06185360021638209, 2.8148245383697077, -0.024151397225692043, 1.380110723330618]","[8.518120541175212e-18, 1.4207598833075037, 1.75780550459302, 1.1598998737824695, -0.22517107990205337, -0.0031981919955436497]","[8.518120659613867e-18, 1.420759916305542, 1.7578054666519165, 1.1598998308181763, -0.2251710742712021, -0.0031981919892132282]","[3.798073115003808, 3.798073115003808, 4.285440390025987, 2.6302640264026405, 2.6302640264026405, 2.6302640264026405]",0.0,0.0,0.0,0.0,0.0,0.0,0.0,0.0,0.0,0.0,0.0,0.0,0.0,0.0,0.0,0.5944838375780308,0.043868994938803196,-0.06192762201088026,1.0,0.0,0.0,0.0,0.0,11.0,0.0,0.0,0.0,0.0,0.0,0.0,0.0,0.0,0.0
18660,17611.144,1778822291.489973,17611.144,"[0.46221646666526794, -1.7037628332721155, -1.5137203375445765, -1.4118121306048792, 1.5390832424163818, 2.0388071537017822]","[0.594455028368104, 0.04380810175569349, -0.06185360021638209, 2.8148245383697077, -0.024151397225692043, 1.380110723330618]","[8.518120541175212e-18, 1.4207598833075037, 1.75780550459302, 1.1598998737824695, -0.22517107990205337, -0.0031981919955436497]","[8.518120659613867e-18, 1.420759916305542, 1.7578054666519165, 1.1598998308181763, -0.2251710742712021, -0.0031981919892132282]","[3.798073115003808, 3.798073115003808, 4.285440390025987, 2.6302640264026405, 2.6302640264026405, 2.6302640264026405]",0.0,0.0,0.0,0.0,0.0,0.0,0.0,0.0,0.0,0.0,0.0,0.0,0.0,0.0,0.0,0.5944838375780308,0.043868994938803196,-0.06192762201088026,1.0,0.0,0.0,0.0,0.0,11.0,0.0,0.0,0.0,0.0,0.0,0.0,0.0,0.0,0.0
18661,17611.152,1778822291.4993513,17611.152,"[0.46221646666526794, -1.7037628332721155, -1.5137203375445765, -1.4118121306048792, 1.5390832424163818, 2.0388071537017822]","[0.594455028368104, 0.04380810175569349, -0.06185360021638209, 2.8148245383697077, -0.024151397225692043, 1.380110723330618]","[8.518120541175212e-18, 1.4207598833075037, 1.75780550459302, 1.1598998737824695, -0.22517107990205337, -0.0031981919955436497]","[8.518120659613867e-18, 1.420759916305542, 1.7578054666519165, 1.1598998308181763, -0.2251710742712021, -0.0031981919892132282]","[3.798073115003808, 3.798073115003808, 4.285440390025987, 2.6302640264026405, 2.6302640264026405, 2.6302640264026405]",0.0,0.0,0.0,0.0,0.0,0.0,0.0,0.0,0.0,0.0,0.0,0.0,0.0,0.0,0.0,0.5944838375780308,0.043868994938803196,-0.06192762201088026,1.0,0.0,0.0,0.0,0.0,11.0,0.0,0.0,0.0,0.0,0.0,0.0,0.0,0.0,0.0
18662,17611.16,1778822291.5076241,17611.16,"[0.46221646666526794, -1.7037628332721155, -1.5137203375445765, -1.4118121306048792, 1.5390832424163818, 2.0388071537017822]","[0.594455028368104, 0.04380810175569349, -0.06185360021638209, 2.8148245383697077, -0.024151397225692043, 1.380110723330618]","[8.518120541175212e-18, 1.4207598833075037, 1.75780550459302, 1.1598998737824695, -0.22517107990205337, -0.0031981919955436497]","[8.518120659613867e-18, 1.420759916305542, 1.7578054666519165, 1.1598998308181763, -0.2251710742712021, -0.0031981919892132282]","[3.798073115003808, 3.798073115003808, 4.285440390025987, 2.6302640264026405, 2.6302640264026405, 2.6302640264026405]",0.0,0.0,0.0,0.0,0.0,0.0,0.0,0.0,0.0,0.0,0.0,0.0,0.0,0.0,0.0,0.5944838375780308,0.043868994938803196,-0.06192762201088026,1.0,0.0,0.0,0.0,0.0,11.0,0.0,0.0,0.0,0.0,0.0,0.0,0.0,0.0,0.0
18663,17611.167999999998,1778822291.5161667,17611.167999999998,"[0.46221646666526794, -1.7037628332721155, -1.5137203375445765, -1.4118121306048792, 1.5390832424163818, 2.0388071537017822]","[0.594455028368104, 0.04380810175569349, -0.06185360021638209, 2.8148245383697077, -0.024151397225692043, 1.380110723330618]","[8.518120541175212e-18, 1.4207598833075037, 1.75780550459302, 1.1598998737824695, -0.22517107990205337, -0.0031981919955436497]","[8.518120659613867e-18, 1.420759916305542, 1.7578054666519165, 1.1598998308181763, -0.2251710742712021, -0.0031981919892132282]","[3.798073115003808, 3.798073115003808, 4.285440390025987, 2.6302640264026405, 2.6302640264026405, 2.6302640264026405]",0.0,0.0,0.0,0.0,0.0,0.0,0.0,0.0,0.0,0.0,0.0,0.0,0.0,0.0,0.0,0.5944838375780308,0.043868994938803196,-0.06192762201088026,1.0,0.0,0.0,0.0,0.0,11.0,0.0,0.0,0.0,0.0,0.0,0.0,0.0,0.0,0.0
18664,17611.176,1778822291.524311,17611.176,"[0.46221646666526794, -1.7037628332721155, -1.5137203375445765, -1.4118121306048792, 1.5390832424163818, 2.0388071537017822]","[0.594455028368104, 0.04380810175569349, -0.06185360021638209, 2.8148245383697077, -0.024151397225692043, 1.380110723330618]","[8.518120541175212e-18, 1.4207598833075037, 1.75780550459302, 1.1598998737824695, -0.22517107990205337, -0.0031981919955436497]","[8.518120659613867e-18, 1.420759916305542, 1.7578054666519165, 1.1598998308181763, -0.2251710742712021, -0.0031981919892132282]","[3.798073115003808, 3.798073115003808, 4.285440390025987, 2.6302640264026405, 2.6302640264026405, 2.6302640264026405]",0.0,0.0,0.0,0.0,0.0,0.0,0.0,0.0,0.0,0.0,0.0,0.0,0.0,0.0,0.0,0.5944838375780308,0.043868994938803196,-0.06192762201088026,1.0,0.0,0.0,0.0,0.0,11.0,0.0,0.0,0.0,0.0,0.0,0.0,0.0,0.0,0.0
18665,17611.183999999997,1778822291.5324485,17611.183999999997,"[0.46221646666526794, -1.7037628332721155, -1.5137203375445765, -1.4118121306048792, 1.5390832424163818, 2.0388071537017822]","[0.594455028368104, 0.04380810175569349, -0.06185360021638209, 2.8148245383697077, -0.024151397225692043, 1.380110723330618]","[8.518120541175212e-18, 1.4207598833075037, 1.75780550459302, 1.1598998737824695, -0.22517107990205337, -0.0031981919955436497]","[8.518120659613867e-18, 1.420759916305542, 1.7578054666519165, 1.1598998308181763, -0.2251710742712021, -0.0031981919892132282]","[3.798073115003808, 3.798073115003808, 4.285440390025987, 2.6302640264026405, 2.6302640264026405, 2.6302640264026405]",0.0,0.0,0.0,0.0,0.0,0.0,0.0,0.0,0.0,0.0,0.0,0.0,0.0,0.0,0.0,0.5944838375780308,0.043868994938803196,-0.06192762201088026,1.0,0.0,0.0,0.0,0.0,11.0,0.0,0.0,0.0,0.0,0.0,0.0,0.0,0.0,0.0
18666,17611.192,1778822291.5407965,17611.192,"[0.46221646666526794, -1.7037628332721155, -1.5137203375445765, -1.4118121306048792, 1.5390832424163818, 2.0388071537017822]","[0.594455028368104, 0.04380810175569349, -0.06185360021638209, 2.8148245383697077, -0.024151397225692043, 1.380110723330618]","[8.518120541175212e-18, 1.4207598833075037, 1.75780550459302, 1.1598998737824695, -0.22517107990205337, -0.0031981919955436497]","[8.518120659613867e-18, 1.420759916305542, 1.7578054666519165, 1.1598998308181763, -0.2251710742712021, -0.0031981919892132282]","[3.798073115003808, 3.798073115003808, 4.285440390025987, 2.6302640264026405, 2.6302640264026405, 2.6302640264026405]",0.0,0.0,0.0,0.0,0.0,0.0,0.0,0.0,0.0,0.0,0.0,0.0,0.0,0.0,0.0,0.5944838375780308,0.043868994938803196,-0.06192762201088026,1.0,0.0,0.0,0.0,0.0,11.0,0.0,0.0,0.0,0.0,0.0,0.0,0.0,0.0,0.0
18667,17611.2,1778822291.5490267,17611.2,"[0.46221646666526794, -1.7037628332721155, -1.5137203375445765, -1.4118121306048792, 1.5390832424163818, 2.0388071537017822]","[0.594455028368104, 0.04380810175569349, -0.06185360021638209, 2.8148245383697077, -0.024151397225692043, 1.380110723330618]","[8.518120541175212e-18, 1.4207598833075037, 1.75780550459302, 1.1598998737824695, -0.22517107990205337, -0.0031981919955436497]","[8.518120659613867e-18, 1.420759916305542, 1.7578054666519165, 1.1598998308181763, -0.2251710742712021, -0.0031981919892132282]","[3.798073115003808, 3.798073115003808, 4.285440390025987, 2.6302640264026405, 2.6302640264026405, 2.6302640264026405]",0.0,0.0,0.0,0.0,0.0,0.0,0.0,0.0,0.0,0.0,0.0,0.0,0.0,0.0,0.0,0.5944838375780308,0.043868994938803196,-0.06192762201088026,1.0,0.0,0.0,0.0,0.0,11.0,0.0,0.0,0.0,0.0,0.0,0.0,0.0,0.0,0.0
18668,17611.208,1778822291.5565774,17611.208,"[0.46221646666526794, -1.7037628332721155, -1.5137203375445765, -1.4118121306048792, 1.5390832424163818, 2.0388071537017822]","[0.594455028368104, 0.04380810175569349, -0.06185360021638209, 2.8148245383697077, -0.024151397225692043, 1.380110723330618]","[8.518120541175212e-18, 1.4207598833075037, 1.75780550459302, 1.1598998737824695, -0.22517107990205337, -0.0031981919955436497]","[8.518120659613867e-18, 1.420759916305542, 1.7578054666519165, 1.1598998308181763, -0.2251710742712021, -0.0031981919892132282]","[3.798073115003808, 3.798073115003808, 4.285440390025987, 2.6302640264026405, 2.6302640264026405, 2.6302640264026405]",0.0,0.0,0.0,0.0,0.0,0.0,0.0,0.0,0.0,0.0,0.0,0.0,0.0,0.0,0.0,0.5944838375780308,0.043868994938803196,-0.06192762201088026,1.0,0.0,0.0,0.0,0.0,11.0,0.0,0.0,0.0,0.0,0.0,0.0,0.0,0.0,0.0
18669,17611.216,1778822291.5659149,17611.216,"[0.46221646666526794, -1.7037628332721155, -1.5137203375445765, -1.4118121306048792, 1.5390832424163818, 2.0388071537017822]","[0.594455028368104, 0.04380810175569349, -0.06185360021638209, 2.8148245383697077, -0.024151397225692043, 1.380110723330618]","[8.518120541175212e-18, 1.4207598833075037, 1.75780550459302, 1.1598998737824695, -0.22517107990205337, -0.0031981919955436497]","[8.518120659613867e-18, 1.420759916305542, 1.7578054666519165, 1.1598998308181763, -0.2251710742712021, -0.0031981919892132282]","[3.798073115003808, 3.798073115003808, 4.285440390025987, 2.6302640264026405, 2.6302640264026405, 2.6302640264026405]",0.0,0.0,0.0,0.0,0.0,0.0,0.0,0.0,0.0,0.0,0.0,0.0,0.0,0.0,0.0,0.5944838375780308,0.043868994938803196,-0.06192762201088026,1.0,0.0,0.0,0.0,0.0,11.0,0.0,0.0,0.0,0.0,0.0,0.0,0.0,0.0,0.0
